(G-CODE GENERATED BY FLATCAM v8.994 - www.flatcam.org - Version Date: 2020/11/7)

(Name: astro-control-B_Mask.gbr_mt_paint_cnc)
(Type: G-code from Geometry)
(Units: MM)

(Created on Monday, 29 December 2025 at 12:23)

(This preprocessor is the default preprocessor used by FlatCAM.)
(It is made to work with MACH3 compatible motion controllers.)

(TOOL DIAMETER: 0.3 mm)
(Feedrate_XY: 120.0 mm/min)
(Feedrate_Z: 60.0 mm/min)
(Feedrate rapids 1500.0 mm/min)

(Z_Cut: 0.0 mm)
(Z_Move: 2.0 mm)
(Z Start: None mm)
(Z End: 15.0 mm)
(X,Y End: None mm)
(Steps per circle: 64)
(Preprocessor Geometry: default)

(X range:   12.5502 ...  127.4498  mm)
(Y range:   11.0200 ...   77.4498  mm)

(Spindle Speed: 6000.0 RPM)
G21
G90
G94

G01 F120.00

M5
G00 Z15.0000
G00 X0.0000 Y0.0000
T1M6    
(MSG, Change to Tool Dia = 0.3000)
M0
G00 Z15.0000

M03 S6000.0
G01 F120.00
G00 X14.0081 Y14.0000
G01 F60.00
G01 Z-0.10000
G01 F120.00
G01 X14.0075 Y13.9969
G01 X14.0057 Y13.9943
G01 X14.0031 Y13.9925
G01 X14.0000 Y13.9919
G01 X13.9969 Y13.9925
G01 X13.9943 Y13.9943
G01 X13.9925 Y13.9969
G01 X13.9919 Y14.0000
G01 X13.9925 Y14.0031
G01 X13.9943 Y14.0057
G01 X13.9969 Y14.0075
G01 X14.0000 Y14.0081
G01 X14.0031 Y14.0075
G01 X14.0057 Y14.0057
G01 X14.0075 Y14.0031
G01 X14.0081 Y14.0000
G01 X14.2484 Y14.0000
G01 X14.2472 Y13.9757
G01 X14.2436 Y13.9515
G01 X14.2377 Y13.9279
G01 X14.2295 Y13.9050
G01 X14.2190 Y13.8829
G01 X14.2065 Y13.8620
G01 X14.1920 Y13.8424
G01 X14.1756 Y13.8244
G01 X14.1576 Y13.8080
G01 X14.1380 Y13.7935
G01 X14.1171 Y13.7810
G01 X14.0950 Y13.7705
G01 X14.0721 Y13.7623
G01 X14.0485 Y13.7564
G01 X14.0243 Y13.7528
G01 X14.0000 Y13.7516
G01 X13.9757 Y13.7528
G01 X13.9515 Y13.7564
G01 X13.9279 Y13.7623
G01 X13.9050 Y13.7705
G01 X13.8829 Y13.7810
G01 X13.8620 Y13.7935
G01 X13.8424 Y13.8080
G01 X13.8244 Y13.8244
G01 X13.8080 Y13.8424
G01 X13.7935 Y13.8620
G01 X13.7810 Y13.8829
G01 X13.7705 Y13.9050
G01 X13.7623 Y13.9279
G01 X13.7564 Y13.9515
G01 X13.7528 Y13.9757
G01 X13.7516 Y14.0000
G01 X13.7528 Y14.0243
G01 X13.7564 Y14.0485
G01 X13.7623 Y14.0721
G01 X13.7705 Y14.0950
G01 X13.7810 Y14.1171
G01 X13.7935 Y14.1380
G01 X13.8080 Y14.1576
G01 X13.8244 Y14.1756
G01 X13.8424 Y14.1920
G01 X13.8620 Y14.2065
G01 X13.8829 Y14.2190
G01 X13.9050 Y14.2295
G01 X13.9279 Y14.2377
G01 X13.9515 Y14.2436
G01 X13.9757 Y14.2472
G01 X14.0000 Y14.2484
G01 X14.0243 Y14.2472
G01 X14.0485 Y14.2436
G01 X14.0721 Y14.2377
G01 X14.0950 Y14.2295
G01 X14.1171 Y14.2190
G01 X14.1380 Y14.2065
G01 X14.1576 Y14.1920
G01 X14.1756 Y14.1756
G01 X14.1920 Y14.1576
G01 X14.2065 Y14.1380
G01 X14.2190 Y14.1171
G01 X14.2295 Y14.0950
G01 X14.2377 Y14.0721
G01 X14.2436 Y14.0485
G01 X14.2472 Y14.0243
G01 X14.2484 Y14.0000
G01 X14.4887 Y14.0000
G01 X14.4863 Y13.9521
G01 X14.4793 Y13.9047
G01 X14.4676 Y13.8581
G01 X14.4515 Y13.8130
G01 X14.4310 Y13.7696
G01 X14.4063 Y13.7285
G01 X14.3777 Y13.6900
G01 X14.3455 Y13.6545
G01 X14.3100 Y13.6223
G01 X14.2715 Y13.5937
G01 X14.2304 Y13.5690
G01 X14.1870 Y13.5485
G01 X14.1419 Y13.5324
G01 X14.0953 Y13.5207
G01 X14.0479 Y13.5137
G01 X14.0000 Y13.5113
G01 X13.9521 Y13.5137
G01 X13.9047 Y13.5207
G01 X13.8581 Y13.5324
G01 X13.8130 Y13.5485
G01 X13.7696 Y13.5690
G01 X13.7285 Y13.5937
G01 X13.6900 Y13.6223
G01 X13.6545 Y13.6545
G01 X13.6223 Y13.6900
G01 X13.5937 Y13.7285
G01 X13.5690 Y13.7696
G01 X13.5485 Y13.8130
G01 X13.5324 Y13.8581
G01 X13.5207 Y13.9047
G01 X13.5137 Y13.9521
G01 X13.5113 Y14.0000
G01 X13.5137 Y14.0479
G01 X13.5207 Y14.0953
G01 X13.5324 Y14.1419
G01 X13.5485 Y14.1870
G01 X13.5690 Y14.2304
G01 X13.5937 Y14.2715
G01 X13.6223 Y14.3100
G01 X13.6545 Y14.3455
G01 X13.6900 Y14.3777
G01 X13.7285 Y14.4063
G01 X13.7696 Y14.4310
G01 X13.8130 Y14.4515
G01 X13.8581 Y14.4676
G01 X13.9047 Y14.4793
G01 X13.9521 Y14.4863
G01 X14.0000 Y14.4887
G01 X14.0479 Y14.4863
G01 X14.0953 Y14.4793
G01 X14.1419 Y14.4676
G01 X14.1870 Y14.4515
G01 X14.2304 Y14.4310
G01 X14.2715 Y14.4063
G01 X14.3100 Y14.3777
G01 X14.3455 Y14.3455
G01 X14.3777 Y14.3100
G01 X14.4063 Y14.2715
G01 X14.4310 Y14.2304
G01 X14.4515 Y14.1870
G01 X14.4676 Y14.1419
G01 X14.4793 Y14.0953
G01 X14.4863 Y14.0479
G01 X14.4887 Y14.0000
G01 X14.7290 Y14.0000
G01 X14.7254 Y13.9286
G01 X14.7149 Y13.8578
G01 X14.6976 Y13.7884
G01 X14.6735 Y13.7210
G01 X14.6429 Y13.6564
G01 X14.6061 Y13.5950
G01 X14.5635 Y13.5376
G01 X14.5154 Y13.4846
G01 X14.4624 Y13.4365
G01 X14.4050 Y13.3939
G01 X14.3436 Y13.3571
G01 X14.2790 Y13.3265
G01 X14.2116 Y13.3024
G01 X14.1422 Y13.2851
G01 X14.0714 Y13.2746
G01 X14.0000 Y13.2710
G01 X13.9286 Y13.2746
G01 X13.8578 Y13.2851
G01 X13.7884 Y13.3024
G01 X13.7210 Y13.3265
G01 X13.6564 Y13.3571
G01 X13.5950 Y13.3939
G01 X13.5376 Y13.4365
G01 X13.4846 Y13.4846
G01 X13.4365 Y13.5376
G01 X13.3939 Y13.5950
G01 X13.3571 Y13.6564
G01 X13.3265 Y13.7210
G01 X13.3024 Y13.7884
G01 X13.2851 Y13.8578
G01 X13.2746 Y13.9286
G01 X13.2710 Y14.0000
G01 X13.2746 Y14.0714
G01 X13.2851 Y14.1422
G01 X13.3024 Y14.2116
G01 X13.3265 Y14.2790
G01 X13.3571 Y14.3436
G01 X13.3939 Y14.4050
G01 X13.4365 Y14.4624
G01 X13.4846 Y14.5154
G01 X13.5376 Y14.5635
G01 X13.5950 Y14.6061
G01 X13.6564 Y14.6429
G01 X13.7210 Y14.6735
G01 X13.7884 Y14.6976
G01 X13.8578 Y14.7149
G01 X13.9286 Y14.7254
G01 X14.0000 Y14.7290
G01 X14.0714 Y14.7254
G01 X14.1422 Y14.7149
G01 X14.2116 Y14.6976
G01 X14.2790 Y14.6735
G01 X14.3436 Y14.6429
G01 X14.4050 Y14.6061
G01 X14.4624 Y14.5635
G01 X14.5154 Y14.5154
G01 X14.5635 Y14.4624
G01 X14.6061 Y14.4050
G01 X14.6429 Y14.3436
G01 X14.6735 Y14.2790
G01 X14.6976 Y14.2116
G01 X14.7149 Y14.1422
G01 X14.7254 Y14.0714
G01 X14.7290 Y14.0000
G01 X14.9692 Y14.0000
G01 X14.9646 Y13.9050
G01 X14.9506 Y13.8109
G01 X14.9275 Y13.7186
G01 X14.8955 Y13.6291
G01 X14.8548 Y13.5431
G01 X14.8059 Y13.4615
G01 X14.7492 Y13.3851
G01 X14.6854 Y13.3146
G01 X14.6149 Y13.2508
G01 X14.5385 Y13.1941
G01 X14.4569 Y13.1452
G01 X14.3709 Y13.1045
G01 X14.2814 Y13.0725
G01 X14.1891 Y13.0494
G01 X14.0950 Y13.0354
G01 X14.0000 Y13.0308
G01 X13.9050 Y13.0354
G01 X13.8109 Y13.0494
G01 X13.7186 Y13.0725
G01 X13.6291 Y13.1045
G01 X13.5431 Y13.1452
G01 X13.4615 Y13.1941
G01 X13.3851 Y13.2508
G01 X13.3146 Y13.3146
G01 X13.2508 Y13.3851
G01 X13.1941 Y13.4615
G01 X13.1452 Y13.5431
G01 X13.1045 Y13.6291
G01 X13.0725 Y13.7186
G01 X13.0494 Y13.8109
G01 X13.0354 Y13.9050
G01 X13.0308 Y14.0000
G01 X13.0354 Y14.0950
G01 X13.0494 Y14.1891
G01 X13.0725 Y14.2814
G01 X13.1045 Y14.3709
G01 X13.1452 Y14.4569
G01 X13.1941 Y14.5385
G01 X13.2508 Y14.6149
G01 X13.3146 Y14.6854
G01 X13.3851 Y14.7492
G01 X13.4615 Y14.8059
G01 X13.5431 Y14.8548
G01 X13.6291 Y14.8955
G01 X13.7186 Y14.9275
G01 X13.8109 Y14.9506
G01 X13.9050 Y14.9646
G01 X14.0000 Y14.9692
G01 X14.0950 Y14.9646
G01 X14.1891 Y14.9506
G01 X14.2814 Y14.9275
G01 X14.3709 Y14.8955
G01 X14.4569 Y14.8548
G01 X14.5385 Y14.8059
G01 X14.6149 Y14.7492
G01 X14.6854 Y14.6854
G01 X14.7492 Y14.6149
G01 X14.8059 Y14.5385
G01 X14.8548 Y14.4569
G01 X14.8955 Y14.3709
G01 X14.9275 Y14.2814
G01 X14.9506 Y14.1891
G01 X14.9646 Y14.0950
G01 X14.9692 Y14.0000
G01 X15.2095 Y14.0000
G01 X15.2037 Y13.8814
G01 X15.1863 Y13.7640
G01 X15.1574 Y13.6489
G01 X15.1175 Y13.5371
G01 X15.0667 Y13.4298
G01 X15.0057 Y13.3280
G01 X14.9350 Y13.2327
G01 X14.8553 Y13.1447
G01 X14.7673 Y13.0650
G01 X14.6720 Y12.9943
G01 X14.5702 Y12.9333
G01 X14.4629 Y12.8825
G01 X14.3511 Y12.8426
G01 X14.2360 Y12.8137
G01 X14.1186 Y12.7963
G01 X14.0000 Y12.7905
G01 X13.8814 Y12.7963
G01 X13.7640 Y12.8137
G01 X13.6489 Y12.8426
G01 X13.5371 Y12.8825
G01 X13.4298 Y12.9333
G01 X13.3280 Y12.9943
G01 X13.2327 Y13.0650
G01 X13.1447 Y13.1447
G01 X13.0650 Y13.2327
G01 X12.9943 Y13.3280
G01 X12.9333 Y13.4298
G01 X12.8825 Y13.5371
G01 X12.8426 Y13.6489
G01 X12.8137 Y13.7640
G01 X12.7963 Y13.8814
G01 X12.7905 Y14.0000
G01 X12.7963 Y14.1186
G01 X12.8137 Y14.2360
G01 X12.8426 Y14.3511
G01 X12.8825 Y14.4629
G01 X12.9333 Y14.5702
G01 X12.9943 Y14.6720
G01 X13.0650 Y14.7673
G01 X13.1447 Y14.8553
G01 X13.2327 Y14.9350
G01 X13.3280 Y15.0057
G01 X13.4298 Y15.0667
G01 X13.5371 Y15.1175
G01 X13.6489 Y15.1574
G01 X13.7640 Y15.1863
G01 X13.8814 Y15.2037
G01 X14.0000 Y15.2095
G01 X14.1186 Y15.2037
G01 X14.2360 Y15.1863
G01 X14.3511 Y15.1574
G01 X14.4629 Y15.1175
G01 X14.5702 Y15.0667
G01 X14.6720 Y15.0057
G01 X14.7673 Y14.9350
G01 X14.8553 Y14.8553
G01 X14.9350 Y14.7673
G01 X15.0057 Y14.6720
G01 X15.0667 Y14.5702
G01 X15.1175 Y14.4629
G01 X15.1574 Y14.3511
G01 X15.1863 Y14.2360
G01 X15.2037 Y14.1186
G01 X15.2095 Y14.0000
G01 X15.4498 Y14.0000
G01 X15.4428 Y13.8579
G01 X15.4220 Y13.7172
G01 X15.3874 Y13.5791
G01 X15.3395 Y13.4452
G01 X15.2786 Y13.3166
G01 X15.2055 Y13.1945
G01 X15.1207 Y13.0802
G01 X15.0252 Y12.9748
G01 X14.9198 Y12.8793
G01 X14.8055 Y12.7945
G01 X14.6834 Y12.7214
G01 X14.5548 Y12.6605
G01 X14.4209 Y12.6126
G01 X14.2828 Y12.5780
G01 X14.1421 Y12.5572
G01 X14.0000 Y12.5502
G01 X13.8579 Y12.5572
G01 X13.7172 Y12.5780
G01 X13.5791 Y12.6126
G01 X13.4452 Y12.6605
G01 X13.3166 Y12.7214
G01 X13.1945 Y12.7945
G01 X13.0802 Y12.8793
G01 X12.9748 Y12.9748
G01 X12.8793 Y13.0802
G01 X12.7945 Y13.1945
G01 X12.7214 Y13.3166
G01 X12.6605 Y13.4452
G01 X12.6126 Y13.5791
G01 X12.5780 Y13.7172
G01 X12.5572 Y13.8579
G01 X12.5502 Y14.0000
G01 X12.5572 Y14.1421
G01 X12.5780 Y14.2828
G01 X12.6126 Y14.4209
G01 X12.6605 Y14.5548
G01 X12.7214 Y14.6834
G01 X12.7945 Y14.8055
G01 X12.8793 Y14.9198
G01 X12.9748 Y15.0252
G01 X13.0802 Y15.1207
G01 X13.1945 Y15.2055
G01 X13.3166 Y15.2786
G01 X13.4452 Y15.3395
G01 X13.5791 Y15.3874
G01 X13.7172 Y15.4220
G01 X13.8579 Y15.4428
G01 X14.0000 Y15.4498
G01 X14.1421 Y15.4428
G01 X14.2828 Y15.4220
G01 X14.4209 Y15.3874
G01 X14.5548 Y15.3395
G01 X14.6834 Y15.2786
G01 X14.8055 Y15.2055
G01 X14.9198 Y15.1207
G01 X15.0252 Y15.0252
G01 X15.1207 Y14.9198
G01 X15.2055 Y14.8055
G01 X15.2786 Y14.6834
G01 X15.3395 Y14.5548
G01 X15.3874 Y14.4209
G01 X15.4220 Y14.2828
G01 X15.4428 Y14.1421
G01 X15.4498 Y14.0000
G00 Z2.0000
G00 X29.2272 Y18.1900
G01 F60.00
G01 Z-0.10000
G01 F120.00
G01 X30.7728 Y18.1900
G01 X30.8185 Y18.1878
G01 X30.8368 Y18.1850
G01 X30.8548 Y18.1805
G01 X30.8722 Y18.1743
G01 X30.8889 Y18.1664
G01 X30.9048 Y18.1569
G01 X30.9197 Y18.1458
G01 X30.9334 Y18.1334
G01 X30.9458 Y18.1197
G01 X30.9569 Y18.1048
G01 X30.9664 Y18.0889
G01 X30.9743 Y18.0722
G01 X30.9805 Y18.0548
G01 X30.9850 Y18.0368
G01 X30.9878 Y18.0185
G01 X30.9887 Y18.0000
G01 X30.9878 Y17.9815
G01 X30.9850 Y17.9632
G01 X30.9805 Y17.9452
G01 X30.9743 Y17.9278
G01 X30.9664 Y17.9111
G01 X30.9569 Y17.8952
G01 X30.9458 Y17.8803
G01 X30.9334 Y17.8666
G01 X30.9197 Y17.8542
G01 X30.9048 Y17.8431
G01 X30.8889 Y17.8336
G01 X30.8722 Y17.8257
G01 X30.8548 Y17.8195
G01 X30.8368 Y17.8150
G01 X30.8185 Y17.8122
G01 X30.7728 Y17.8100
G01 X29.2272 Y17.8100
G01 X29.1815 Y17.8122
G01 X29.1632 Y17.8150
G01 X29.1452 Y17.8195
G01 X29.1278 Y17.8257
G01 X29.1111 Y17.8336
G01 X29.0952 Y17.8431
G01 X29.0803 Y17.8542
G01 X29.0666 Y17.8666
G01 X29.0542 Y17.8803
G01 X29.0431 Y17.8952
G01 X29.0336 Y17.9111
G01 X29.0257 Y17.9278
G01 X29.0195 Y17.9452
G01 X29.0150 Y17.9632
G01 X29.0122 Y17.9815
G01 X29.0113 Y18.0000
G01 X29.0122 Y18.0185
G01 X29.0150 Y18.0368
G01 X29.0195 Y18.0548
G01 X29.0257 Y18.0722
G01 X29.0336 Y18.0889
G01 X29.0431 Y18.1048
G01 X29.0542 Y18.1197
G01 X29.0666 Y18.1334
G01 X29.0803 Y18.1458
G01 X29.0952 Y18.1569
G01 X29.1111 Y18.1664
G01 X29.1278 Y18.1743
G01 X29.1452 Y18.1805
G01 X29.1632 Y18.1850
G01 X29.1815 Y18.1878
G01 X29.2272 Y18.1900
G01 X29.2214 Y18.4300
G01 X30.7786 Y18.4300
G01 X30.8420 Y18.4269
G01 X30.8837 Y18.4207
G01 X30.9245 Y18.4105
G01 X30.9642 Y18.3963
G01 X31.0022 Y18.3783
G01 X31.0383 Y18.3567
G01 X31.0721 Y18.3316
G01 X31.1033 Y18.3033
G01 X31.1316 Y18.2721
G01 X31.1567 Y18.2383
G01 X31.1783 Y18.2022
G01 X31.1963 Y18.1642
G01 X31.2105 Y18.1245
G01 X31.2207 Y18.0837
G01 X31.2269 Y18.0420
G01 X31.2290 Y18.0000
G01 X31.2269 Y17.9580
G01 X31.2207 Y17.9163
G01 X31.2105 Y17.8755
G01 X31.1963 Y17.8358
G01 X31.1783 Y17.7978
G01 X31.1567 Y17.7617
G01 X31.1316 Y17.7279
G01 X31.1033 Y17.6967
G01 X31.0721 Y17.6684
G01 X31.0383 Y17.6433
G01 X31.0022 Y17.6217
G01 X30.9642 Y17.6037
G01 X30.9245 Y17.5895
G01 X30.8837 Y17.5793
G01 X30.8420 Y17.5731
G01 X30.7786 Y17.5700
G01 X29.2214 Y17.5700
G01 X29.1580 Y17.5731
G01 X29.1163 Y17.5793
G01 X29.0755 Y17.5895
G01 X29.0358 Y17.6037
G01 X28.9978 Y17.6217
G01 X28.9617 Y17.6433
G01 X28.9279 Y17.6684
G01 X28.8967 Y17.6967
G01 X28.8684 Y17.7279
G01 X28.8433 Y17.7617
G01 X28.8217 Y17.7978
G01 X28.8037 Y17.8358
G01 X28.7895 Y17.8755
G01 X28.7793 Y17.9163
G01 X28.7731 Y17.9580
G01 X28.7710 Y18.0000
G01 X28.7731 Y18.0420
G01 X28.7793 Y18.0837
G01 X28.7895 Y18.1245
G01 X28.8037 Y18.1642
G01 X28.8217 Y18.2022
G01 X28.8433 Y18.2383
G01 X28.8684 Y18.2721
G01 X28.8967 Y18.3033
G01 X28.9279 Y18.3316
G01 X28.9617 Y18.3567
G01 X28.9978 Y18.3783
G01 X29.0358 Y18.3963
G01 X29.0755 Y18.4105
G01 X29.1163 Y18.4207
G01 X29.1580 Y18.4269
G01 X29.2214 Y18.4300
G01 X29.2155 Y18.6700
G01 X30.7845 Y18.6700
G01 X30.8656 Y18.6660
G01 X30.9306 Y18.6564
G01 X30.9943 Y18.6404
G01 X31.0561 Y18.6183
G01 X31.1155 Y18.5902
G01 X31.1718 Y18.5565
G01 X31.2246 Y18.5173
G01 X31.2732 Y18.4732
G01 X31.3173 Y18.4246
G01 X31.3565 Y18.3718
G01 X31.3902 Y18.3155
G01 X31.4183 Y18.2561
G01 X31.4404 Y18.1943
G01 X31.4564 Y18.1306
G01 X31.4660 Y18.0656
G01 X31.4692 Y18.0000
G01 X31.4660 Y17.9344
G01 X31.4564 Y17.8694
G01 X31.4404 Y17.8057
G01 X31.4183 Y17.7439
G01 X31.3902 Y17.6845
G01 X31.3565 Y17.6282
G01 X31.3173 Y17.5754
G01 X31.2732 Y17.5268
G01 X31.2246 Y17.4827
G01 X31.1718 Y17.4435
G01 X31.1155 Y17.4098
G01 X31.0561 Y17.3817
G01 X30.9943 Y17.3596
G01 X30.9306 Y17.3436
G01 X30.8656 Y17.3340
G01 X30.7845 Y17.3300
G01 X29.2155 Y17.3300
G01 X29.1344 Y17.3340
G01 X29.0694 Y17.3436
G01 X29.0057 Y17.3596
G01 X28.9439 Y17.3817
G01 X28.8845 Y17.4098
G01 X28.8282 Y17.4435
G01 X28.7754 Y17.4827
G01 X28.7268 Y17.5268
G01 X28.6827 Y17.5754
G01 X28.6435 Y17.6282
G01 X28.6098 Y17.6845
G01 X28.5817 Y17.7439
G01 X28.5596 Y17.8057
G01 X28.5436 Y17.8694
G01 X28.5340 Y17.9344
G01 X28.5308 Y18.0000
G01 X28.5340 Y18.0656
G01 X28.5436 Y18.1306
G01 X28.5596 Y18.1943
G01 X28.5817 Y18.2561
G01 X28.6098 Y18.3155
G01 X28.6435 Y18.3718
G01 X28.6827 Y18.4246
G01 X28.7268 Y18.4732
G01 X28.7754 Y18.5173
G01 X28.8282 Y18.5565
G01 X28.8845 Y18.5902
G01 X28.9439 Y18.6183
G01 X29.0057 Y18.6404
G01 X29.0694 Y18.6564
G01 X29.1344 Y18.6660
G01 X29.2155 Y18.6700
G01 X29.2096 Y18.9100
G01 X30.7904 Y18.9100
G01 X30.8891 Y18.9051
G01 X30.9774 Y18.8921
G01 X31.0640 Y18.8704
G01 X31.1481 Y18.8403
G01 X31.2287 Y18.8021
G01 X31.3053 Y18.7562
G01 X31.3770 Y18.7031
G01 X31.4431 Y18.6431
G01 X31.5031 Y18.5770
G01 X31.5562 Y18.5053
G01 X31.6021 Y18.4287
G01 X31.6403 Y18.3481
G01 X31.6704 Y18.2640
G01 X31.6921 Y18.1774
G01 X31.7051 Y18.0891
G01 X31.7095 Y18.0000
G01 X31.7051 Y17.9109
G01 X31.6921 Y17.8226
G01 X31.6704 Y17.7360
G01 X31.6403 Y17.6519
G01 X31.6021 Y17.5713
G01 X31.5562 Y17.4947
G01 X31.5031 Y17.4230
G01 X31.4431 Y17.3569
G01 X31.3770 Y17.2969
G01 X31.3053 Y17.2438
G01 X31.2287 Y17.1979
G01 X31.1481 Y17.1597
G01 X31.0640 Y17.1296
G01 X30.9774 Y17.1079
G01 X30.8891 Y17.0949
G01 X30.7904 Y17.0900
G01 X29.2096 Y17.0900
G01 X29.1109 Y17.0949
G01 X29.0226 Y17.1079
G01 X28.9360 Y17.1296
G01 X28.8519 Y17.1597
G01 X28.7713 Y17.1979
G01 X28.6947 Y17.2438
G01 X28.6230 Y17.2969
G01 X28.5569 Y17.3569
G01 X28.4969 Y17.4230
G01 X28.4438 Y17.4947
G01 X28.3979 Y17.5713
G01 X28.3597 Y17.6519
G01 X28.3296 Y17.7360
G01 X28.3079 Y17.8226
G01 X28.2949 Y17.9109
G01 X28.2905 Y18.0000
G01 X28.2949 Y18.0891
G01 X28.3079 Y18.1774
G01 X28.3296 Y18.2640
G01 X28.3597 Y18.3481
G01 X28.3979 Y18.4287
G01 X28.4438 Y18.5053
G01 X28.4969 Y18.5770
G01 X28.5569 Y18.6431
G01 X28.6230 Y18.7031
G01 X28.6947 Y18.7562
G01 X28.7713 Y18.8021
G01 X28.8519 Y18.8403
G01 X28.9360 Y18.8704
G01 X29.0226 Y18.8921
G01 X29.1109 Y18.9051
G01 X29.2096 Y18.9100
G01 X29.2037 Y19.1500
G01 X30.7963 Y19.1500
G01 X30.9127 Y19.1443
G01 X31.0243 Y19.1277
G01 X31.1338 Y19.1003
G01 X31.2400 Y19.0623
G01 X31.3420 Y19.0140
G01 X31.4388 Y18.9560
G01 X31.5294 Y18.8888
G01 X31.6130 Y18.8130
G01 X31.6888 Y18.7294
G01 X31.7560 Y18.6388
G01 X31.8140 Y18.5420
G01 X31.8623 Y18.4400
G01 X31.9003 Y18.3338
G01 X31.9277 Y18.2243
G01 X31.9443 Y18.1127
G01 X31.9498 Y18.0000
G01 X31.9443 Y17.8873
G01 X31.9277 Y17.7757
G01 X31.9003 Y17.6662
G01 X31.8623 Y17.5600
G01 X31.8140 Y17.4580
G01 X31.7560 Y17.3612
G01 X31.6888 Y17.2706
G01 X31.6130 Y17.1870
G01 X31.5294 Y17.1112
G01 X31.4388 Y17.0440
G01 X31.3420 Y16.9860
G01 X31.2400 Y16.9377
G01 X31.1338 Y16.8997
G01 X31.0243 Y16.8723
G01 X30.9127 Y16.8557
G01 X30.7963 Y16.8500
G01 X29.2037 Y16.8500
G01 X29.0873 Y16.8557
G01 X28.9757 Y16.8723
G01 X28.8662 Y16.8997
G01 X28.7600 Y16.9377
G01 X28.6580 Y16.9860
G01 X28.5612 Y17.0440
G01 X28.4706 Y17.1112
G01 X28.3870 Y17.1870
G01 X28.3112 Y17.2706
G01 X28.2440 Y17.3612
G01 X28.1860 Y17.4580
G01 X28.1377 Y17.5600
G01 X28.0997 Y17.6662
G01 X28.0723 Y17.7757
G01 X28.0557 Y17.8873
G01 X28.0502 Y18.0000
G01 X28.0557 Y18.1127
G01 X28.0723 Y18.2243
G01 X28.0997 Y18.3338
G01 X28.1377 Y18.4400
G01 X28.1860 Y18.5420
G01 X28.2440 Y18.6388
G01 X28.3112 Y18.7294
G01 X28.3870 Y18.8130
G01 X28.4706 Y18.8888
G01 X28.5612 Y18.9560
G01 X28.6580 Y19.0140
G01 X28.7600 Y19.0623
G01 X28.8662 Y19.1003
G01 X28.9757 Y19.1277
G01 X29.0873 Y19.1443
G01 X29.2037 Y19.1500
G00 Z2.0000
G00 X29.2272 Y24.3900
G01 F60.00
G01 Z-0.10000
G01 F120.00
G01 X30.7728 Y24.3900
G01 X30.8185 Y24.3878
G01 X30.8368 Y24.3850
G01 X30.8548 Y24.3805
G01 X30.8722 Y24.3743
G01 X30.8889 Y24.3664
G01 X30.9048 Y24.3569
G01 X30.9197 Y24.3458
G01 X30.9334 Y24.3334
G01 X30.9458 Y24.3197
G01 X30.9569 Y24.3048
G01 X30.9664 Y24.2889
G01 X30.9743 Y24.2722
G01 X30.9805 Y24.2548
G01 X30.9850 Y24.2368
G01 X30.9878 Y24.2185
G01 X30.9887 Y24.2000
G01 X30.9878 Y24.1815
G01 X30.9850 Y24.1632
G01 X30.9805 Y24.1452
G01 X30.9743 Y24.1278
G01 X30.9664 Y24.1111
G01 X30.9569 Y24.0952
G01 X30.9458 Y24.0803
G01 X30.9334 Y24.0666
G01 X30.9197 Y24.0542
G01 X30.9048 Y24.0431
G01 X30.8889 Y24.0336
G01 X30.8722 Y24.0257
G01 X30.8548 Y24.0195
G01 X30.8368 Y24.0150
G01 X30.8185 Y24.0122
G01 X30.7728 Y24.0100
G01 X29.2272 Y24.0100
G01 X29.1815 Y24.0122
G01 X29.1632 Y24.0150
G01 X29.1452 Y24.0195
G01 X29.1278 Y24.0257
G01 X29.1111 Y24.0336
G01 X29.0952 Y24.0431
G01 X29.0803 Y24.0542
G01 X29.0666 Y24.0666
G01 X29.0542 Y24.0803
G01 X29.0431 Y24.0952
G01 X29.0336 Y24.1111
G01 X29.0257 Y24.1278
G01 X29.0195 Y24.1452
G01 X29.0150 Y24.1632
G01 X29.0122 Y24.1815
G01 X29.0113 Y24.2000
G01 X29.0122 Y24.2185
G01 X29.0150 Y24.2368
G01 X29.0195 Y24.2548
G01 X29.0257 Y24.2722
G01 X29.0336 Y24.2889
G01 X29.0431 Y24.3048
G01 X29.0542 Y24.3197
G01 X29.0666 Y24.3334
G01 X29.0803 Y24.3458
G01 X29.0952 Y24.3569
G01 X29.1111 Y24.3664
G01 X29.1278 Y24.3743
G01 X29.1452 Y24.3805
G01 X29.1632 Y24.3850
G01 X29.1815 Y24.3878
G01 X29.2272 Y24.3900
G01 X29.2214 Y24.6300
G01 X30.7786 Y24.6300
G01 X30.8420 Y24.6269
G01 X30.8837 Y24.6207
G01 X30.9245 Y24.6105
G01 X30.9642 Y24.5963
G01 X31.0022 Y24.5783
G01 X31.0383 Y24.5567
G01 X31.0721 Y24.5316
G01 X31.1033 Y24.5033
G01 X31.1316 Y24.4721
G01 X31.1567 Y24.4383
G01 X31.1783 Y24.4022
G01 X31.1963 Y24.3642
G01 X31.2105 Y24.3245
G01 X31.2207 Y24.2837
G01 X31.2269 Y24.2420
G01 X31.2290 Y24.2000
G01 X31.2269 Y24.1580
G01 X31.2207 Y24.1163
G01 X31.2105 Y24.0755
G01 X31.1963 Y24.0358
G01 X31.1783 Y23.9978
G01 X31.1567 Y23.9617
G01 X31.1316 Y23.9279
G01 X31.1033 Y23.8967
G01 X31.0721 Y23.8684
G01 X31.0383 Y23.8433
G01 X31.0022 Y23.8217
G01 X30.9642 Y23.8037
G01 X30.9245 Y23.7895
G01 X30.8837 Y23.7793
G01 X30.8420 Y23.7731
G01 X30.7786 Y23.7700
G01 X29.2214 Y23.7700
G01 X29.1580 Y23.7731
G01 X29.1163 Y23.7793
G01 X29.0755 Y23.7895
G01 X29.0358 Y23.8037
G01 X28.9978 Y23.8217
G01 X28.9617 Y23.8433
G01 X28.9279 Y23.8684
G01 X28.8967 Y23.8967
G01 X28.8684 Y23.9279
G01 X28.8433 Y23.9617
G01 X28.8217 Y23.9978
G01 X28.8037 Y24.0358
G01 X28.7895 Y24.0755
G01 X28.7793 Y24.1163
G01 X28.7731 Y24.1580
G01 X28.7710 Y24.2000
G01 X28.7731 Y24.2420
G01 X28.7793 Y24.2837
G01 X28.7895 Y24.3245
G01 X28.8037 Y24.3642
G01 X28.8217 Y24.4022
G01 X28.8433 Y24.4383
G01 X28.8684 Y24.4721
G01 X28.8967 Y24.5033
G01 X28.9279 Y24.5316
G01 X28.9617 Y24.5567
G01 X28.9978 Y24.5783
G01 X29.0358 Y24.5963
G01 X29.0755 Y24.6105
G01 X29.1163 Y24.6207
G01 X29.1580 Y24.6269
G01 X29.2214 Y24.6300
G01 X29.2155 Y24.8700
G01 X30.7845 Y24.8700
G01 X30.8656 Y24.8660
G01 X30.9306 Y24.8564
G01 X30.9943 Y24.8404
G01 X31.0561 Y24.8183
G01 X31.1155 Y24.7902
G01 X31.1718 Y24.7565
G01 X31.2246 Y24.7173
G01 X31.2732 Y24.6732
G01 X31.3173 Y24.6246
G01 X31.3565 Y24.5718
G01 X31.3902 Y24.5155
G01 X31.4183 Y24.4561
G01 X31.4404 Y24.3943
G01 X31.4564 Y24.3306
G01 X31.4660 Y24.2656
G01 X31.4692 Y24.2000
G01 X31.4660 Y24.1344
G01 X31.4564 Y24.0694
G01 X31.4404 Y24.0057
G01 X31.4183 Y23.9439
G01 X31.3902 Y23.8845
G01 X31.3565 Y23.8282
G01 X31.3173 Y23.7754
G01 X31.2732 Y23.7268
G01 X31.2246 Y23.6827
G01 X31.1718 Y23.6435
G01 X31.1155 Y23.6098
G01 X31.0561 Y23.5817
G01 X30.9943 Y23.5596
G01 X30.9306 Y23.5436
G01 X30.8656 Y23.5340
G01 X30.7845 Y23.5300
G01 X29.2155 Y23.5300
G01 X29.1344 Y23.5340
G01 X29.0694 Y23.5436
G01 X29.0057 Y23.5596
G01 X28.9439 Y23.5817
G01 X28.8845 Y23.6098
G01 X28.8282 Y23.6435
G01 X28.7754 Y23.6827
G01 X28.7268 Y23.7268
G01 X28.6827 Y23.7754
G01 X28.6435 Y23.8282
G01 X28.6098 Y23.8845
G01 X28.5817 Y23.9439
G01 X28.5596 Y24.0057
G01 X28.5436 Y24.0694
G01 X28.5340 Y24.1344
G01 X28.5308 Y24.2000
G01 X28.5340 Y24.2656
G01 X28.5436 Y24.3306
G01 X28.5596 Y24.3943
G01 X28.5817 Y24.4561
G01 X28.6098 Y24.5155
G01 X28.6435 Y24.5718
G01 X28.6827 Y24.6246
G01 X28.7268 Y24.6732
G01 X28.7754 Y24.7173
G01 X28.8282 Y24.7565
G01 X28.8845 Y24.7902
G01 X28.9439 Y24.8183
G01 X29.0057 Y24.8404
G01 X29.0694 Y24.8564
G01 X29.1344 Y24.8660
G01 X29.2155 Y24.8700
G01 X29.2096 Y25.1100
G01 X30.7904 Y25.1100
G01 X30.8891 Y25.1051
G01 X30.9774 Y25.0921
G01 X31.0640 Y25.0704
G01 X31.1481 Y25.0403
G01 X31.2287 Y25.0021
G01 X31.3053 Y24.9562
G01 X31.3770 Y24.9031
G01 X31.4431 Y24.8431
G01 X31.5031 Y24.7770
G01 X31.5562 Y24.7053
G01 X31.6021 Y24.6287
G01 X31.6403 Y24.5481
G01 X31.6704 Y24.4640
G01 X31.6921 Y24.3774
G01 X31.7051 Y24.2891
G01 X31.7095 Y24.2000
G01 X31.7051 Y24.1109
G01 X31.6921 Y24.0226
G01 X31.6704 Y23.9360
G01 X31.6403 Y23.8519
G01 X31.6021 Y23.7713
G01 X31.5562 Y23.6947
G01 X31.5031 Y23.6230
G01 X31.4431 Y23.5569
G01 X31.3770 Y23.4969
G01 X31.3053 Y23.4438
G01 X31.2287 Y23.3979
G01 X31.1481 Y23.3597
G01 X31.0640 Y23.3296
G01 X30.9774 Y23.3079
G01 X30.8891 Y23.2949
G01 X30.7904 Y23.2900
G01 X29.2096 Y23.2900
G01 X29.1109 Y23.2949
G01 X29.0226 Y23.3079
G01 X28.9360 Y23.3296
G01 X28.8519 Y23.3597
G01 X28.7713 Y23.3979
G01 X28.6947 Y23.4438
G01 X28.6230 Y23.4969
G01 X28.5569 Y23.5569
G01 X28.4969 Y23.6230
G01 X28.4438 Y23.6947
G01 X28.3979 Y23.7713
G01 X28.3597 Y23.8519
G01 X28.3296 Y23.9360
G01 X28.3079 Y24.0226
G01 X28.2949 Y24.1109
G01 X28.2905 Y24.2000
G01 X28.2949 Y24.2891
G01 X28.3079 Y24.3774
G01 X28.3296 Y24.4640
G01 X28.3597 Y24.5481
G01 X28.3979 Y24.6287
G01 X28.4438 Y24.7053
G01 X28.4969 Y24.7770
G01 X28.5569 Y24.8431
G01 X28.6230 Y24.9031
G01 X28.6947 Y24.9562
G01 X28.7713 Y25.0021
G01 X28.8519 Y25.0403
G01 X28.9360 Y25.0704
G01 X29.0226 Y25.0921
G01 X29.1109 Y25.1051
G01 X29.2096 Y25.1100
G01 X29.2037 Y25.3500
G01 X30.7963 Y25.3500
G01 X30.9127 Y25.3443
G01 X31.0243 Y25.3277
G01 X31.1338 Y25.3003
G01 X31.2400 Y25.2623
G01 X31.3420 Y25.2140
G01 X31.4388 Y25.1560
G01 X31.5294 Y25.0888
G01 X31.6130 Y25.0130
G01 X31.6888 Y24.9294
G01 X31.7560 Y24.8388
G01 X31.8140 Y24.7420
G01 X31.8623 Y24.6400
G01 X31.9003 Y24.5338
G01 X31.9277 Y24.4243
G01 X31.9443 Y24.3127
G01 X31.9498 Y24.2000
G01 X31.9443 Y24.0873
G01 X31.9277 Y23.9757
G01 X31.9003 Y23.8662
G01 X31.8623 Y23.7600
G01 X31.8140 Y23.6580
G01 X31.7560 Y23.5612
G01 X31.6888 Y23.4706
G01 X31.6130 Y23.3870
G01 X31.5294 Y23.3112
G01 X31.4388 Y23.2440
G01 X31.3420 Y23.1860
G01 X31.2400 Y23.1377
G01 X31.1338 Y23.0997
G01 X31.0243 Y23.0723
G01 X30.9127 Y23.0557
G01 X30.7963 Y23.0500
G01 X29.2037 Y23.0500
G01 X29.0873 Y23.0557
G01 X28.9757 Y23.0723
G01 X28.8662 Y23.0997
G01 X28.7600 Y23.1377
G01 X28.6580 Y23.1860
G01 X28.5612 Y23.2440
G01 X28.4706 Y23.3112
G01 X28.3870 Y23.3870
G01 X28.3112 Y23.4706
G01 X28.2440 Y23.5612
G01 X28.1860 Y23.6580
G01 X28.1377 Y23.7600
G01 X28.0997 Y23.8662
G01 X28.0723 Y23.9757
G01 X28.0557 Y24.0873
G01 X28.0502 Y24.2000
G01 X28.0557 Y24.3127
G01 X28.0723 Y24.4243
G01 X28.0997 Y24.5338
G01 X28.1377 Y24.6400
G01 X28.1860 Y24.7420
G01 X28.2440 Y24.8388
G01 X28.3112 Y24.9294
G01 X28.3870 Y25.0130
G01 X28.4706 Y25.0888
G01 X28.5612 Y25.1560
G01 X28.6580 Y25.2140
G01 X28.7600 Y25.2623
G01 X28.8662 Y25.3003
G01 X28.9757 Y25.3277
G01 X29.0873 Y25.3443
G01 X29.2037 Y25.3500
G00 Z2.0000
G00 X28.8500 Y30.4412
G01 F60.00
G01 Z-0.10000
G01 F120.00
G01 X28.8500 Y31.5338
G01 X28.8507 Y31.5473
G01 X28.8521 Y31.5570
G01 X28.8545 Y31.5665
G01 X28.8578 Y31.5757
G01 X28.8620 Y31.5846
G01 X28.8670 Y31.5930
G01 X28.8728 Y31.6008
G01 X28.8794 Y31.6081
G01 X28.8867 Y31.6147
G01 X28.8945 Y31.6205
G01 X28.9029 Y31.6255
G01 X28.9118 Y31.6297
G01 X28.9210 Y31.6330
G01 X28.9305 Y31.6354
G01 X28.9402 Y31.6368
G01 X28.9537 Y31.6375
G01 X30.0463 Y31.6375
G01 X30.0598 Y31.6368
G01 X30.0695 Y31.6354
G01 X30.0790 Y31.6330
G01 X30.0882 Y31.6297
G01 X30.0971 Y31.6255
G01 X30.1055 Y31.6205
G01 X30.1133 Y31.6147
G01 X30.1206 Y31.6081
G01 X30.1272 Y31.6008
G01 X30.1330 Y31.5930
G01 X30.1380 Y31.5846
G01 X30.1422 Y31.5757
G01 X30.1455 Y31.5665
G01 X30.1479 Y31.5570
G01 X30.1493 Y31.5473
G01 X30.1500 Y31.5338
G01 X30.1500 Y30.4412
G01 X30.1493 Y30.4277
G01 X30.1479 Y30.4180
G01 X30.1455 Y30.4085
G01 X30.1422 Y30.3993
G01 X30.1380 Y30.3904
G01 X30.1330 Y30.3820
G01 X30.1272 Y30.3742
G01 X30.1206 Y30.3669
G01 X30.1133 Y30.3603
G01 X30.1055 Y30.3545
G01 X30.0971 Y30.3495
G01 X30.0882 Y30.3453
G01 X30.0790 Y30.3420
G01 X30.0695 Y30.3396
G01 X30.0598 Y30.3382
G01 X30.0463 Y30.3375
G01 X28.9537 Y30.3375
G01 X28.9402 Y30.3382
G01 X28.9305 Y30.3396
G01 X28.9210 Y30.3420
G01 X28.9118 Y30.3453
G01 X28.9029 Y30.3495
G01 X28.8945 Y30.3545
G01 X28.8867 Y30.3603
G01 X28.8794 Y30.3669
G01 X28.8728 Y30.3742
G01 X28.8670 Y30.3820
G01 X28.8620 Y30.3904
G01 X28.8578 Y30.3993
G01 X28.8545 Y30.4085
G01 X28.8521 Y30.4180
G01 X28.8507 Y30.4277
G01 X28.8500 Y30.4412
G01 X29.3300 Y31.1575
G01 X29.6700 Y31.1575
G01 X29.6700 Y30.8175
G01 X29.3300 Y30.8175
G01 X29.3300 Y31.1575
G01 X29.0900 Y31.3975
G01 X29.9100 Y31.3975
G01 X29.9100 Y30.5775
G01 X29.0900 Y30.5775
G01 X29.0900 Y31.3975
G00 Z2.0000
G00 X33.1692 Y30.9875
G01 F60.00
G01 Z-0.10000
G01 F120.00
G01 X33.1684 Y30.9709
G01 X33.1660 Y30.9545
G01 X33.1620 Y30.9384
G01 X33.1564 Y30.9227
G01 X33.1493 Y30.9077
G01 X33.1407 Y30.8935
G01 X33.1308 Y30.8801
G01 X33.1197 Y30.8678
G01 X33.1074 Y30.8567
G01 X33.0940 Y30.8468
G01 X33.0798 Y30.8382
G01 X33.0648 Y30.8311
G01 X33.0491 Y30.8255
G01 X33.0330 Y30.8215
G01 X33.0166 Y30.8191
G01 X33.0000 Y30.8183
G01 X32.9834 Y30.8191
G01 X32.9670 Y30.8215
G01 X32.9509 Y30.8255
G01 X32.9352 Y30.8311
G01 X32.9202 Y30.8382
G01 X32.9060 Y30.8468
G01 X32.8926 Y30.8567
G01 X32.8803 Y30.8678
G01 X32.8692 Y30.8801
G01 X32.8593 Y30.8935
G01 X32.8507 Y30.9077
G01 X32.8436 Y30.9227
G01 X32.8380 Y30.9384
G01 X32.8340 Y30.9545
G01 X32.8316 Y30.9709
G01 X32.8308 Y30.9875
G01 X32.8316 Y31.0041
G01 X32.8340 Y31.0205
G01 X32.8380 Y31.0366
G01 X32.8436 Y31.0523
G01 X32.8507 Y31.0673
G01 X32.8593 Y31.0815
G01 X32.8692 Y31.0949
G01 X32.8803 Y31.1072
G01 X32.8926 Y31.1183
G01 X32.9060 Y31.1282
G01 X32.9202 Y31.1368
G01 X32.9352 Y31.1439
G01 X32.9509 Y31.1495
G01 X32.9670 Y31.1535
G01 X32.9834 Y31.1559
G01 X33.0000 Y31.1567
G01 X33.0166 Y31.1559
G01 X33.0330 Y31.1535
G01 X33.0491 Y31.1495
G01 X33.0648 Y31.1439
G01 X33.0798 Y31.1368
G01 X33.0940 Y31.1282
G01 X33.1074 Y31.1183
G01 X33.1197 Y31.1072
G01 X33.1308 Y31.0949
G01 X33.1407 Y31.0815
G01 X33.1493 Y31.0673
G01 X33.1564 Y31.0523
G01 X33.1620 Y31.0366
G01 X33.1660 Y31.0205
G01 X33.1684 Y31.0041
G01 X33.1692 Y30.9875
G01 X33.4095 Y30.9875
G01 X33.4076 Y30.9474
G01 X33.4017 Y30.9076
G01 X33.3919 Y30.8686
G01 X33.3784 Y30.8308
G01 X33.3612 Y30.7944
G01 X33.3405 Y30.7600
G01 X33.3166 Y30.7277
G01 X33.2896 Y30.6979
G01 X33.2598 Y30.6709
G01 X33.2275 Y30.6470
G01 X33.1931 Y30.6263
G01 X33.1567 Y30.6091
G01 X33.1189 Y30.5956
G01 X33.0799 Y30.5858
G01 X33.0401 Y30.5799
G01 X33.0000 Y30.5780
G01 X32.9599 Y30.5799
G01 X32.9201 Y30.5858
G01 X32.8811 Y30.5956
G01 X32.8433 Y30.6091
G01 X32.8069 Y30.6263
G01 X32.7725 Y30.6470
G01 X32.7402 Y30.6709
G01 X32.7104 Y30.6979
G01 X32.6834 Y30.7277
G01 X32.6595 Y30.7600
G01 X32.6388 Y30.7944
G01 X32.6216 Y30.8308
G01 X32.6081 Y30.8686
G01 X32.5983 Y30.9076
G01 X32.5924 Y30.9474
G01 X32.5905 Y30.9875
G01 X32.5924 Y31.0276
G01 X32.5983 Y31.0674
G01 X32.6081 Y31.1064
G01 X32.6216 Y31.1442
G01 X32.6388 Y31.1806
G01 X32.6595 Y31.2150
G01 X32.6834 Y31.2473
G01 X32.7104 Y31.2771
G01 X32.7402 Y31.3041
G01 X32.7725 Y31.3280
G01 X32.8069 Y31.3487
G01 X32.8433 Y31.3659
G01 X32.8811 Y31.3794
G01 X32.9201 Y31.3892
G01 X32.9599 Y31.3951
G01 X33.0000 Y31.3970
G01 X33.0401 Y31.3951
G01 X33.0799 Y31.3892
G01 X33.1189 Y31.3794
G01 X33.1567 Y31.3659
G01 X33.1931 Y31.3487
G01 X33.2275 Y31.3280
G01 X33.2598 Y31.3041
G01 X33.2896 Y31.2771
G01 X33.3166 Y31.2473
G01 X33.3405 Y31.2150
G01 X33.3612 Y31.1806
G01 X33.3784 Y31.1442
G01 X33.3919 Y31.1064
G01 X33.4017 Y31.0674
G01 X33.4076 Y31.0276
G01 X33.4095 Y30.9875
G01 X33.6498 Y30.9875
G01 X33.6467 Y30.9238
G01 X33.6373 Y30.8607
G01 X33.6218 Y30.7989
G01 X33.6004 Y30.7388
G01 X33.5731 Y30.6812
G01 X33.5403 Y30.6265
G01 X33.5023 Y30.5753
G01 X33.4595 Y30.5280
G01 X33.4122 Y30.4852
G01 X33.3610 Y30.4472
G01 X33.3063 Y30.4144
G01 X33.2487 Y30.3871
G01 X33.1886 Y30.3657
G01 X33.1268 Y30.3502
G01 X33.0637 Y30.3408
G01 X33.0000 Y30.3377
G01 X32.9363 Y30.3408
G01 X32.8732 Y30.3502
G01 X32.8114 Y30.3657
G01 X32.7513 Y30.3871
G01 X32.6937 Y30.4144
G01 X32.6390 Y30.4472
G01 X32.5878 Y30.4852
G01 X32.5405 Y30.5280
G01 X32.4977 Y30.5753
G01 X32.4597 Y30.6265
G01 X32.4269 Y30.6812
G01 X32.3996 Y30.7388
G01 X32.3782 Y30.7989
G01 X32.3627 Y30.8607
G01 X32.3533 Y30.9238
G01 X32.3502 Y30.9875
G01 X32.3533 Y31.0512
G01 X32.3627 Y31.1143
G01 X32.3782 Y31.1761
G01 X32.3996 Y31.2362
G01 X32.4269 Y31.2938
G01 X32.4597 Y31.3485
G01 X32.4977 Y31.3997
G01 X32.5405 Y31.4470
G01 X32.5878 Y31.4898
G01 X32.6390 Y31.5278
G01 X32.6937 Y31.5606
G01 X32.7513 Y31.5879
G01 X32.8114 Y31.6093
G01 X32.8732 Y31.6248
G01 X32.9363 Y31.6342
G01 X33.0000 Y31.6373
G01 X33.0637 Y31.6342
G01 X33.1268 Y31.6248
G01 X33.1886 Y31.6093
G01 X33.2487 Y31.5879
G01 X33.3063 Y31.5606
G01 X33.3610 Y31.5278
G01 X33.4122 Y31.4898
G01 X33.4595 Y31.4470
G01 X33.5023 Y31.3997
G01 X33.5403 Y31.3485
G01 X33.5731 Y31.2938
G01 X33.6004 Y31.2362
G01 X33.6218 Y31.1761
G01 X33.6373 Y31.1143
G01 X33.6467 Y31.0512
G01 X33.6498 Y30.9875
G00 Z2.0000
G00 X39.0737 Y26.9800
G01 F60.00
G01 Z-0.10000
G01 F120.00
G01 X38.9965 Y26.9762
G01 X38.9237 Y26.9654
G01 X38.8523 Y26.9475
G01 X38.7831 Y26.9227
G01 X38.7165 Y26.8913
G01 X38.6534 Y26.8535
G01 X38.5943 Y26.8096
G01 X38.5398 Y26.7602
G01 X38.4904 Y26.7057
G01 X38.4465 Y26.6466
G01 X38.4087 Y26.5835
G01 X38.3773 Y26.5169
G01 X38.3525 Y26.4477
G01 X38.3346 Y26.3763
G01 X38.3238 Y26.3035
G01 X38.3202 Y26.2300
G01 X38.3238 Y26.1565
G01 X38.3346 Y26.0837
G01 X38.3525 Y26.0123
G01 X38.3773 Y25.9431
G01 X38.4087 Y25.8765
G01 X38.4465 Y25.8134
G01 X38.4904 Y25.7543
G01 X38.5398 Y25.6998
G01 X38.5943 Y25.6504
G01 X38.6534 Y25.6065
G01 X38.7165 Y25.5687
G01 X38.7831 Y25.5373
G01 X38.8523 Y25.5125
G01 X38.9237 Y25.4946
G01 X38.9965 Y25.4838
G01 X39.0737 Y25.4800
G01 X39.4663 Y25.4800
G01 X39.5435 Y25.4838
G01 X39.6163 Y25.4946
G01 X39.6877 Y25.5125
G01 X39.7569 Y25.5373
G01 X39.8235 Y25.5687
G01 X39.8866 Y25.6065
G01 X39.9457 Y25.6504
G01 X40.0002 Y25.6998
G01 X40.0496 Y25.7543
G01 X40.0935 Y25.8134
G01 X40.1313 Y25.8765
G01 X40.1627 Y25.9431
G01 X40.1875 Y26.0123
G01 X40.2054 Y26.0837
G01 X40.2162 Y26.1565
G01 X40.2198 Y26.2300
G01 X40.2162 Y26.3035
G01 X40.2054 Y26.3763
G01 X40.1875 Y26.4477
G01 X40.1627 Y26.5169
G01 X40.1313 Y26.5835
G01 X40.0935 Y26.6466
G01 X40.0496 Y26.7057
G01 X40.0002 Y26.7602
G01 X39.9457 Y26.8096
G01 X39.8866 Y26.8535
G01 X39.8235 Y26.8913
G01 X39.7569 Y26.9227
G01 X39.6877 Y26.9475
G01 X39.6163 Y26.9654
G01 X39.5435 Y26.9762
G01 X39.4663 Y26.9800
G01 X39.0737 Y26.9800
G01 X39.0796 Y26.7400
G01 X39.0201 Y26.7371
G01 X38.9706 Y26.7297
G01 X38.9221 Y26.7176
G01 X38.8750 Y26.7007
G01 X38.8298 Y26.6794
G01 X38.7869 Y26.6537
G01 X38.7468 Y26.6239
G01 X38.7097 Y26.5903
G01 X38.6761 Y26.5532
G01 X38.6463 Y26.5131
G01 X38.6206 Y26.4702
G01 X38.5993 Y26.4250
G01 X38.5824 Y26.3779
G01 X38.5703 Y26.3294
G01 X38.5629 Y26.2799
G01 X38.5605 Y26.2300
G01 X38.5629 Y26.1801
G01 X38.5703 Y26.1306
G01 X38.5824 Y26.0821
G01 X38.5993 Y26.0350
G01 X38.6206 Y25.9898
G01 X38.6463 Y25.9469
G01 X38.6761 Y25.9068
G01 X38.7097 Y25.8697
G01 X38.7468 Y25.8361
G01 X38.7869 Y25.8063
G01 X38.8298 Y25.7806
G01 X38.8750 Y25.7593
G01 X38.9221 Y25.7424
G01 X38.9706 Y25.7303
G01 X39.0201 Y25.7229
G01 X39.0796 Y25.7200
G01 X39.4604 Y25.7200
G01 X39.5199 Y25.7229
G01 X39.5694 Y25.7303
G01 X39.6179 Y25.7424
G01 X39.6650 Y25.7593
G01 X39.7102 Y25.7806
G01 X39.7531 Y25.8063
G01 X39.7932 Y25.8361
G01 X39.8303 Y25.8697
G01 X39.8639 Y25.9068
G01 X39.8937 Y25.9469
G01 X39.9194 Y25.9898
G01 X39.9407 Y26.0350
G01 X39.9576 Y26.0821
G01 X39.9697 Y26.1306
G01 X39.9771 Y26.1801
G01 X39.9795 Y26.2300
G01 X39.9771 Y26.2799
G01 X39.9697 Y26.3294
G01 X39.9576 Y26.3779
G01 X39.9407 Y26.4250
G01 X39.9194 Y26.4702
G01 X39.8937 Y26.5131
G01 X39.8639 Y26.5532
G01 X39.8303 Y26.5903
G01 X39.7932 Y26.6239
G01 X39.7531 Y26.6537
G01 X39.7102 Y26.6794
G01 X39.6650 Y26.7007
G01 X39.6179 Y26.7176
G01 X39.5694 Y26.7297
G01 X39.5199 Y26.7371
G01 X39.4604 Y26.7400
G01 X39.0796 Y26.7400
G01 X39.0855 Y26.5000
G01 X39.0436 Y26.4979
G01 X39.0175 Y26.4941
G01 X38.9918 Y26.4876
G01 X38.9670 Y26.4787
G01 X38.9431 Y26.4674
G01 X38.9204 Y26.4539
G01 X38.8992 Y26.4381
G01 X38.8796 Y26.4204
G01 X38.8619 Y26.4008
G01 X38.8461 Y26.3796
G01 X38.8326 Y26.3569
G01 X38.8213 Y26.3330
G01 X38.8124 Y26.3082
G01 X38.8059 Y26.2825
G01 X38.8021 Y26.2564
G01 X38.8008 Y26.2300
G01 X38.8021 Y26.2036
G01 X38.8059 Y26.1775
G01 X38.8124 Y26.1518
G01 X38.8213 Y26.1270
G01 X38.8326 Y26.1031
G01 X38.8461 Y26.0804
G01 X38.8619 Y26.0592
G01 X38.8796 Y26.0396
G01 X38.8992 Y26.0219
G01 X38.9204 Y26.0061
G01 X38.9431 Y25.9926
G01 X38.9670 Y25.9813
G01 X38.9918 Y25.9724
G01 X39.0175 Y25.9659
G01 X39.0436 Y25.9621
G01 X39.0855 Y25.9600
G01 X39.4545 Y25.9600
G01 X39.4964 Y25.9621
G01 X39.5225 Y25.9659
G01 X39.5482 Y25.9724
G01 X39.5730 Y25.9813
G01 X39.5969 Y25.9926
G01 X39.6196 Y26.0061
G01 X39.6408 Y26.0219
G01 X39.6604 Y26.0396
G01 X39.6781 Y26.0592
G01 X39.6939 Y26.0804
G01 X39.7074 Y26.1031
G01 X39.7187 Y26.1270
G01 X39.7276 Y26.1518
G01 X39.7341 Y26.1775
G01 X39.7379 Y26.2036
G01 X39.7392 Y26.2300
G01 X39.7379 Y26.2564
G01 X39.7341 Y26.2825
G01 X39.7276 Y26.3082
G01 X39.7187 Y26.3330
G01 X39.7074 Y26.3569
G01 X39.6939 Y26.3796
G01 X39.6781 Y26.4008
G01 X39.6604 Y26.4204
G01 X39.6408 Y26.4381
G01 X39.6196 Y26.4539
G01 X39.5969 Y26.4674
G01 X39.5730 Y26.4787
G01 X39.5482 Y26.4876
G01 X39.5225 Y26.4941
G01 X39.4964 Y26.4979
G01 X39.4545 Y26.5000
G01 X39.0855 Y26.5000
G01 X39.0914 Y26.2600
G01 X39.0672 Y26.2588
G01 X39.0616 Y26.2577
G01 X39.0564 Y26.2555
G01 X39.0516 Y26.2524
G01 X39.0476 Y26.2484
G01 X39.0459 Y26.2461
G01 X39.0433 Y26.2411
G01 X39.0416 Y26.2356
G01 X39.0410 Y26.2300
G01 X39.0416 Y26.2244
G01 X39.0433 Y26.2189
G01 X39.0459 Y26.2139
G01 X39.0495 Y26.2095
G01 X39.0539 Y26.2059
G01 X39.0589 Y26.2033
G01 X39.0644 Y26.2016
G01 X39.0914 Y26.2000
G01 X39.4486 Y26.2000
G01 X39.4728 Y26.2012
G01 X39.4784 Y26.2023
G01 X39.4836 Y26.2045
G01 X39.4884 Y26.2076
G01 X39.4905 Y26.2095
G01 X39.4941 Y26.2139
G01 X39.4967 Y26.2189
G01 X39.4977 Y26.2216
G01 X39.4988 Y26.2272
G01 X39.4988 Y26.2328
G01 X39.4977 Y26.2384
G01 X39.4955 Y26.2436
G01 X39.4924 Y26.2484
G01 X39.4884 Y26.2524
G01 X39.4836 Y26.2555
G01 X39.4784 Y26.2577
G01 X39.4728 Y26.2588
G01 X39.4486 Y26.2600
G01 X39.0914 Y26.2600
G00 Z2.0000
G00 X39.0737 Y24.4400
G01 F60.00
G01 Z-0.10000
G01 F120.00
G01 X38.9965 Y24.4362
G01 X38.9237 Y24.4254
G01 X38.8523 Y24.4075
G01 X38.7831 Y24.3827
G01 X38.7165 Y24.3513
G01 X38.6534 Y24.3135
G01 X38.5943 Y24.2696
G01 X38.5398 Y24.2202
G01 X38.4904 Y24.1657
G01 X38.4465 Y24.1066
G01 X38.4087 Y24.0435
G01 X38.3773 Y23.9769
G01 X38.3525 Y23.9077
G01 X38.3346 Y23.8363
G01 X38.3238 Y23.7635
G01 X38.3202 Y23.6900
G01 X38.3238 Y23.6165
G01 X38.3346 Y23.5437
G01 X38.3525 Y23.4723
G01 X38.3773 Y23.4031
G01 X38.4087 Y23.3365
G01 X38.4465 Y23.2734
G01 X38.4904 Y23.2143
G01 X38.5398 Y23.1598
G01 X38.5943 Y23.1104
G01 X38.6534 Y23.0665
G01 X38.7165 Y23.0287
G01 X38.7831 Y22.9973
G01 X38.8523 Y22.9725
G01 X38.9237 Y22.9546
G01 X38.9965 Y22.9438
G01 X39.0737 Y22.9400
G01 X39.4663 Y22.9400
G01 X39.5435 Y22.9438
G01 X39.6163 Y22.9546
G01 X39.6877 Y22.9725
G01 X39.7569 Y22.9973
G01 X39.8235 Y23.0287
G01 X39.8866 Y23.0665
G01 X39.9457 Y23.1104
G01 X40.0002 Y23.1598
G01 X40.0496 Y23.2143
G01 X40.0935 Y23.2734
G01 X40.1313 Y23.3365
G01 X40.1627 Y23.4031
G01 X40.1875 Y23.4723
G01 X40.2054 Y23.5437
G01 X40.2162 Y23.6165
G01 X40.2198 Y23.6900
G01 X40.2162 Y23.7635
G01 X40.2054 Y23.8363
G01 X40.1875 Y23.9077
G01 X40.1627 Y23.9769
G01 X40.1313 Y24.0435
G01 X40.0935 Y24.1066
G01 X40.0496 Y24.1657
G01 X40.0002 Y24.2202
G01 X39.9457 Y24.2696
G01 X39.8866 Y24.3135
G01 X39.8235 Y24.3513
G01 X39.7569 Y24.3827
G01 X39.6877 Y24.4075
G01 X39.6163 Y24.4254
G01 X39.5435 Y24.4362
G01 X39.4663 Y24.4400
G01 X39.0737 Y24.4400
G01 X39.0796 Y24.2000
G01 X39.0201 Y24.1971
G01 X38.9706 Y24.1897
G01 X38.9221 Y24.1776
G01 X38.8750 Y24.1607
G01 X38.8298 Y24.1394
G01 X38.7869 Y24.1137
G01 X38.7468 Y24.0839
G01 X38.7097 Y24.0503
G01 X38.6761 Y24.0132
G01 X38.6463 Y23.9731
G01 X38.6206 Y23.9302
G01 X38.5993 Y23.8850
G01 X38.5824 Y23.8379
G01 X38.5703 Y23.7894
G01 X38.5629 Y23.7399
G01 X38.5605 Y23.6900
G01 X38.5629 Y23.6401
G01 X38.5703 Y23.5906
G01 X38.5824 Y23.5421
G01 X38.5993 Y23.4950
G01 X38.6206 Y23.4498
G01 X38.6463 Y23.4069
G01 X38.6761 Y23.3668
G01 X38.7097 Y23.3297
G01 X38.7468 Y23.2961
G01 X38.7869 Y23.2663
G01 X38.8298 Y23.2406
G01 X38.8750 Y23.2193
G01 X38.9221 Y23.2024
G01 X38.9706 Y23.1903
G01 X39.0201 Y23.1829
G01 X39.0796 Y23.1800
G01 X39.4604 Y23.1800
G01 X39.5199 Y23.1829
G01 X39.5694 Y23.1903
G01 X39.6179 Y23.2024
G01 X39.6650 Y23.2193
G01 X39.7102 Y23.2406
G01 X39.7531 Y23.2663
G01 X39.7932 Y23.2961
G01 X39.8303 Y23.3297
G01 X39.8639 Y23.3668
G01 X39.8937 Y23.4069
G01 X39.9194 Y23.4498
G01 X39.9407 Y23.4950
G01 X39.9576 Y23.5421
G01 X39.9697 Y23.5906
G01 X39.9771 Y23.6401
G01 X39.9795 Y23.6900
G01 X39.9771 Y23.7399
G01 X39.9697 Y23.7894
G01 X39.9576 Y23.8379
G01 X39.9407 Y23.8850
G01 X39.9194 Y23.9302
G01 X39.8937 Y23.9731
G01 X39.8639 Y24.0132
G01 X39.8303 Y24.0503
G01 X39.7932 Y24.0839
G01 X39.7531 Y24.1137
G01 X39.7102 Y24.1394
G01 X39.6650 Y24.1607
G01 X39.6179 Y24.1776
G01 X39.5694 Y24.1897
G01 X39.5199 Y24.1971
G01 X39.4604 Y24.2000
G01 X39.0796 Y24.2000
G01 X39.0855 Y23.9600
G01 X39.0436 Y23.9579
G01 X39.0175 Y23.9541
G01 X38.9918 Y23.9476
G01 X38.9670 Y23.9387
G01 X38.9431 Y23.9274
G01 X38.9204 Y23.9139
G01 X38.8992 Y23.8981
G01 X38.8796 Y23.8804
G01 X38.8619 Y23.8608
G01 X38.8461 Y23.8396
G01 X38.8326 Y23.8169
G01 X38.8213 Y23.7930
G01 X38.8124 Y23.7682
G01 X38.8059 Y23.7425
G01 X38.8021 Y23.7164
G01 X38.8008 Y23.6900
G01 X38.8021 Y23.6636
G01 X38.8059 Y23.6375
G01 X38.8124 Y23.6118
G01 X38.8213 Y23.5870
G01 X38.8326 Y23.5631
G01 X38.8461 Y23.5404
G01 X38.8619 Y23.5192
G01 X38.8796 Y23.4996
G01 X38.8992 Y23.4819
G01 X38.9204 Y23.4661
G01 X38.9431 Y23.4526
G01 X38.9670 Y23.4413
G01 X38.9918 Y23.4324
G01 X39.0175 Y23.4259
G01 X39.0436 Y23.4221
G01 X39.0855 Y23.4200
G01 X39.4545 Y23.4200
G01 X39.4964 Y23.4221
G01 X39.5225 Y23.4259
G01 X39.5482 Y23.4324
G01 X39.5730 Y23.4413
G01 X39.5969 Y23.4526
G01 X39.6196 Y23.4661
G01 X39.6408 Y23.4819
G01 X39.6604 Y23.4996
G01 X39.6781 Y23.5192
G01 X39.6939 Y23.5404
G01 X39.7074 Y23.5631
G01 X39.7187 Y23.5870
G01 X39.7276 Y23.6118
G01 X39.7341 Y23.6375
G01 X39.7379 Y23.6636
G01 X39.7392 Y23.6900
G01 X39.7379 Y23.7164
G01 X39.7341 Y23.7425
G01 X39.7276 Y23.7682
G01 X39.7187 Y23.7930
G01 X39.7074 Y23.8169
G01 X39.6939 Y23.8396
G01 X39.6781 Y23.8608
G01 X39.6604 Y23.8804
G01 X39.6408 Y23.8981
G01 X39.6196 Y23.9139
G01 X39.5969 Y23.9274
G01 X39.5730 Y23.9387
G01 X39.5482 Y23.9476
G01 X39.5225 Y23.9541
G01 X39.4964 Y23.9579
G01 X39.4545 Y23.9600
G01 X39.0855 Y23.9600
G01 X39.0914 Y23.7200
G01 X39.0672 Y23.7188
G01 X39.0616 Y23.7177
G01 X39.0564 Y23.7155
G01 X39.0516 Y23.7124
G01 X39.0476 Y23.7084
G01 X39.0459 Y23.7061
G01 X39.0433 Y23.7011
G01 X39.0416 Y23.6956
G01 X39.0410 Y23.6900
G01 X39.0416 Y23.6844
G01 X39.0433 Y23.6789
G01 X39.0459 Y23.6739
G01 X39.0495 Y23.6695
G01 X39.0539 Y23.6659
G01 X39.0589 Y23.6633
G01 X39.0644 Y23.6616
G01 X39.0914 Y23.6600
G01 X39.4486 Y23.6600
G01 X39.4728 Y23.6612
G01 X39.4784 Y23.6623
G01 X39.4836 Y23.6645
G01 X39.4884 Y23.6676
G01 X39.4905 Y23.6695
G01 X39.4941 Y23.6739
G01 X39.4967 Y23.6789
G01 X39.4984 Y23.6844
G01 X39.4988 Y23.6872
G01 X39.4988 Y23.6928
G01 X39.4977 Y23.6984
G01 X39.4955 Y23.7036
G01 X39.4924 Y23.7084
G01 X39.4884 Y23.7124
G01 X39.4836 Y23.7155
G01 X39.4784 Y23.7177
G01 X39.4728 Y23.7188
G01 X39.4486 Y23.7200
G01 X39.0914 Y23.7200
G00 Z2.0000
G00 X34.7000 Y23.1498
G01 F60.00
G01 Z-0.10000
G01 F120.00
G01 X34.5873 Y23.1443
G01 X34.4757 Y23.1277
G01 X34.3662 Y23.1003
G01 X34.2600 Y23.0623
G01 X34.1580 Y23.0140
G01 X34.0612 Y22.9560
G01 X33.9706 Y22.8888
G01 X33.8870 Y22.8130
G01 X33.8112 Y22.7294
G01 X33.7440 Y22.6388
G01 X33.6860 Y22.5420
G01 X33.6377 Y22.4400
G01 X33.5997 Y22.3338
G01 X33.5723 Y22.2243
G01 X33.5557 Y22.1127
G01 X33.5500 Y21.9963
G01 X33.5500 Y20.4037
G01 X33.5557 Y20.2873
G01 X33.5723 Y20.1757
G01 X33.5997 Y20.0662
G01 X33.6377 Y19.9600
G01 X33.6860 Y19.8580
G01 X33.7440 Y19.7612
G01 X33.8112 Y19.6706
G01 X33.8870 Y19.5870
G01 X33.9706 Y19.5112
G01 X34.0612 Y19.4440
G01 X34.1580 Y19.3860
G01 X34.2600 Y19.3377
G01 X34.3662 Y19.2997
G01 X34.4757 Y19.2723
G01 X34.5873 Y19.2557
G01 X34.7000 Y19.2502
G01 X34.8127 Y19.2557
G01 X34.9243 Y19.2723
G01 X35.0338 Y19.2997
G01 X35.1400 Y19.3377
G01 X35.2420 Y19.3860
G01 X35.3388 Y19.4440
G01 X35.4294 Y19.5112
G01 X35.5130 Y19.5870
G01 X35.5888 Y19.6706
G01 X35.6560 Y19.7612
G01 X35.7140 Y19.8580
G01 X35.7623 Y19.9600
G01 X35.8003 Y20.0662
G01 X35.8277 Y20.1757
G01 X35.8443 Y20.2873
G01 X35.8500 Y20.4037
G01 X35.8500 Y21.9963
G01 X35.8443 Y22.1127
G01 X35.8277 Y22.2243
G01 X35.8003 Y22.3338
G01 X35.7623 Y22.4400
G01 X35.7140 Y22.5420
G01 X35.6560 Y22.6388
G01 X35.5888 Y22.7294
G01 X35.5130 Y22.8130
G01 X35.4294 Y22.8888
G01 X35.3388 Y22.9560
G01 X35.2420 Y23.0140
G01 X35.1400 Y23.0623
G01 X35.0338 Y23.1003
G01 X34.9243 Y23.1277
G01 X34.8127 Y23.1443
G01 X34.7000 Y23.1498
G01 X34.7000 Y22.9095
G01 X34.6109 Y22.9051
G01 X34.5226 Y22.8921
G01 X34.4360 Y22.8704
G01 X34.3519 Y22.8403
G01 X34.2713 Y22.8021
G01 X34.1947 Y22.7562
G01 X34.1230 Y22.7031
G01 X34.0569 Y22.6431
G01 X33.9969 Y22.5770
G01 X33.9438 Y22.5053
G01 X33.8979 Y22.4287
G01 X33.8597 Y22.3481
G01 X33.8296 Y22.2640
G01 X33.8079 Y22.1774
G01 X33.7949 Y22.0891
G01 X33.7900 Y21.9904
G01 X33.7900 Y20.4096
G01 X33.7949 Y20.3109
G01 X33.8079 Y20.2226
G01 X33.8296 Y20.1360
G01 X33.8597 Y20.0519
G01 X33.8979 Y19.9713
G01 X33.9438 Y19.8947
G01 X33.9969 Y19.8230
G01 X34.0569 Y19.7569
G01 X34.1230 Y19.6969
G01 X34.1947 Y19.6438
G01 X34.2713 Y19.5979
G01 X34.3519 Y19.5597
G01 X34.4360 Y19.5296
G01 X34.5226 Y19.5079
G01 X34.6109 Y19.4949
G01 X34.7000 Y19.4905
G01 X34.7891 Y19.4949
G01 X34.8774 Y19.5079
G01 X34.9640 Y19.5296
G01 X35.0481 Y19.5597
G01 X35.1287 Y19.5979
G01 X35.2053 Y19.6438
G01 X35.2770 Y19.6969
G01 X35.3431 Y19.7569
G01 X35.4031 Y19.8230
G01 X35.4562 Y19.8947
G01 X35.5021 Y19.9713
G01 X35.5403 Y20.0519
G01 X35.5704 Y20.1360
G01 X35.5921 Y20.2226
G01 X35.6051 Y20.3109
G01 X35.6100 Y20.4096
G01 X35.6100 Y21.9904
G01 X35.6051 Y22.0891
G01 X35.5921 Y22.1774
G01 X35.5704 Y22.2640
G01 X35.5403 Y22.3481
G01 X35.5021 Y22.4287
G01 X35.4562 Y22.5053
G01 X35.4031 Y22.5770
G01 X35.3431 Y22.6431
G01 X35.2770 Y22.7031
G01 X35.2053 Y22.7562
G01 X35.1287 Y22.8021
G01 X35.0481 Y22.8403
G01 X34.9640 Y22.8704
G01 X34.8774 Y22.8921
G01 X34.7891 Y22.9051
G01 X34.7000 Y22.9095
G01 X34.7000 Y22.6692
G01 X34.6344 Y22.6660
G01 X34.5694 Y22.6564
G01 X34.5057 Y22.6404
G01 X34.4439 Y22.6183
G01 X34.3845 Y22.5902
G01 X34.3282 Y22.5565
G01 X34.2754 Y22.5173
G01 X34.2268 Y22.4732
G01 X34.1827 Y22.4246
G01 X34.1435 Y22.3718
G01 X34.1098 Y22.3155
G01 X34.0817 Y22.2561
G01 X34.0596 Y22.1943
G01 X34.0436 Y22.1306
G01 X34.0340 Y22.0656
G01 X34.0300 Y21.9845
G01 X34.0300 Y20.4155
G01 X34.0340 Y20.3344
G01 X34.0436 Y20.2694
G01 X34.0596 Y20.2057
G01 X34.0817 Y20.1439
G01 X34.1098 Y20.0845
G01 X34.1435 Y20.0282
G01 X34.1827 Y19.9754
G01 X34.2268 Y19.9268
G01 X34.2754 Y19.8827
G01 X34.3282 Y19.8435
G01 X34.3845 Y19.8098
G01 X34.4439 Y19.7817
G01 X34.5057 Y19.7596
G01 X34.5694 Y19.7436
G01 X34.6344 Y19.7340
G01 X34.7000 Y19.7308
G01 X34.7656 Y19.7340
G01 X34.8306 Y19.7436
G01 X34.8943 Y19.7596
G01 X34.9561 Y19.7817
G01 X35.0155 Y19.8098
G01 X35.0718 Y19.8435
G01 X35.1246 Y19.8827
G01 X35.1732 Y19.9268
G01 X35.2173 Y19.9754
G01 X35.2565 Y20.0282
G01 X35.2902 Y20.0845
G01 X35.3183 Y20.1439
G01 X35.3404 Y20.2057
G01 X35.3564 Y20.2694
G01 X35.3660 Y20.3344
G01 X35.3700 Y20.4155
G01 X35.3700 Y21.9845
G01 X35.3660 Y22.0656
G01 X35.3564 Y22.1306
G01 X35.3404 Y22.1943
G01 X35.3183 Y22.2561
G01 X35.2902 Y22.3155
G01 X35.2565 Y22.3718
G01 X35.2173 Y22.4246
G01 X35.1732 Y22.4732
G01 X35.1246 Y22.5173
G01 X35.0718 Y22.5565
G01 X35.0155 Y22.5902
G01 X34.9561 Y22.6183
G01 X34.8943 Y22.6404
G01 X34.8306 Y22.6564
G01 X34.7656 Y22.6660
G01 X34.7000 Y22.6692
G01 X34.7000 Y22.4290
G01 X34.6580 Y22.4269
G01 X34.6163 Y22.4207
G01 X34.5755 Y22.4105
G01 X34.5358 Y22.3963
G01 X34.4978 Y22.3783
G01 X34.4617 Y22.3567
G01 X34.4279 Y22.3316
G01 X34.3967 Y22.3033
G01 X34.3684 Y22.2721
G01 X34.3433 Y22.2383
G01 X34.3217 Y22.2022
G01 X34.3037 Y22.1642
G01 X34.2895 Y22.1245
G01 X34.2793 Y22.0837
G01 X34.2731 Y22.0420
G01 X34.2700 Y21.9786
G01 X34.2700 Y20.4214
G01 X34.2731 Y20.3580
G01 X34.2793 Y20.3163
G01 X34.2895 Y20.2755
G01 X34.3037 Y20.2358
G01 X34.3217 Y20.1978
G01 X34.3433 Y20.1617
G01 X34.3684 Y20.1279
G01 X34.3967 Y20.0967
G01 X34.4279 Y20.0684
G01 X34.4617 Y20.0433
G01 X34.4978 Y20.0217
G01 X34.5358 Y20.0037
G01 X34.5755 Y19.9895
G01 X34.6163 Y19.9793
G01 X34.6580 Y19.9731
G01 X34.7000 Y19.9710
G01 X34.7420 Y19.9731
G01 X34.7837 Y19.9793
G01 X34.8245 Y19.9895
G01 X34.8642 Y20.0037
G01 X34.9022 Y20.0217
G01 X34.9383 Y20.0433
G01 X34.9721 Y20.0684
G01 X35.0033 Y20.0967
G01 X35.0316 Y20.1279
G01 X35.0567 Y20.1617
G01 X35.0783 Y20.1978
G01 X35.0963 Y20.2358
G01 X35.1105 Y20.2755
G01 X35.1207 Y20.3163
G01 X35.1269 Y20.3580
G01 X35.1300 Y20.4214
G01 X35.1300 Y21.9786
G01 X35.1269 Y22.0420
G01 X35.1207 Y22.0837
G01 X35.1105 Y22.1245
G01 X35.0963 Y22.1642
G01 X35.0783 Y22.2022
G01 X35.0567 Y22.2383
G01 X35.0316 Y22.2721
G01 X35.0033 Y22.3033
G01 X34.9721 Y22.3316
G01 X34.9383 Y22.3567
G01 X34.9022 Y22.3783
G01 X34.8642 Y22.3963
G01 X34.8245 Y22.4105
G01 X34.7837 Y22.4207
G01 X34.7420 Y22.4269
G01 X34.7000 Y22.4290
G01 X34.7000 Y22.1887
G01 X34.6815 Y22.1878
G01 X34.6632 Y22.1850
G01 X34.6452 Y22.1805
G01 X34.6278 Y22.1743
G01 X34.6111 Y22.1664
G01 X34.5952 Y22.1569
G01 X34.5803 Y22.1458
G01 X34.5666 Y22.1334
G01 X34.5542 Y22.1197
G01 X34.5431 Y22.1048
G01 X34.5336 Y22.0889
G01 X34.5257 Y22.0722
G01 X34.5195 Y22.0548
G01 X34.5150 Y22.0368
G01 X34.5122 Y22.0185
G01 X34.5100 Y21.9728
G01 X34.5100 Y20.4272
G01 X34.5122 Y20.3815
G01 X34.5150 Y20.3632
G01 X34.5195 Y20.3452
G01 X34.5257 Y20.3278
G01 X34.5336 Y20.3111
G01 X34.5431 Y20.2952
G01 X34.5542 Y20.2803
G01 X34.5666 Y20.2666
G01 X34.5803 Y20.2542
G01 X34.5952 Y20.2431
G01 X34.6111 Y20.2336
G01 X34.6278 Y20.2257
G01 X34.6452 Y20.2195
G01 X34.6632 Y20.2150
G01 X34.6815 Y20.2122
G01 X34.7000 Y20.2113
G01 X34.7185 Y20.2122
G01 X34.7368 Y20.2150
G01 X34.7548 Y20.2195
G01 X34.7722 Y20.2257
G01 X34.7889 Y20.2336
G01 X34.8048 Y20.2431
G01 X34.8197 Y20.2542
G01 X34.8334 Y20.2666
G01 X34.8458 Y20.2803
G01 X34.8569 Y20.2952
G01 X34.8664 Y20.3111
G01 X34.8743 Y20.3278
G01 X34.8805 Y20.3452
G01 X34.8850 Y20.3632
G01 X34.8878 Y20.3815
G01 X34.8900 Y20.4272
G01 X34.8900 Y21.9728
G01 X34.8878 Y22.0185
G01 X34.8850 Y22.0368
G01 X34.8805 Y22.0548
G01 X34.8743 Y22.0722
G01 X34.8664 Y22.0889
G01 X34.8569 Y22.1048
G01 X34.8458 Y22.1197
G01 X34.8334 Y22.1334
G01 X34.8197 Y22.1458
G01 X34.8048 Y22.1569
G01 X34.7889 Y22.1664
G01 X34.7722 Y22.1743
G01 X34.7548 Y22.1805
G01 X34.7368 Y22.1850
G01 X34.7185 Y22.1878
G01 X34.7000 Y22.1887
G00 Z2.0000
G00 X40.5492 Y30.0000
G01 F60.00
G01 Z-0.10000
G01 F120.00
G01 X40.5484 Y29.9834
G01 X40.5460 Y29.9670
G01 X40.5420 Y29.9509
G01 X40.5364 Y29.9352
G01 X40.5293 Y29.9202
G01 X40.5207 Y29.9060
G01 X40.5108 Y29.8926
G01 X40.4997 Y29.8803
G01 X40.4874 Y29.8692
G01 X40.4740 Y29.8593
G01 X40.4598 Y29.8507
G01 X40.4448 Y29.8436
G01 X40.4291 Y29.8380
G01 X40.4130 Y29.8340
G01 X40.3966 Y29.8316
G01 X40.3800 Y29.8308
G01 X40.3634 Y29.8316
G01 X40.3470 Y29.8340
G01 X40.3309 Y29.8380
G01 X40.3152 Y29.8436
G01 X40.3002 Y29.8507
G01 X40.2860 Y29.8593
G01 X40.2726 Y29.8692
G01 X40.2603 Y29.8803
G01 X40.2492 Y29.8926
G01 X40.2393 Y29.9060
G01 X40.2307 Y29.9202
G01 X40.2236 Y29.9352
G01 X40.2180 Y29.9509
G01 X40.2140 Y29.9670
G01 X40.2116 Y29.9834
G01 X40.2108 Y30.0000
G01 X40.2116 Y30.0166
G01 X40.2140 Y30.0330
G01 X40.2180 Y30.0491
G01 X40.2236 Y30.0648
G01 X40.2307 Y30.0798
G01 X40.2393 Y30.0940
G01 X40.2492 Y30.1074
G01 X40.2603 Y30.1197
G01 X40.2726 Y30.1308
G01 X40.2860 Y30.1407
G01 X40.3002 Y30.1493
G01 X40.3152 Y30.1564
G01 X40.3309 Y30.1620
G01 X40.3470 Y30.1660
G01 X40.3634 Y30.1684
G01 X40.3800 Y30.1692
G01 X40.3966 Y30.1684
G01 X40.4130 Y30.1660
G01 X40.4291 Y30.1620
G01 X40.4448 Y30.1564
G01 X40.4598 Y30.1493
G01 X40.4740 Y30.1407
G01 X40.4874 Y30.1308
G01 X40.4997 Y30.1197
G01 X40.5108 Y30.1074
G01 X40.5207 Y30.0940
G01 X40.5293 Y30.0798
G01 X40.5364 Y30.0648
G01 X40.5420 Y30.0491
G01 X40.5460 Y30.0330
G01 X40.5484 Y30.0166
G01 X40.5492 Y30.0000
G01 X40.7895 Y30.0000
G01 X40.7876 Y29.9599
G01 X40.7817 Y29.9201
G01 X40.7719 Y29.8811
G01 X40.7584 Y29.8433
G01 X40.7412 Y29.8069
G01 X40.7205 Y29.7725
G01 X40.6966 Y29.7402
G01 X40.6696 Y29.7104
G01 X40.6398 Y29.6834
G01 X40.6075 Y29.6595
G01 X40.5731 Y29.6388
G01 X40.5367 Y29.6216
G01 X40.4989 Y29.6081
G01 X40.4599 Y29.5983
G01 X40.4201 Y29.5924
G01 X40.3800 Y29.5905
G01 X40.3399 Y29.5924
G01 X40.3001 Y29.5983
G01 X40.2611 Y29.6081
G01 X40.2233 Y29.6216
G01 X40.1869 Y29.6388
G01 X40.1525 Y29.6595
G01 X40.1202 Y29.6834
G01 X40.0904 Y29.7104
G01 X40.0634 Y29.7402
G01 X40.0395 Y29.7725
G01 X40.0188 Y29.8069
G01 X40.0016 Y29.8433
G01 X39.9881 Y29.8811
G01 X39.9783 Y29.9201
G01 X39.9724 Y29.9599
G01 X39.9705 Y30.0000
G01 X39.9724 Y30.0401
G01 X39.9783 Y30.0799
G01 X39.9881 Y30.1189
G01 X40.0016 Y30.1567
G01 X40.0188 Y30.1931
G01 X40.0395 Y30.2275
G01 X40.0634 Y30.2598
G01 X40.0904 Y30.2896
G01 X40.1202 Y30.3166
G01 X40.1525 Y30.3405
G01 X40.1869 Y30.3612
G01 X40.2233 Y30.3784
G01 X40.2611 Y30.3919
G01 X40.3001 Y30.4017
G01 X40.3399 Y30.4076
G01 X40.3800 Y30.4095
G01 X40.4201 Y30.4076
G01 X40.4599 Y30.4017
G01 X40.4989 Y30.3919
G01 X40.5367 Y30.3784
G01 X40.5731 Y30.3612
G01 X40.6075 Y30.3405
G01 X40.6398 Y30.3166
G01 X40.6696 Y30.2896
G01 X40.6966 Y30.2598
G01 X40.7205 Y30.2275
G01 X40.7412 Y30.1931
G01 X40.7584 Y30.1567
G01 X40.7719 Y30.1189
G01 X40.7817 Y30.0799
G01 X40.7876 Y30.0401
G01 X40.7895 Y30.0000
G01 X41.0298 Y30.0000
G01 X41.0267 Y29.9363
G01 X41.0173 Y29.8732
G01 X41.0018 Y29.8114
G01 X40.9804 Y29.7513
G01 X40.9531 Y29.6937
G01 X40.9203 Y29.6390
G01 X40.8823 Y29.5878
G01 X40.8395 Y29.5405
G01 X40.7922 Y29.4977
G01 X40.7410 Y29.4597
G01 X40.6863 Y29.4269
G01 X40.6287 Y29.3996
G01 X40.5686 Y29.3782
G01 X40.5068 Y29.3627
G01 X40.4437 Y29.3533
G01 X40.3800 Y29.3502
G01 X40.3163 Y29.3533
G01 X40.2532 Y29.3627
G01 X40.1914 Y29.3782
G01 X40.1313 Y29.3996
G01 X40.0737 Y29.4269
G01 X40.0190 Y29.4597
G01 X39.9678 Y29.4977
G01 X39.9205 Y29.5405
G01 X39.8777 Y29.5878
G01 X39.8397 Y29.6390
G01 X39.8069 Y29.6937
G01 X39.7796 Y29.7513
G01 X39.7582 Y29.8114
G01 X39.7427 Y29.8732
G01 X39.7333 Y29.9363
G01 X39.7302 Y30.0000
G01 X39.7333 Y30.0637
G01 X39.7427 Y30.1268
G01 X39.7582 Y30.1886
G01 X39.7796 Y30.2487
G01 X39.8069 Y30.3063
G01 X39.8397 Y30.3610
G01 X39.8777 Y30.4122
G01 X39.9205 Y30.4595
G01 X39.9678 Y30.5023
G01 X40.0190 Y30.5403
G01 X40.0737 Y30.5731
G01 X40.1313 Y30.6004
G01 X40.1914 Y30.6218
G01 X40.2532 Y30.6373
G01 X40.3163 Y30.6467
G01 X40.3800 Y30.6498
G01 X40.4437 Y30.6467
G01 X40.5068 Y30.6373
G01 X40.5686 Y30.6218
G01 X40.6287 Y30.6004
G01 X40.6863 Y30.5731
G01 X40.7410 Y30.5403
G01 X40.7922 Y30.5023
G01 X40.8395 Y30.4595
G01 X40.8823 Y30.4122
G01 X40.9203 Y30.3610
G01 X40.9531 Y30.3063
G01 X40.9804 Y30.2487
G01 X41.0018 Y30.1886
G01 X41.0173 Y30.1268
G01 X41.0267 Y30.0637
G01 X41.0298 Y30.0000
G00 Z2.0000
G00 X41.0298 Y33.0000
G01 F60.00
G01 Z-0.10000
G01 F120.00
G01 X41.0267 Y33.0637
G01 X41.0173 Y33.1268
G01 X41.0018 Y33.1886
G01 X40.9804 Y33.2487
G01 X40.9531 Y33.3063
G01 X40.9203 Y33.3610
G01 X40.8823 Y33.4122
G01 X40.8395 Y33.4595
G01 X40.7922 Y33.5023
G01 X40.7410 Y33.5403
G01 X40.6863 Y33.5731
G01 X40.6287 Y33.6004
G01 X40.5686 Y33.6218
G01 X40.5068 Y33.6373
G01 X40.4437 Y33.6467
G01 X40.3800 Y33.6498
G01 X40.3163 Y33.6467
G01 X40.2532 Y33.6373
G01 X40.1914 Y33.6218
G01 X40.1313 Y33.6004
G01 X40.0737 Y33.5731
G01 X40.0190 Y33.5403
G01 X39.9678 Y33.5023
G01 X39.9205 Y33.4595
G01 X39.8777 Y33.4122
G01 X39.8397 Y33.3610
G01 X39.8069 Y33.3063
G01 X39.7796 Y33.2487
G01 X39.7582 Y33.1886
G01 X39.7427 Y33.1268
G01 X39.7333 Y33.0637
G01 X39.7302 Y33.0000
G01 X39.7333 Y32.9363
G01 X39.7427 Y32.8732
G01 X39.7582 Y32.8114
G01 X39.7796 Y32.7513
G01 X39.8069 Y32.6937
G01 X39.8397 Y32.6390
G01 X39.8777 Y32.5878
G01 X39.9205 Y32.5405
G01 X39.9678 Y32.4977
G01 X40.0190 Y32.4597
G01 X40.0737 Y32.4269
G01 X40.1313 Y32.3996
G01 X40.1914 Y32.3782
G01 X40.2532 Y32.3627
G01 X40.3163 Y32.3533
G01 X40.3800 Y32.3502
G01 X40.4437 Y32.3533
G01 X40.5068 Y32.3627
G01 X40.5686 Y32.3782
G01 X40.6287 Y32.3996
G01 X40.6863 Y32.4269
G01 X40.7410 Y32.4597
G01 X40.7922 Y32.4977
G01 X40.8395 Y32.5405
G01 X40.8823 Y32.5878
G01 X40.9203 Y32.6390
G01 X40.9531 Y32.6937
G01 X40.9804 Y32.7513
G01 X41.0018 Y32.8114
G01 X41.0173 Y32.8732
G01 X41.0267 Y32.9363
G01 X41.0298 Y33.0000
G01 X40.7895 Y33.0000
G01 X40.7876 Y33.0401
G01 X40.7817 Y33.0799
G01 X40.7719 Y33.1189
G01 X40.7584 Y33.1567
G01 X40.7412 Y33.1931
G01 X40.7205 Y33.2275
G01 X40.6966 Y33.2598
G01 X40.6696 Y33.2896
G01 X40.6398 Y33.3166
G01 X40.6075 Y33.3405
G01 X40.5731 Y33.3612
G01 X40.5367 Y33.3784
G01 X40.4989 Y33.3919
G01 X40.4599 Y33.4017
G01 X40.4201 Y33.4076
G01 X40.3800 Y33.4095
G01 X40.3399 Y33.4076
G01 X40.3001 Y33.4017
G01 X40.2611 Y33.3919
G01 X40.2233 Y33.3784
G01 X40.1869 Y33.3612
G01 X40.1525 Y33.3405
G01 X40.1202 Y33.3166
G01 X40.0904 Y33.2896
G01 X40.0634 Y33.2598
G01 X40.0395 Y33.2275
G01 X40.0188 Y33.1931
G01 X40.0016 Y33.1567
G01 X39.9881 Y33.1189
G01 X39.9783 Y33.0799
G01 X39.9724 Y33.0401
G01 X39.9705 Y33.0000
G01 X39.9724 Y32.9599
G01 X39.9783 Y32.9201
G01 X39.9881 Y32.8811
G01 X40.0016 Y32.8433
G01 X40.0188 Y32.8069
G01 X40.0395 Y32.7725
G01 X40.0634 Y32.7402
G01 X40.0904 Y32.7104
G01 X40.1202 Y32.6834
G01 X40.1525 Y32.6595
G01 X40.1869 Y32.6388
G01 X40.2233 Y32.6216
G01 X40.2611 Y32.6081
G01 X40.3001 Y32.5983
G01 X40.3399 Y32.5924
G01 X40.3800 Y32.5905
G01 X40.4201 Y32.5924
G01 X40.4599 Y32.5983
G01 X40.4989 Y32.6081
G01 X40.5367 Y32.6216
G01 X40.5731 Y32.6388
G01 X40.6075 Y32.6595
G01 X40.6398 Y32.6834
G01 X40.6696 Y32.7104
G01 X40.6966 Y32.7402
G01 X40.7205 Y32.7725
G01 X40.7412 Y32.8069
G01 X40.7584 Y32.8433
G01 X40.7719 Y32.8811
G01 X40.7817 Y32.9201
G01 X40.7876 Y32.9599
G01 X40.7895 Y33.0000
G01 X40.5492 Y33.0000
G01 X40.5484 Y33.0166
G01 X40.5460 Y33.0330
G01 X40.5420 Y33.0491
G01 X40.5364 Y33.0648
G01 X40.5293 Y33.0798
G01 X40.5207 Y33.0940
G01 X40.5108 Y33.1074
G01 X40.4997 Y33.1197
G01 X40.4874 Y33.1308
G01 X40.4740 Y33.1407
G01 X40.4598 Y33.1493
G01 X40.4448 Y33.1564
G01 X40.4291 Y33.1620
G01 X40.4130 Y33.1660
G01 X40.3966 Y33.1684
G01 X40.3800 Y33.1692
G01 X40.3634 Y33.1684
G01 X40.3470 Y33.1660
G01 X40.3309 Y33.1620
G01 X40.3152 Y33.1564
G01 X40.3002 Y33.1493
G01 X40.2860 Y33.1407
G01 X40.2726 Y33.1308
G01 X40.2603 Y33.1197
G01 X40.2492 Y33.1074
G01 X40.2393 Y33.0940
G01 X40.2307 Y33.0798
G01 X40.2236 Y33.0648
G01 X40.2180 Y33.0491
G01 X40.2140 Y33.0330
G01 X40.2116 Y33.0166
G01 X40.2108 Y33.0000
G01 X40.2116 Y32.9834
G01 X40.2140 Y32.9670
G01 X40.2180 Y32.9509
G01 X40.2236 Y32.9352
G01 X40.2307 Y32.9202
G01 X40.2393 Y32.9060
G01 X40.2492 Y32.8926
G01 X40.2603 Y32.8803
G01 X40.2726 Y32.8692
G01 X40.2860 Y32.8593
G01 X40.3002 Y32.8507
G01 X40.3152 Y32.8436
G01 X40.3309 Y32.8380
G01 X40.3470 Y32.8340
G01 X40.3634 Y32.8316
G01 X40.3800 Y32.8308
G01 X40.3966 Y32.8316
G01 X40.4130 Y32.8340
G01 X40.4291 Y32.8380
G01 X40.4448 Y32.8436
G01 X40.4598 Y32.8507
G01 X40.4740 Y32.8593
G01 X40.4874 Y32.8692
G01 X40.4997 Y32.8803
G01 X40.5108 Y32.8926
G01 X40.5207 Y32.9060
G01 X40.5293 Y32.9202
G01 X40.5364 Y32.9352
G01 X40.5420 Y32.9509
G01 X40.5460 Y32.9670
G01 X40.5484 Y32.9834
G01 X40.5492 Y33.0000
G00 Z2.0000
G00 X48.1692 Y33.0000
G01 F60.00
G01 Z-0.10000
G01 F120.00
G01 X48.1684 Y32.9834
G01 X48.1660 Y32.9670
G01 X48.1620 Y32.9509
G01 X48.1564 Y32.9352
G01 X48.1493 Y32.9202
G01 X48.1407 Y32.9060
G01 X48.1308 Y32.8926
G01 X48.1197 Y32.8803
G01 X48.1074 Y32.8692
G01 X48.0940 Y32.8593
G01 X48.0798 Y32.8507
G01 X48.0648 Y32.8436
G01 X48.0491 Y32.8380
G01 X48.0330 Y32.8340
G01 X48.0166 Y32.8316
G01 X48.0000 Y32.8308
G01 X47.9834 Y32.8316
G01 X47.9670 Y32.8340
G01 X47.9509 Y32.8380
G01 X47.9352 Y32.8436
G01 X47.9202 Y32.8507
G01 X47.9060 Y32.8593
G01 X47.8926 Y32.8692
G01 X47.8803 Y32.8803
G01 X47.8692 Y32.8926
G01 X47.8593 Y32.9060
G01 X47.8507 Y32.9202
G01 X47.8436 Y32.9352
G01 X47.8380 Y32.9509
G01 X47.8340 Y32.9670
G01 X47.8316 Y32.9834
G01 X47.8308 Y33.0000
G01 X47.8316 Y33.0166
G01 X47.8340 Y33.0330
G01 X47.8380 Y33.0491
G01 X47.8436 Y33.0648
G01 X47.8507 Y33.0798
G01 X47.8593 Y33.0940
G01 X47.8692 Y33.1074
G01 X47.8803 Y33.1197
G01 X47.8926 Y33.1308
G01 X47.9060 Y33.1407
G01 X47.9202 Y33.1493
G01 X47.9352 Y33.1564
G01 X47.9509 Y33.1620
G01 X47.9670 Y33.1660
G01 X47.9834 Y33.1684
G01 X48.0000 Y33.1692
G01 X48.0166 Y33.1684
G01 X48.0330 Y33.1660
G01 X48.0491 Y33.1620
G01 X48.0648 Y33.1564
G01 X48.0798 Y33.1493
G01 X48.0940 Y33.1407
G01 X48.1074 Y33.1308
G01 X48.1197 Y33.1197
G01 X48.1308 Y33.1074
G01 X48.1407 Y33.0940
G01 X48.1493 Y33.0798
G01 X48.1564 Y33.0648
G01 X48.1620 Y33.0491
G01 X48.1660 Y33.0330
G01 X48.1684 Y33.0166
G01 X48.1692 Y33.0000
G01 X48.4095 Y33.0000
G01 X48.4076 Y32.9599
G01 X48.4017 Y32.9201
G01 X48.3919 Y32.8811
G01 X48.3784 Y32.8433
G01 X48.3612 Y32.8069
G01 X48.3405 Y32.7725
G01 X48.3166 Y32.7402
G01 X48.2896 Y32.7104
G01 X48.2598 Y32.6834
G01 X48.2275 Y32.6595
G01 X48.1931 Y32.6388
G01 X48.1567 Y32.6216
G01 X48.1189 Y32.6081
G01 X48.0799 Y32.5983
G01 X48.0401 Y32.5924
G01 X48.0000 Y32.5905
G01 X47.9599 Y32.5924
G01 X47.9201 Y32.5983
G01 X47.8811 Y32.6081
G01 X47.8433 Y32.6216
G01 X47.8069 Y32.6388
G01 X47.7725 Y32.6595
G01 X47.7402 Y32.6834
G01 X47.7104 Y32.7104
G01 X47.6834 Y32.7402
G01 X47.6595 Y32.7725
G01 X47.6388 Y32.8069
G01 X47.6216 Y32.8433
G01 X47.6081 Y32.8811
G01 X47.5983 Y32.9201
G01 X47.5924 Y32.9599
G01 X47.5905 Y33.0000
G01 X47.5924 Y33.0401
G01 X47.5983 Y33.0799
G01 X47.6081 Y33.1189
G01 X47.6216 Y33.1567
G01 X47.6388 Y33.1931
G01 X47.6595 Y33.2275
G01 X47.6834 Y33.2598
G01 X47.7104 Y33.2896
G01 X47.7402 Y33.3166
G01 X47.7725 Y33.3405
G01 X47.8069 Y33.3612
G01 X47.8433 Y33.3784
G01 X47.8811 Y33.3919
G01 X47.9201 Y33.4017
G01 X47.9599 Y33.4076
G01 X48.0000 Y33.4095
G01 X48.0401 Y33.4076
G01 X48.0799 Y33.4017
G01 X48.1189 Y33.3919
G01 X48.1567 Y33.3784
G01 X48.1931 Y33.3612
G01 X48.2275 Y33.3405
G01 X48.2598 Y33.3166
G01 X48.2896 Y33.2896
G01 X48.3166 Y33.2598
G01 X48.3405 Y33.2275
G01 X48.3612 Y33.1931
G01 X48.3784 Y33.1567
G01 X48.3919 Y33.1189
G01 X48.4017 Y33.0799
G01 X48.4076 Y33.0401
G01 X48.4095 Y33.0000
G01 X48.6498 Y33.0000
G01 X48.6467 Y32.9363
G01 X48.6373 Y32.8732
G01 X48.6218 Y32.8114
G01 X48.6004 Y32.7513
G01 X48.5731 Y32.6937
G01 X48.5403 Y32.6390
G01 X48.5023 Y32.5878
G01 X48.4595 Y32.5405
G01 X48.4122 Y32.4977
G01 X48.3610 Y32.4597
G01 X48.3063 Y32.4269
G01 X48.2487 Y32.3996
G01 X48.1886 Y32.3782
G01 X48.1268 Y32.3627
G01 X48.0637 Y32.3533
G01 X48.0000 Y32.3502
G01 X47.9363 Y32.3533
G01 X47.8732 Y32.3627
G01 X47.8114 Y32.3782
G01 X47.7513 Y32.3996
G01 X47.6937 Y32.4269
G01 X47.6390 Y32.4597
G01 X47.5878 Y32.4977
G01 X47.5405 Y32.5405
G01 X47.4977 Y32.5878
G01 X47.4597 Y32.6390
G01 X47.4269 Y32.6937
G01 X47.3996 Y32.7513
G01 X47.3782 Y32.8114
G01 X47.3627 Y32.8732
G01 X47.3533 Y32.9363
G01 X47.3502 Y33.0000
G01 X47.3533 Y33.0637
G01 X47.3627 Y33.1268
G01 X47.3782 Y33.1886
G01 X47.3996 Y33.2487
G01 X47.4269 Y33.3063
G01 X47.4597 Y33.3610
G01 X47.4977 Y33.4122
G01 X47.5405 Y33.4595
G01 X47.5878 Y33.5023
G01 X47.6390 Y33.5403
G01 X47.6937 Y33.5731
G01 X47.7513 Y33.6004
G01 X47.8114 Y33.6218
G01 X47.8732 Y33.6373
G01 X47.9363 Y33.6467
G01 X48.0000 Y33.6498
G01 X48.0637 Y33.6467
G01 X48.1268 Y33.6373
G01 X48.1886 Y33.6218
G01 X48.2487 Y33.6004
G01 X48.3063 Y33.5731
G01 X48.3610 Y33.5403
G01 X48.4122 Y33.5023
G01 X48.4595 Y33.4595
G01 X48.5023 Y33.4122
G01 X48.5403 Y33.3610
G01 X48.5731 Y33.3063
G01 X48.6004 Y33.2487
G01 X48.6218 Y33.1886
G01 X48.6373 Y33.1268
G01 X48.6467 Y33.0637
G01 X48.6498 Y33.0000
G00 Z2.0000
G00 X48.6498 Y30.0000
G01 F60.00
G01 Z-0.10000
G01 F120.00
G01 X48.6467 Y30.0637
G01 X48.6373 Y30.1268
G01 X48.6218 Y30.1886
G01 X48.6004 Y30.2487
G01 X48.5731 Y30.3063
G01 X48.5403 Y30.3610
G01 X48.5023 Y30.4122
G01 X48.4595 Y30.4595
G01 X48.4122 Y30.5023
G01 X48.3610 Y30.5403
G01 X48.3063 Y30.5731
G01 X48.2487 Y30.6004
G01 X48.1886 Y30.6218
G01 X48.1268 Y30.6373
G01 X48.0637 Y30.6467
G01 X48.0000 Y30.6498
G01 X47.9363 Y30.6467
G01 X47.8732 Y30.6373
G01 X47.8114 Y30.6218
G01 X47.7513 Y30.6004
G01 X47.6937 Y30.5731
G01 X47.6390 Y30.5403
G01 X47.5878 Y30.5023
G01 X47.5405 Y30.4595
G01 X47.4977 Y30.4122
G01 X47.4597 Y30.3610
G01 X47.4269 Y30.3063
G01 X47.3996 Y30.2487
G01 X47.3782 Y30.1886
G01 X47.3627 Y30.1268
G01 X47.3533 Y30.0637
G01 X47.3502 Y30.0000
G01 X47.3533 Y29.9363
G01 X47.3627 Y29.8732
G01 X47.3782 Y29.8114
G01 X47.3996 Y29.7513
G01 X47.4269 Y29.6937
G01 X47.4597 Y29.6390
G01 X47.4977 Y29.5878
G01 X47.5405 Y29.5405
G01 X47.5878 Y29.4977
G01 X47.6390 Y29.4597
G01 X47.6937 Y29.4269
G01 X47.7513 Y29.3996
G01 X47.8114 Y29.3782
G01 X47.8732 Y29.3627
G01 X47.9363 Y29.3533
G01 X48.0000 Y29.3502
G01 X48.0637 Y29.3533
G01 X48.1268 Y29.3627
G01 X48.1886 Y29.3782
G01 X48.2487 Y29.3996
G01 X48.3063 Y29.4269
G01 X48.3610 Y29.4597
G01 X48.4122 Y29.4977
G01 X48.4595 Y29.5405
G01 X48.5023 Y29.5878
G01 X48.5403 Y29.6390
G01 X48.5731 Y29.6937
G01 X48.6004 Y29.7513
G01 X48.6218 Y29.8114
G01 X48.6373 Y29.8732
G01 X48.6467 Y29.9363
G01 X48.6498 Y30.0000
G01 X48.4095 Y30.0000
G01 X48.4076 Y30.0401
G01 X48.4017 Y30.0799
G01 X48.3919 Y30.1189
G01 X48.3784 Y30.1567
G01 X48.3612 Y30.1931
G01 X48.3405 Y30.2275
G01 X48.3166 Y30.2598
G01 X48.2896 Y30.2896
G01 X48.2598 Y30.3166
G01 X48.2275 Y30.3405
G01 X48.1931 Y30.3612
G01 X48.1567 Y30.3784
G01 X48.1189 Y30.3919
G01 X48.0799 Y30.4017
G01 X48.0401 Y30.4076
G01 X48.0000 Y30.4095
G01 X47.9599 Y30.4076
G01 X47.9201 Y30.4017
G01 X47.8811 Y30.3919
G01 X47.8433 Y30.3784
G01 X47.8069 Y30.3612
G01 X47.7725 Y30.3405
G01 X47.7402 Y30.3166
G01 X47.7104 Y30.2896
G01 X47.6834 Y30.2598
G01 X47.6595 Y30.2275
G01 X47.6388 Y30.1931
G01 X47.6216 Y30.1567
G01 X47.6081 Y30.1189
G01 X47.5983 Y30.0799
G01 X47.5924 Y30.0401
G01 X47.5905 Y30.0000
G01 X47.5924 Y29.9599
G01 X47.5983 Y29.9201
G01 X47.6081 Y29.8811
G01 X47.6216 Y29.8433
G01 X47.6388 Y29.8069
G01 X47.6595 Y29.7725
G01 X47.6834 Y29.7402
G01 X47.7104 Y29.7104
G01 X47.7402 Y29.6834
G01 X47.7725 Y29.6595
G01 X47.8069 Y29.6388
G01 X47.8433 Y29.6216
G01 X47.8811 Y29.6081
G01 X47.9201 Y29.5983
G01 X47.9599 Y29.5924
G01 X48.0000 Y29.5905
G01 X48.0401 Y29.5924
G01 X48.0799 Y29.5983
G01 X48.1189 Y29.6081
G01 X48.1567 Y29.6216
G01 X48.1931 Y29.6388
G01 X48.2275 Y29.6595
G01 X48.2598 Y29.6834
G01 X48.2896 Y29.7104
G01 X48.3166 Y29.7402
G01 X48.3405 Y29.7725
G01 X48.3612 Y29.8069
G01 X48.3784 Y29.8433
G01 X48.3919 Y29.8811
G01 X48.4017 Y29.9201
G01 X48.4076 Y29.9599
G01 X48.4095 Y30.0000
G01 X48.1692 Y30.0000
G01 X48.1684 Y30.0166
G01 X48.1660 Y30.0330
G01 X48.1620 Y30.0491
G01 X48.1564 Y30.0648
G01 X48.1493 Y30.0798
G01 X48.1407 Y30.0940
G01 X48.1308 Y30.1074
G01 X48.1197 Y30.1197
G01 X48.1074 Y30.1308
G01 X48.0940 Y30.1407
G01 X48.0798 Y30.1493
G01 X48.0648 Y30.1564
G01 X48.0491 Y30.1620
G01 X48.0330 Y30.1660
G01 X48.0166 Y30.1684
G01 X48.0000 Y30.1692
G01 X47.9834 Y30.1684
G01 X47.9670 Y30.1660
G01 X47.9509 Y30.1620
G01 X47.9352 Y30.1564
G01 X47.9202 Y30.1493
G01 X47.9060 Y30.1407
G01 X47.8926 Y30.1308
G01 X47.8803 Y30.1197
G01 X47.8692 Y30.1074
G01 X47.8593 Y30.0940
G01 X47.8507 Y30.0798
G01 X47.8436 Y30.0648
G01 X47.8380 Y30.0491
G01 X47.8340 Y30.0330
G01 X47.8316 Y30.0166
G01 X47.8308 Y30.0000
G01 X47.8316 Y29.9834
G01 X47.8340 Y29.9670
G01 X47.8380 Y29.9509
G01 X47.8436 Y29.9352
G01 X47.8507 Y29.9202
G01 X47.8593 Y29.9060
G01 X47.8692 Y29.8926
G01 X47.8803 Y29.8803
G01 X47.8926 Y29.8692
G01 X47.9060 Y29.8593
G01 X47.9202 Y29.8507
G01 X47.9352 Y29.8436
G01 X47.9509 Y29.8380
G01 X47.9670 Y29.8340
G01 X47.9834 Y29.8316
G01 X48.0000 Y29.8308
G01 X48.0166 Y29.8316
G01 X48.0330 Y29.8340
G01 X48.0491 Y29.8380
G01 X48.0648 Y29.8436
G01 X48.0798 Y29.8507
G01 X48.0940 Y29.8593
G01 X48.1074 Y29.8692
G01 X48.1197 Y29.8803
G01 X48.1308 Y29.8926
G01 X48.1407 Y29.9060
G01 X48.1493 Y29.9202
G01 X48.1564 Y29.9352
G01 X48.1620 Y29.9509
G01 X48.1660 Y29.9670
G01 X48.1684 Y29.9834
G01 X48.1692 Y30.0000
G00 Z2.0000
G00 X58.2431 Y26.9227
G01 F60.00
G01 Z-0.10000
G01 F120.00
G01 X58.1765 Y26.8913
G01 X58.1134 Y26.8535
G01 X58.0543 Y26.8096
G01 X57.9998 Y26.7602
G01 X57.9504 Y26.7057
G01 X57.9065 Y26.6466
G01 X57.8687 Y26.5835
G01 X57.8373 Y26.5169
G01 X57.8125 Y26.4477
G01 X57.7946 Y26.3763
G01 X57.7838 Y26.3035
G01 X57.7802 Y26.2300
G01 X57.7838 Y26.1565
G01 X57.7946 Y26.0837
G01 X57.8125 Y26.0123
G01 X57.8373 Y25.9431
G01 X57.8687 Y25.8765
G01 X57.9065 Y25.8134
G01 X57.9504 Y25.7543
G01 X57.9998 Y25.6998
G01 X58.0543 Y25.6504
G01 X58.1134 Y25.6065
G01 X58.1765 Y25.5687
G01 X58.2431 Y25.5373
G01 X58.3123 Y25.5125
G01 X58.3837 Y25.4946
G01 X58.4565 Y25.4838
G01 X58.5337 Y25.4800
G01 X58.9263 Y25.4800
G01 X59.0035 Y25.4838
G01 X59.0763 Y25.4946
G01 X59.1477 Y25.5125
G01 X59.2169 Y25.5373
G01 X59.2835 Y25.5687
G01 X59.3466 Y25.6065
G01 X59.4057 Y25.6504
G01 X59.4602 Y25.6998
G01 X59.5096 Y25.7543
G01 X59.5535 Y25.8134
G01 X59.5913 Y25.8765
G01 X59.6227 Y25.9431
G01 X59.6475 Y26.0123
G01 X59.6654 Y26.0837
G01 X59.6762 Y26.1565
G01 X59.6798 Y26.2300
G01 X59.6762 Y26.3035
G01 X59.6654 Y26.3763
G01 X59.6475 Y26.4477
G01 X59.6227 Y26.5169
G01 X59.5913 Y26.5835
G01 X59.5535 Y26.6466
G01 X59.5096 Y26.7057
G01 X59.4602 Y26.7602
G01 X59.4057 Y26.8096
G01 X59.3466 Y26.8535
G01 X59.2835 Y26.8913
G01 X59.2169 Y26.9227
G01 X59.1477 Y26.9475
G01 X59.0763 Y26.9654
G01 X59.0035 Y26.9762
G01 X58.9263 Y26.9800
G01 X58.5337 Y26.9800
G01 X58.4565 Y26.9762
G01 X58.3837 Y26.9654
G01 X58.3123 Y26.9475
G01 X58.2431 Y26.9227
G01 X58.3350 Y26.7007
G01 X58.2898 Y26.6794
G01 X58.2469 Y26.6537
G01 X58.2068 Y26.6239
G01 X58.1697 Y26.5903
G01 X58.1361 Y26.5532
G01 X58.1063 Y26.5131
G01 X58.0806 Y26.4702
G01 X58.0593 Y26.4250
G01 X58.0424 Y26.3779
G01 X58.0303 Y26.3294
G01 X58.0229 Y26.2799
G01 X58.0205 Y26.2300
G01 X58.0229 Y26.1801
G01 X58.0303 Y26.1306
G01 X58.0424 Y26.0821
G01 X58.0593 Y26.0350
G01 X58.0806 Y25.9898
G01 X58.1063 Y25.9469
G01 X58.1361 Y25.9068
G01 X58.1697 Y25.8697
G01 X58.2068 Y25.8361
G01 X58.2469 Y25.8063
G01 X58.2898 Y25.7806
G01 X58.3350 Y25.7593
G01 X58.3821 Y25.7424
G01 X58.4306 Y25.7303
G01 X58.4801 Y25.7229
G01 X58.5396 Y25.7200
G01 X58.9204 Y25.7200
G01 X58.9799 Y25.7229
G01 X59.0294 Y25.7303
G01 X59.0779 Y25.7424
G01 X59.1250 Y25.7593
G01 X59.1702 Y25.7806
G01 X59.2131 Y25.8063
G01 X59.2532 Y25.8361
G01 X59.2903 Y25.8697
G01 X59.3239 Y25.9068
G01 X59.3537 Y25.9469
G01 X59.3794 Y25.9898
G01 X59.4007 Y26.0350
G01 X59.4176 Y26.0821
G01 X59.4297 Y26.1306
G01 X59.4371 Y26.1801
G01 X59.4395 Y26.2300
G01 X59.4371 Y26.2799
G01 X59.4297 Y26.3294
G01 X59.4176 Y26.3779
G01 X59.4007 Y26.4250
G01 X59.3794 Y26.4702
G01 X59.3537 Y26.5131
G01 X59.3239 Y26.5532
G01 X59.2903 Y26.5903
G01 X59.2532 Y26.6239
G01 X59.2131 Y26.6537
G01 X59.1702 Y26.6794
G01 X59.1250 Y26.7007
G01 X59.0779 Y26.7176
G01 X59.0294 Y26.7297
G01 X58.9799 Y26.7371
G01 X58.9204 Y26.7400
G01 X58.5396 Y26.7400
G01 X58.4801 Y26.7371
G01 X58.4306 Y26.7297
G01 X58.3821 Y26.7176
G01 X58.3350 Y26.7007
G01 X58.4270 Y26.4787
G01 X58.4031 Y26.4674
G01 X58.3804 Y26.4539
G01 X58.3592 Y26.4381
G01 X58.3396 Y26.4204
G01 X58.3219 Y26.4008
G01 X58.3061 Y26.3796
G01 X58.2926 Y26.3569
G01 X58.2813 Y26.3330
G01 X58.2724 Y26.3082
G01 X58.2659 Y26.2825
G01 X58.2621 Y26.2564
G01 X58.2608 Y26.2300
G01 X58.2621 Y26.2036
G01 X58.2659 Y26.1775
G01 X58.2724 Y26.1518
G01 X58.2813 Y26.1270
G01 X58.2926 Y26.1031
G01 X58.3061 Y26.0804
G01 X58.3219 Y26.0592
G01 X58.3396 Y26.0396
G01 X58.3592 Y26.0219
G01 X58.3804 Y26.0061
G01 X58.4031 Y25.9926
G01 X58.4270 Y25.9813
G01 X58.4518 Y25.9724
G01 X58.4775 Y25.9659
G01 X58.5036 Y25.9621
G01 X58.5455 Y25.9600
G01 X58.9145 Y25.9600
G01 X58.9564 Y25.9621
G01 X58.9825 Y25.9659
G01 X59.0082 Y25.9724
G01 X59.0330 Y25.9813
G01 X59.0569 Y25.9926
G01 X59.0796 Y26.0061
G01 X59.1008 Y26.0219
G01 X59.1204 Y26.0396
G01 X59.1381 Y26.0592
G01 X59.1539 Y26.0804
G01 X59.1674 Y26.1031
G01 X59.1787 Y26.1270
G01 X59.1876 Y26.1518
G01 X59.1941 Y26.1775
G01 X59.1979 Y26.2036
G01 X59.1992 Y26.2300
G01 X59.1979 Y26.2564
G01 X59.1941 Y26.2825
G01 X59.1876 Y26.3082
G01 X59.1787 Y26.3330
G01 X59.1674 Y26.3569
G01 X59.1539 Y26.3796
G01 X59.1381 Y26.4008
G01 X59.1204 Y26.4204
G01 X59.1008 Y26.4381
G01 X59.0796 Y26.4539
G01 X59.0569 Y26.4674
G01 X59.0330 Y26.4787
G01 X59.0082 Y26.4876
G01 X58.9825 Y26.4941
G01 X58.9564 Y26.4979
G01 X58.9145 Y26.5000
G01 X58.5455 Y26.5000
G01 X58.5036 Y26.4979
G01 X58.4775 Y26.4941
G01 X58.4518 Y26.4876
G01 X58.4270 Y26.4787
G01 X58.5189 Y26.2567
G01 X58.5139 Y26.2541
G01 X58.5116 Y26.2524
G01 X58.5076 Y26.2484
G01 X58.5059 Y26.2461
G01 X58.5033 Y26.2411
G01 X58.5023 Y26.2384
G01 X58.5016 Y26.2356
G01 X58.5010 Y26.2300
G01 X58.5016 Y26.2244
G01 X58.5023 Y26.2216
G01 X58.5033 Y26.2189
G01 X58.5059 Y26.2139
G01 X58.5095 Y26.2095
G01 X58.5139 Y26.2059
G01 X58.5164 Y26.2045
G01 X58.5216 Y26.2023
G01 X58.5272 Y26.2012
G01 X58.5514 Y26.2000
G01 X58.9086 Y26.2000
G01 X58.9328 Y26.2012
G01 X58.9356 Y26.2016
G01 X58.9411 Y26.2033
G01 X58.9461 Y26.2059
G01 X58.9505 Y26.2095
G01 X58.9541 Y26.2139
G01 X58.9567 Y26.2189
G01 X58.9584 Y26.2244
G01 X58.9588 Y26.2272
G01 X58.9588 Y26.2328
G01 X58.9577 Y26.2384
G01 X58.9555 Y26.2436
G01 X58.9524 Y26.2484
G01 X58.9484 Y26.2524
G01 X58.9436 Y26.2555
G01 X58.9384 Y26.2577
G01 X58.9328 Y26.2588
G01 X58.9086 Y26.2600
G01 X58.5514 Y26.2600
G01 X58.5272 Y26.2588
G01 X58.5216 Y26.2577
G01 X58.5189 Y26.2567
G00 Z2.0000
G00 X58.3350 Y24.1607
G01 F60.00
G01 Z-0.10000
G01 F120.00
G01 X58.3821 Y24.1776
G01 X58.4306 Y24.1897
G01 X58.4801 Y24.1971
G01 X58.5396 Y24.2000
G01 X58.9204 Y24.2000
G01 X58.9799 Y24.1971
G01 X59.0294 Y24.1897
G01 X59.0779 Y24.1776
G01 X59.1250 Y24.1607
G01 X59.1702 Y24.1394
G01 X59.2131 Y24.1137
G01 X59.2532 Y24.0839
G01 X59.2903 Y24.0503
G01 X59.3239 Y24.0132
G01 X59.3537 Y23.9731
G01 X59.3794 Y23.9302
G01 X59.4007 Y23.8850
G01 X59.4176 Y23.8379
G01 X59.4297 Y23.7894
G01 X59.4371 Y23.7399
G01 X59.4395 Y23.6900
G01 X59.4371 Y23.6401
G01 X59.4297 Y23.5906
G01 X59.4176 Y23.5421
G01 X59.4007 Y23.4950
G01 X59.3794 Y23.4498
G01 X59.3537 Y23.4069
G01 X59.3239 Y23.3668
G01 X59.2903 Y23.3297
G01 X59.2532 Y23.2961
G01 X59.2131 Y23.2663
G01 X59.1702 Y23.2406
G01 X59.1250 Y23.2193
G01 X59.0779 Y23.2024
G01 X59.0294 Y23.1903
G01 X58.9799 Y23.1829
G01 X58.9204 Y23.1800
G01 X58.5396 Y23.1800
G01 X58.4801 Y23.1829
G01 X58.4306 Y23.1903
G01 X58.3821 Y23.2024
G01 X58.3350 Y23.2193
G01 X58.2898 Y23.2406
G01 X58.2469 Y23.2663
G01 X58.2068 Y23.2961
G01 X58.1697 Y23.3297
G01 X58.1361 Y23.3668
G01 X58.1063 Y23.4069
G01 X58.0806 Y23.4498
G01 X58.0593 Y23.4950
G01 X58.0424 Y23.5421
G01 X58.0303 Y23.5906
G01 X58.0229 Y23.6401
G01 X58.0205 Y23.6900
G01 X58.0229 Y23.7399
G01 X58.0303 Y23.7894
G01 X58.0424 Y23.8379
G01 X58.0593 Y23.8850
G01 X58.0806 Y23.9302
G01 X58.1063 Y23.9731
G01 X58.1361 Y24.0132
G01 X58.1697 Y24.0503
G01 X58.2068 Y24.0839
G01 X58.2469 Y24.1137
G01 X58.2898 Y24.1394
G01 X58.3350 Y24.1607
G01 X58.2431 Y24.3827
G01 X58.3123 Y24.4075
G01 X58.3837 Y24.4254
G01 X58.4565 Y24.4362
G01 X58.5337 Y24.4400
G01 X58.9263 Y24.4400
G01 X59.0035 Y24.4362
G01 X59.0763 Y24.4254
G01 X59.1477 Y24.4075
G01 X59.2169 Y24.3827
G01 X59.2835 Y24.3513
G01 X59.3466 Y24.3135
G01 X59.4057 Y24.2696
G01 X59.4602 Y24.2202
G01 X59.5096 Y24.1657
G01 X59.5535 Y24.1066
G01 X59.5913 Y24.0435
G01 X59.6227 Y23.9769
G01 X59.6475 Y23.9077
G01 X59.6654 Y23.8363
G01 X59.6762 Y23.7635
G01 X59.6798 Y23.6900
G01 X59.6762 Y23.6165
G01 X59.6654 Y23.5437
G01 X59.6475 Y23.4723
G01 X59.6227 Y23.4031
G01 X59.5913 Y23.3365
G01 X59.5535 Y23.2734
G01 X59.5096 Y23.2143
G01 X59.4602 Y23.1598
G01 X59.4057 Y23.1104
G01 X59.3466 Y23.0665
G01 X59.2835 Y23.0287
G01 X59.2169 Y22.9973
G01 X59.1477 Y22.9725
G01 X59.0763 Y22.9546
G01 X59.0035 Y22.9438
G01 X58.9263 Y22.9400
G01 X58.5337 Y22.9400
G01 X58.4565 Y22.9438
G01 X58.3837 Y22.9546
G01 X58.3123 Y22.9725
G01 X58.2431 Y22.9973
G01 X58.1765 Y23.0287
G01 X58.1134 Y23.0665
G01 X58.0543 Y23.1104
G01 X57.9998 Y23.1598
G01 X57.9504 Y23.2143
G01 X57.9065 Y23.2734
G01 X57.8687 Y23.3365
G01 X57.8373 Y23.4031
G01 X57.8125 Y23.4723
G01 X57.7946 Y23.5437
G01 X57.7838 Y23.6165
G01 X57.7802 Y23.6900
G01 X57.7838 Y23.7635
G01 X57.7946 Y23.8363
G01 X57.8125 Y23.9077
G01 X57.8373 Y23.9769
G01 X57.8687 Y24.0435
G01 X57.9065 Y24.1066
G01 X57.9504 Y24.1657
G01 X57.9998 Y24.2202
G01 X58.0543 Y24.2696
G01 X58.1134 Y24.3135
G01 X58.1765 Y24.3513
G01 X58.2431 Y24.3827
G01 X58.4270 Y23.9387
G01 X58.4518 Y23.9476
G01 X58.4775 Y23.9541
G01 X58.5036 Y23.9579
G01 X58.5455 Y23.9600
G01 X58.9145 Y23.9600
G01 X58.9564 Y23.9579
G01 X58.9825 Y23.9541
G01 X59.0082 Y23.9476
G01 X59.0330 Y23.9387
G01 X59.0569 Y23.9274
G01 X59.0796 Y23.9139
G01 X59.1008 Y23.8981
G01 X59.1204 Y23.8804
G01 X59.1381 Y23.8608
G01 X59.1539 Y23.8396
G01 X59.1674 Y23.8169
G01 X59.1787 Y23.7930
G01 X59.1876 Y23.7682
G01 X59.1941 Y23.7425
G01 X59.1979 Y23.7164
G01 X59.1992 Y23.6900
G01 X59.1979 Y23.6636
G01 X59.1941 Y23.6375
G01 X59.1876 Y23.6118
G01 X59.1787 Y23.5870
G01 X59.1674 Y23.5631
G01 X59.1539 Y23.5404
G01 X59.1381 Y23.5192
G01 X59.1204 Y23.4996
G01 X59.1008 Y23.4819
G01 X59.0796 Y23.4661
G01 X59.0569 Y23.4526
G01 X59.0330 Y23.4413
G01 X59.0082 Y23.4324
G01 X58.9825 Y23.4259
G01 X58.9564 Y23.4221
G01 X58.9145 Y23.4200
G01 X58.5455 Y23.4200
G01 X58.5036 Y23.4221
G01 X58.4775 Y23.4259
G01 X58.4518 Y23.4324
G01 X58.4270 Y23.4413
G01 X58.4031 Y23.4526
G01 X58.3804 Y23.4661
G01 X58.3592 Y23.4819
G01 X58.3396 Y23.4996
G01 X58.3219 Y23.5192
G01 X58.3061 Y23.5404
G01 X58.2926 Y23.5631
G01 X58.2813 Y23.5870
G01 X58.2724 Y23.6118
G01 X58.2659 Y23.6375
G01 X58.2621 Y23.6636
G01 X58.2608 Y23.6900
G01 X58.2621 Y23.7164
G01 X58.2659 Y23.7425
G01 X58.2724 Y23.7682
G01 X58.2813 Y23.7930
G01 X58.2926 Y23.8169
G01 X58.3061 Y23.8396
G01 X58.3219 Y23.8608
G01 X58.3396 Y23.8804
G01 X58.3592 Y23.8981
G01 X58.3804 Y23.9139
G01 X58.4031 Y23.9274
G01 X58.4270 Y23.9387
G01 X58.5189 Y23.7167
G01 X58.5216 Y23.7177
G01 X58.5272 Y23.7188
G01 X58.5514 Y23.7200
G01 X58.9086 Y23.7200
G01 X58.9328 Y23.7188
G01 X58.9384 Y23.7177
G01 X58.9436 Y23.7155
G01 X58.9484 Y23.7124
G01 X58.9524 Y23.7084
G01 X58.9555 Y23.7036
G01 X58.9577 Y23.6984
G01 X58.9588 Y23.6928
G01 X58.9588 Y23.6872
G01 X58.9584 Y23.6844
G01 X58.9567 Y23.6789
G01 X58.9541 Y23.6739
G01 X58.9505 Y23.6695
G01 X58.9461 Y23.6659
G01 X58.9411 Y23.6633
G01 X58.9356 Y23.6616
G01 X58.9328 Y23.6612
G01 X58.9086 Y23.6600
G01 X58.5514 Y23.6600
G01 X58.5272 Y23.6612
G01 X58.5244 Y23.6616
G01 X58.5189 Y23.6633
G01 X58.5164 Y23.6645
G01 X58.5116 Y23.6676
G01 X58.5076 Y23.6716
G01 X58.5059 Y23.6739
G01 X58.5033 Y23.6789
G01 X58.5016 Y23.6844
G01 X58.5010 Y23.6900
G01 X58.5016 Y23.6956
G01 X58.5033 Y23.7011
G01 X58.5045 Y23.7036
G01 X58.5076 Y23.7084
G01 X58.5095 Y23.7105
G01 X58.5139 Y23.7141
G01 X58.5189 Y23.7167
G00 Z2.0000
G00 X62.1389 Y29.5267
G01 F60.00
G01 Z-0.10000
G01 F120.00
G01 X62.1416 Y29.5277
G01 X62.1472 Y29.5288
G01 X62.1714 Y29.5300
G01 X62.8286 Y29.5300
G01 X62.8528 Y29.5288
G01 X62.8556 Y29.5284
G01 X62.8611 Y29.5267
G01 X62.8661 Y29.5241
G01 X62.8705 Y29.5205
G01 X62.8741 Y29.5161
G01 X62.8767 Y29.5111
G01 X62.8784 Y29.5056
G01 X62.8788 Y29.5028
G01 X62.8788 Y29.4972
G01 X62.8777 Y29.4916
G01 X62.8767 Y29.4889
G01 X62.8741 Y29.4839
G01 X62.8724 Y29.4816
G01 X62.8684 Y29.4776
G01 X62.8636 Y29.4745
G01 X62.8584 Y29.4723
G01 X62.8528 Y29.4712
G01 X62.8286 Y29.4700
G01 X62.1714 Y29.4700
G01 X62.1472 Y29.4712
G01 X62.1416 Y29.4723
G01 X62.1389 Y29.4733
G01 X62.1339 Y29.4759
G01 X62.1316 Y29.4776
G01 X62.1276 Y29.4816
G01 X62.1245 Y29.4864
G01 X62.1233 Y29.4889
G01 X62.1223 Y29.4916
G01 X62.1212 Y29.4972
G01 X62.1212 Y29.5028
G01 X62.1216 Y29.5056
G01 X62.1233 Y29.5111
G01 X62.1245 Y29.5136
G01 X62.1276 Y29.5184
G01 X62.1295 Y29.5205
G01 X62.1339 Y29.5241
G01 X62.1389 Y29.5267
G01 X62.0470 Y29.7487
G01 X62.0718 Y29.7576
G01 X62.0975 Y29.7641
G01 X62.1236 Y29.7679
G01 X62.1655 Y29.7700
G01 X62.8345 Y29.7700
G01 X62.8764 Y29.7679
G01 X62.9025 Y29.7641
G01 X62.9282 Y29.7576
G01 X62.9530 Y29.7487
G01 X62.9769 Y29.7374
G01 X62.9996 Y29.7239
G01 X63.0208 Y29.7081
G01 X63.0404 Y29.6904
G01 X63.0581 Y29.6708
G01 X63.0739 Y29.6496
G01 X63.0874 Y29.6269
G01 X63.0987 Y29.6030
G01 X63.1076 Y29.5782
G01 X63.1141 Y29.5525
G01 X63.1179 Y29.5264
G01 X63.1192 Y29.5000
G01 X63.1179 Y29.4736
G01 X63.1141 Y29.4475
G01 X63.1076 Y29.4218
G01 X63.0987 Y29.3970
G01 X63.0874 Y29.3731
G01 X63.0739 Y29.3504
G01 X63.0581 Y29.3292
G01 X63.0404 Y29.3096
G01 X63.0208 Y29.2919
G01 X62.9996 Y29.2761
G01 X62.9769 Y29.2626
G01 X62.9530 Y29.2513
G01 X62.9282 Y29.2424
G01 X62.9025 Y29.2359
G01 X62.8764 Y29.2321
G01 X62.8345 Y29.2300
G01 X62.1655 Y29.2300
G01 X62.1236 Y29.2321
G01 X62.0975 Y29.2359
G01 X62.0718 Y29.2424
G01 X62.0470 Y29.2513
G01 X62.0231 Y29.2626
G01 X62.0004 Y29.2761
G01 X61.9792 Y29.2919
G01 X61.9596 Y29.3096
G01 X61.9419 Y29.3292
G01 X61.9261 Y29.3504
G01 X61.9126 Y29.3731
G01 X61.9013 Y29.3970
G01 X61.8924 Y29.4218
G01 X61.8859 Y29.4475
G01 X61.8821 Y29.4736
G01 X61.8808 Y29.5000
G01 X61.8821 Y29.5264
G01 X61.8859 Y29.5525
G01 X61.8924 Y29.5782
G01 X61.9013 Y29.6030
G01 X61.9126 Y29.6269
G01 X61.9261 Y29.6496
G01 X61.9419 Y29.6708
G01 X61.9596 Y29.6904
G01 X61.9792 Y29.7081
G01 X62.0004 Y29.7239
G01 X62.0231 Y29.7374
G01 X62.0470 Y29.7487
G01 X61.9550 Y29.9707
G01 X62.0021 Y29.9876
G01 X62.0506 Y29.9997
G01 X62.1001 Y30.0071
G01 X62.1596 Y30.0100
G01 X62.8404 Y30.0100
G01 X62.8999 Y30.0071
G01 X62.9494 Y29.9997
G01 X62.9979 Y29.9876
G01 X63.0450 Y29.9707
G01 X63.0902 Y29.9494
G01 X63.1331 Y29.9237
G01 X63.1732 Y29.8939
G01 X63.2103 Y29.8603
G01 X63.2439 Y29.8232
G01 X63.2737 Y29.7831
G01 X63.2994 Y29.7402
G01 X63.3207 Y29.6950
G01 X63.3376 Y29.6479
G01 X63.3497 Y29.5994
G01 X63.3571 Y29.5499
G01 X63.3595 Y29.5000
G01 X63.3571 Y29.4501
G01 X63.3497 Y29.4006
G01 X63.3376 Y29.3521
G01 X63.3207 Y29.3050
G01 X63.2994 Y29.2598
G01 X63.2737 Y29.2169
G01 X63.2439 Y29.1768
G01 X63.2103 Y29.1397
G01 X63.1732 Y29.1061
G01 X63.1331 Y29.0763
G01 X63.0902 Y29.0506
G01 X63.0450 Y29.0293
G01 X62.9979 Y29.0124
G01 X62.9494 Y29.0003
G01 X62.8999 Y28.9929
G01 X62.8404 Y28.9900
G01 X62.1596 Y28.9900
G01 X62.1001 Y28.9929
G01 X62.0506 Y29.0003
G01 X62.0021 Y29.0124
G01 X61.9550 Y29.0293
G01 X61.9098 Y29.0506
G01 X61.8669 Y29.0763
G01 X61.8268 Y29.1061
G01 X61.7897 Y29.1397
G01 X61.7561 Y29.1768
G01 X61.7263 Y29.2169
G01 X61.7006 Y29.2598
G01 X61.6793 Y29.3050
G01 X61.6624 Y29.3521
G01 X61.6503 Y29.4006
G01 X61.6429 Y29.4501
G01 X61.6405 Y29.5000
G01 X61.6429 Y29.5499
G01 X61.6503 Y29.5994
G01 X61.6624 Y29.6479
G01 X61.6793 Y29.6950
G01 X61.7006 Y29.7402
G01 X61.7263 Y29.7831
G01 X61.7561 Y29.8232
G01 X61.7897 Y29.8603
G01 X61.8268 Y29.8939
G01 X61.8669 Y29.9237
G01 X61.9098 Y29.9494
G01 X61.9550 Y29.9707
G01 X61.8631 Y30.1927
G01 X61.9323 Y30.2175
G01 X62.0037 Y30.2354
G01 X62.0765 Y30.2462
G01 X62.1537 Y30.2500
G01 X62.8463 Y30.2500
G01 X62.9235 Y30.2462
G01 X62.9963 Y30.2354
G01 X63.0677 Y30.2175
G01 X63.1369 Y30.1927
G01 X63.2035 Y30.1613
G01 X63.2666 Y30.1235
G01 X63.3257 Y30.0796
G01 X63.3802 Y30.0302
G01 X63.4296 Y29.9757
G01 X63.4735 Y29.9166
G01 X63.5113 Y29.8535
G01 X63.5427 Y29.7869
G01 X63.5675 Y29.7177
G01 X63.5854 Y29.6463
G01 X63.5962 Y29.5735
G01 X63.5998 Y29.5000
G01 X63.5962 Y29.4265
G01 X63.5854 Y29.3537
G01 X63.5675 Y29.2823
G01 X63.5427 Y29.2131
G01 X63.5113 Y29.1465
G01 X63.4735 Y29.0834
G01 X63.4296 Y29.0243
G01 X63.3802 Y28.9698
G01 X63.3257 Y28.9204
G01 X63.2666 Y28.8765
G01 X63.2035 Y28.8387
G01 X63.1369 Y28.8073
G01 X63.0677 Y28.7825
G01 X62.9963 Y28.7646
G01 X62.9235 Y28.7538
G01 X62.8463 Y28.7500
G01 X62.1537 Y28.7500
G01 X62.0765 Y28.7538
G01 X62.0037 Y28.7646
G01 X61.9323 Y28.7825
G01 X61.8631 Y28.8073
G01 X61.7965 Y28.8387
G01 X61.7334 Y28.8765
G01 X61.6743 Y28.9204
G01 X61.6198 Y28.9698
G01 X61.5704 Y29.0243
G01 X61.5265 Y29.0834
G01 X61.4887 Y29.1465
G01 X61.4573 Y29.2131
G01 X61.4325 Y29.2823
G01 X61.4146 Y29.3537
G01 X61.4038 Y29.4265
G01 X61.4002 Y29.5000
G01 X61.4038 Y29.5735
G01 X61.4146 Y29.6463
G01 X61.4325 Y29.7177
G01 X61.4573 Y29.7869
G01 X61.4887 Y29.8535
G01 X61.5265 Y29.9166
G01 X61.5704 Y29.9757
G01 X61.6198 Y30.0302
G01 X61.6743 Y30.0796
G01 X61.7334 Y30.1235
G01 X61.7965 Y30.1613
G01 X61.8631 Y30.1927
G00 Z2.0000
G00 X62.1389 Y32.0667
G01 F60.00
G01 Z-0.10000
G01 F120.00
G01 X62.1416 Y32.0677
G01 X62.1472 Y32.0688
G01 X62.1714 Y32.0700
G01 X62.8286 Y32.0700
G01 X62.8528 Y32.0688
G01 X62.8584 Y32.0677
G01 X62.8636 Y32.0655
G01 X62.8661 Y32.0641
G01 X62.8705 Y32.0605
G01 X62.8741 Y32.0561
G01 X62.8767 Y32.0511
G01 X62.8784 Y32.0456
G01 X62.8788 Y32.0428
G01 X62.8788 Y32.0372
G01 X62.8777 Y32.0316
G01 X62.8767 Y32.0289
G01 X62.8741 Y32.0239
G01 X62.8724 Y32.0216
G01 X62.8684 Y32.0176
G01 X62.8636 Y32.0145
G01 X62.8584 Y32.0123
G01 X62.8528 Y32.0112
G01 X62.8286 Y32.0100
G01 X62.1714 Y32.0100
G01 X62.1472 Y32.0112
G01 X62.1416 Y32.0123
G01 X62.1389 Y32.0133
G01 X62.1339 Y32.0159
G01 X62.1316 Y32.0176
G01 X62.1276 Y32.0216
G01 X62.1245 Y32.0264
G01 X62.1233 Y32.0289
G01 X62.1223 Y32.0316
G01 X62.1212 Y32.0372
G01 X62.1210 Y32.0400
G01 X62.1216 Y32.0456
G01 X62.1233 Y32.0511
G01 X62.1245 Y32.0536
G01 X62.1276 Y32.0584
G01 X62.1295 Y32.0605
G01 X62.1339 Y32.0641
G01 X62.1389 Y32.0667
G01 X62.0470 Y32.2887
G01 X62.0718 Y32.2976
G01 X62.0975 Y32.3041
G01 X62.1236 Y32.3079
G01 X62.1655 Y32.3100
G01 X62.8345 Y32.3100
G01 X62.8764 Y32.3079
G01 X62.9025 Y32.3041
G01 X62.9282 Y32.2976
G01 X62.9530 Y32.2887
G01 X62.9769 Y32.2774
G01 X62.9996 Y32.2639
G01 X63.0208 Y32.2481
G01 X63.0404 Y32.2304
G01 X63.0581 Y32.2108
G01 X63.0739 Y32.1896
G01 X63.0874 Y32.1669
G01 X63.0987 Y32.1430
G01 X63.1076 Y32.1182
G01 X63.1141 Y32.0925
G01 X63.1179 Y32.0664
G01 X63.1192 Y32.0400
G01 X63.1179 Y32.0136
G01 X63.1141 Y31.9875
G01 X63.1076 Y31.9618
G01 X63.0987 Y31.9370
G01 X63.0874 Y31.9131
G01 X63.0739 Y31.8904
G01 X63.0581 Y31.8692
G01 X63.0404 Y31.8496
G01 X63.0208 Y31.8319
G01 X62.9996 Y31.8161
G01 X62.9769 Y31.8026
G01 X62.9530 Y31.7913
G01 X62.9282 Y31.7824
G01 X62.9025 Y31.7759
G01 X62.8764 Y31.7721
G01 X62.8345 Y31.7700
G01 X62.1655 Y31.7700
G01 X62.1236 Y31.7721
G01 X62.0975 Y31.7759
G01 X62.0718 Y31.7824
G01 X62.0470 Y31.7913
G01 X62.0231 Y31.8026
G01 X62.0004 Y31.8161
G01 X61.9792 Y31.8319
G01 X61.9596 Y31.8496
G01 X61.9419 Y31.8692
G01 X61.9261 Y31.8904
G01 X61.9126 Y31.9131
G01 X61.9013 Y31.9370
G01 X61.8924 Y31.9618
G01 X61.8859 Y31.9875
G01 X61.8821 Y32.0136
G01 X61.8808 Y32.0400
G01 X61.8821 Y32.0664
G01 X61.8859 Y32.0925
G01 X61.8924 Y32.1182
G01 X61.9013 Y32.1430
G01 X61.9126 Y32.1669
G01 X61.9261 Y32.1896
G01 X61.9419 Y32.2108
G01 X61.9596 Y32.2304
G01 X61.9792 Y32.2481
G01 X62.0004 Y32.2639
G01 X62.0231 Y32.2774
G01 X62.0470 Y32.2887
G01 X61.9550 Y32.5107
G01 X62.0021 Y32.5276
G01 X62.0506 Y32.5397
G01 X62.1001 Y32.5471
G01 X62.1596 Y32.5500
G01 X62.8404 Y32.5500
G01 X62.8999 Y32.5471
G01 X62.9494 Y32.5397
G01 X62.9979 Y32.5276
G01 X63.0450 Y32.5107
G01 X63.0902 Y32.4894
G01 X63.1331 Y32.4637
G01 X63.1732 Y32.4339
G01 X63.2103 Y32.4003
G01 X63.2439 Y32.3632
G01 X63.2737 Y32.3231
G01 X63.2994 Y32.2802
G01 X63.3207 Y32.2350
G01 X63.3376 Y32.1879
G01 X63.3497 Y32.1394
G01 X63.3571 Y32.0899
G01 X63.3595 Y32.0400
G01 X63.3571 Y31.9901
G01 X63.3497 Y31.9406
G01 X63.3376 Y31.8921
G01 X63.3207 Y31.8450
G01 X63.2994 Y31.7998
G01 X63.2737 Y31.7569
G01 X63.2439 Y31.7168
G01 X63.2103 Y31.6797
G01 X63.1732 Y31.6461
G01 X63.1331 Y31.6163
G01 X63.0902 Y31.5906
G01 X63.0450 Y31.5693
G01 X62.9979 Y31.5524
G01 X62.9494 Y31.5403
G01 X62.8999 Y31.5329
G01 X62.8404 Y31.5300
G01 X62.1596 Y31.5300
G01 X62.1001 Y31.5329
G01 X62.0506 Y31.5403
G01 X62.0021 Y31.5524
G01 X61.9550 Y31.5693
G01 X61.9098 Y31.5906
G01 X61.8669 Y31.6163
G01 X61.8268 Y31.6461
G01 X61.7897 Y31.6797
G01 X61.7561 Y31.7168
G01 X61.7263 Y31.7569
G01 X61.7006 Y31.7998
G01 X61.6793 Y31.8450
G01 X61.6624 Y31.8921
G01 X61.6503 Y31.9406
G01 X61.6429 Y31.9901
G01 X61.6405 Y32.0400
G01 X61.6429 Y32.0899
G01 X61.6503 Y32.1394
G01 X61.6624 Y32.1879
G01 X61.6793 Y32.2350
G01 X61.7006 Y32.2802
G01 X61.7263 Y32.3231
G01 X61.7561 Y32.3632
G01 X61.7897 Y32.4003
G01 X61.8268 Y32.4339
G01 X61.8669 Y32.4637
G01 X61.9098 Y32.4894
G01 X61.9550 Y32.5107
G01 X61.8631 Y32.7327
G01 X61.9323 Y32.7575
G01 X62.0037 Y32.7754
G01 X62.0765 Y32.7862
G01 X62.1537 Y32.7900
G01 X62.8463 Y32.7900
G01 X62.9235 Y32.7862
G01 X62.9963 Y32.7754
G01 X63.0677 Y32.7575
G01 X63.1369 Y32.7327
G01 X63.2035 Y32.7013
G01 X63.2666 Y32.6635
G01 X63.3257 Y32.6196
G01 X63.3802 Y32.5702
G01 X63.4296 Y32.5157
G01 X63.4735 Y32.4566
G01 X63.5113 Y32.3935
G01 X63.5427 Y32.3269
G01 X63.5675 Y32.2577
G01 X63.5854 Y32.1863
G01 X63.5962 Y32.1135
G01 X63.5998 Y32.0400
G01 X63.5962 Y31.9665
G01 X63.5854 Y31.8937
G01 X63.5675 Y31.8223
G01 X63.5427 Y31.7531
G01 X63.5113 Y31.6865
G01 X63.4735 Y31.6234
G01 X63.4296 Y31.5643
G01 X63.3802 Y31.5098
G01 X63.3257 Y31.4604
G01 X63.2666 Y31.4165
G01 X63.2035 Y31.3787
G01 X63.1369 Y31.3473
G01 X63.0677 Y31.3225
G01 X62.9963 Y31.3046
G01 X62.9235 Y31.2938
G01 X62.8463 Y31.2900
G01 X62.1537 Y31.2900
G01 X62.0765 Y31.2938
G01 X62.0037 Y31.3046
G01 X61.9323 Y31.3225
G01 X61.8631 Y31.3473
G01 X61.7965 Y31.3787
G01 X61.7334 Y31.4165
G01 X61.6743 Y31.4604
G01 X61.6198 Y31.5098
G01 X61.5704 Y31.5643
G01 X61.5265 Y31.6234
G01 X61.4887 Y31.6865
G01 X61.4573 Y31.7531
G01 X61.4325 Y31.8223
G01 X61.4146 Y31.8937
G01 X61.4038 Y31.9665
G01 X61.4002 Y32.0400
G01 X61.4038 Y32.1135
G01 X61.4146 Y32.1863
G01 X61.4325 Y32.2577
G01 X61.4573 Y32.3269
G01 X61.4887 Y32.3935
G01 X61.5265 Y32.4566
G01 X61.5704 Y32.5157
G01 X61.6198 Y32.5702
G01 X61.6743 Y32.6196
G01 X61.7334 Y32.6635
G01 X61.7965 Y32.7013
G01 X61.8631 Y32.7327
G00 Z2.0000
G00 X62.1389 Y34.6067
G01 F60.00
G01 Z-0.10000
G01 F120.00
G01 X62.1416 Y34.6077
G01 X62.1472 Y34.6088
G01 X62.1714 Y34.6100
G01 X62.8286 Y34.6100
G01 X62.8528 Y34.6088
G01 X62.8584 Y34.6077
G01 X62.8636 Y34.6055
G01 X62.8661 Y34.6041
G01 X62.8705 Y34.6005
G01 X62.8741 Y34.5961
G01 X62.8767 Y34.5911
G01 X62.8784 Y34.5856
G01 X62.8788 Y34.5828
G01 X62.8788 Y34.5772
G01 X62.8777 Y34.5716
G01 X62.8767 Y34.5689
G01 X62.8741 Y34.5639
G01 X62.8705 Y34.5595
G01 X62.8684 Y34.5576
G01 X62.8636 Y34.5545
G01 X62.8584 Y34.5523
G01 X62.8528 Y34.5512
G01 X62.8286 Y34.5500
G01 X62.1714 Y34.5500
G01 X62.1472 Y34.5512
G01 X62.1416 Y34.5523
G01 X62.1364 Y34.5545
G01 X62.1339 Y34.5559
G01 X62.1316 Y34.5576
G01 X62.1276 Y34.5616
G01 X62.1245 Y34.5664
G01 X62.1233 Y34.5689
G01 X62.1223 Y34.5716
G01 X62.1212 Y34.5772
G01 X62.1212 Y34.5828
G01 X62.1216 Y34.5856
G01 X62.1233 Y34.5911
G01 X62.1245 Y34.5936
G01 X62.1276 Y34.5984
G01 X62.1295 Y34.6005
G01 X62.1339 Y34.6041
G01 X62.1389 Y34.6067
G01 X62.0470 Y34.8287
G01 X62.0718 Y34.8376
G01 X62.0975 Y34.8441
G01 X62.1236 Y34.8479
G01 X62.1655 Y34.8500
G01 X62.8345 Y34.8500
G01 X62.8764 Y34.8479
G01 X62.9025 Y34.8441
G01 X62.9282 Y34.8376
G01 X62.9530 Y34.8287
G01 X62.9769 Y34.8174
G01 X62.9996 Y34.8039
G01 X63.0208 Y34.7881
G01 X63.0404 Y34.7704
G01 X63.0581 Y34.7508
G01 X63.0739 Y34.7296
G01 X63.0874 Y34.7069
G01 X63.0987 Y34.6830
G01 X63.1076 Y34.6582
G01 X63.1141 Y34.6325
G01 X63.1179 Y34.6064
G01 X63.1192 Y34.5800
G01 X63.1179 Y34.5536
G01 X63.1141 Y34.5275
G01 X63.1076 Y34.5018
G01 X63.0987 Y34.4770
G01 X63.0874 Y34.4531
G01 X63.0739 Y34.4304
G01 X63.0581 Y34.4092
G01 X63.0404 Y34.3896
G01 X63.0208 Y34.3719
G01 X62.9996 Y34.3561
G01 X62.9769 Y34.3426
G01 X62.9530 Y34.3313
G01 X62.9282 Y34.3224
G01 X62.9025 Y34.3159
G01 X62.8764 Y34.3121
G01 X62.8345 Y34.3100
G01 X62.1655 Y34.3100
G01 X62.1236 Y34.3121
G01 X62.0975 Y34.3159
G01 X62.0718 Y34.3224
G01 X62.0470 Y34.3313
G01 X62.0231 Y34.3426
G01 X62.0004 Y34.3561
G01 X61.9792 Y34.3719
G01 X61.9596 Y34.3896
G01 X61.9419 Y34.4092
G01 X61.9261 Y34.4304
G01 X61.9126 Y34.4531
G01 X61.9013 Y34.4770
G01 X61.8924 Y34.5018
G01 X61.8859 Y34.5275
G01 X61.8821 Y34.5536
G01 X61.8808 Y34.5800
G01 X61.8821 Y34.6064
G01 X61.8859 Y34.6325
G01 X61.8924 Y34.6582
G01 X61.9013 Y34.6830
G01 X61.9126 Y34.7069
G01 X61.9261 Y34.7296
G01 X61.9419 Y34.7508
G01 X61.9596 Y34.7704
G01 X61.9792 Y34.7881
G01 X62.0004 Y34.8039
G01 X62.0231 Y34.8174
G01 X62.0470 Y34.8287
G01 X61.9550 Y35.0507
G01 X62.0021 Y35.0676
G01 X62.0506 Y35.0797
G01 X62.1001 Y35.0871
G01 X62.1596 Y35.0900
G01 X62.8404 Y35.0900
G01 X62.8999 Y35.0871
G01 X62.9494 Y35.0797
G01 X62.9979 Y35.0676
G01 X63.0450 Y35.0507
G01 X63.0902 Y35.0294
G01 X63.1331 Y35.0037
G01 X63.1732 Y34.9739
G01 X63.2103 Y34.9403
G01 X63.2439 Y34.9032
G01 X63.2737 Y34.8631
G01 X63.2994 Y34.8202
G01 X63.3207 Y34.7750
G01 X63.3376 Y34.7279
G01 X63.3497 Y34.6794
G01 X63.3571 Y34.6299
G01 X63.3595 Y34.5800
G01 X63.3571 Y34.5301
G01 X63.3497 Y34.4806
G01 X63.3376 Y34.4321
G01 X63.3207 Y34.3850
G01 X63.2994 Y34.3398
G01 X63.2737 Y34.2969
G01 X63.2439 Y34.2568
G01 X63.2103 Y34.2197
G01 X63.1732 Y34.1861
G01 X63.1331 Y34.1563
G01 X63.0902 Y34.1306
G01 X63.0450 Y34.1093
G01 X62.9979 Y34.0924
G01 X62.9494 Y34.0803
G01 X62.8999 Y34.0729
G01 X62.8404 Y34.0700
G01 X62.1596 Y34.0700
G01 X62.1001 Y34.0729
G01 X62.0506 Y34.0803
G01 X62.0021 Y34.0924
G01 X61.9550 Y34.1093
G01 X61.9098 Y34.1306
G01 X61.8669 Y34.1563
G01 X61.8268 Y34.1861
G01 X61.7897 Y34.2197
G01 X61.7561 Y34.2568
G01 X61.7263 Y34.2969
G01 X61.7006 Y34.3398
G01 X61.6793 Y34.3850
G01 X61.6624 Y34.4321
G01 X61.6503 Y34.4806
G01 X61.6429 Y34.5301
G01 X61.6405 Y34.5800
G01 X61.6429 Y34.6299
G01 X61.6503 Y34.6794
G01 X61.6624 Y34.7279
G01 X61.6793 Y34.7750
G01 X61.7006 Y34.8202
G01 X61.7263 Y34.8631
G01 X61.7561 Y34.9032
G01 X61.7897 Y34.9403
G01 X61.8268 Y34.9739
G01 X61.8669 Y35.0037
G01 X61.9098 Y35.0294
G01 X61.9550 Y35.0507
G01 X61.8631 Y35.2727
G01 X61.9323 Y35.2975
G01 X62.0037 Y35.3154
G01 X62.0765 Y35.3262
G01 X62.1537 Y35.3300
G01 X62.8463 Y35.3300
G01 X62.9235 Y35.3262
G01 X62.9963 Y35.3154
G01 X63.0677 Y35.2975
G01 X63.1369 Y35.2727
G01 X63.2035 Y35.2413
G01 X63.2666 Y35.2035
G01 X63.3257 Y35.1596
G01 X63.3802 Y35.1102
G01 X63.4296 Y35.0557
G01 X63.4735 Y34.9966
G01 X63.5113 Y34.9335
G01 X63.5427 Y34.8669
G01 X63.5675 Y34.7977
G01 X63.5854 Y34.7263
G01 X63.5962 Y34.6535
G01 X63.5998 Y34.5800
G01 X63.5962 Y34.5065
G01 X63.5854 Y34.4337
G01 X63.5675 Y34.3623
G01 X63.5427 Y34.2931
G01 X63.5113 Y34.2265
G01 X63.4735 Y34.1634
G01 X63.4296 Y34.1043
G01 X63.3802 Y34.0498
G01 X63.3257 Y34.0004
G01 X63.2666 Y33.9565
G01 X63.2035 Y33.9187
G01 X63.1369 Y33.8873
G01 X63.0677 Y33.8625
G01 X62.9963 Y33.8446
G01 X62.9235 Y33.8338
G01 X62.8463 Y33.8300
G01 X62.1537 Y33.8300
G01 X62.0765 Y33.8338
G01 X62.0037 Y33.8446
G01 X61.9323 Y33.8625
G01 X61.8631 Y33.8873
G01 X61.7965 Y33.9187
G01 X61.7334 Y33.9565
G01 X61.6743 Y34.0004
G01 X61.6198 Y34.0498
G01 X61.5704 Y34.1043
G01 X61.5265 Y34.1634
G01 X61.4887 Y34.2265
G01 X61.4573 Y34.2931
G01 X61.4325 Y34.3623
G01 X61.4146 Y34.4337
G01 X61.4038 Y34.5065
G01 X61.4002 Y34.5800
G01 X61.4038 Y34.6535
G01 X61.4146 Y34.7263
G01 X61.4325 Y34.7977
G01 X61.4573 Y34.8669
G01 X61.4887 Y34.9335
G01 X61.5265 Y34.9966
G01 X61.5704 Y35.0557
G01 X61.6198 Y35.1102
G01 X61.6743 Y35.1596
G01 X61.7334 Y35.2035
G01 X61.7965 Y35.2413
G01 X61.8631 Y35.2727
G00 Z2.0000
G00 X62.1389 Y37.1467
G01 F60.00
G01 Z-0.10000
G01 F120.00
G01 X62.1416 Y37.1477
G01 X62.1472 Y37.1488
G01 X62.1714 Y37.1500
G01 X62.8286 Y37.1500
G01 X62.8528 Y37.1488
G01 X62.8584 Y37.1477
G01 X62.8636 Y37.1455
G01 X62.8661 Y37.1441
G01 X62.8705 Y37.1405
G01 X62.8741 Y37.1361
G01 X62.8767 Y37.1311
G01 X62.8784 Y37.1256
G01 X62.8788 Y37.1228
G01 X62.8788 Y37.1172
G01 X62.8777 Y37.1116
G01 X62.8767 Y37.1089
G01 X62.8741 Y37.1039
G01 X62.8705 Y37.0995
G01 X62.8684 Y37.0976
G01 X62.8636 Y37.0945
G01 X62.8584 Y37.0923
G01 X62.8528 Y37.0912
G01 X62.8286 Y37.0900
G01 X62.1714 Y37.0900
G01 X62.1472 Y37.0912
G01 X62.1416 Y37.0923
G01 X62.1364 Y37.0945
G01 X62.1339 Y37.0959
G01 X62.1316 Y37.0976
G01 X62.1276 Y37.1016
G01 X62.1245 Y37.1064
G01 X62.1233 Y37.1089
G01 X62.1223 Y37.1116
G01 X62.1212 Y37.1172
G01 X62.1212 Y37.1228
G01 X62.1216 Y37.1256
G01 X62.1233 Y37.1311
G01 X62.1245 Y37.1336
G01 X62.1276 Y37.1384
G01 X62.1295 Y37.1405
G01 X62.1339 Y37.1441
G01 X62.1389 Y37.1467
G01 X62.0470 Y37.3687
G01 X62.0718 Y37.3776
G01 X62.0975 Y37.3841
G01 X62.1236 Y37.3879
G01 X62.1655 Y37.3900
G01 X62.8345 Y37.3900
G01 X62.8764 Y37.3879
G01 X62.9025 Y37.3841
G01 X62.9282 Y37.3776
G01 X62.9530 Y37.3687
G01 X62.9769 Y37.3574
G01 X62.9996 Y37.3439
G01 X63.0208 Y37.3281
G01 X63.0404 Y37.3104
G01 X63.0581 Y37.2908
G01 X63.0739 Y37.2696
G01 X63.0874 Y37.2469
G01 X63.0987 Y37.2230
G01 X63.1076 Y37.1982
G01 X63.1141 Y37.1725
G01 X63.1179 Y37.1464
G01 X63.1192 Y37.1200
G01 X63.1179 Y37.0936
G01 X63.1141 Y37.0675
G01 X63.1076 Y37.0418
G01 X63.0987 Y37.0170
G01 X63.0874 Y36.9931
G01 X63.0739 Y36.9704
G01 X63.0581 Y36.9492
G01 X63.0404 Y36.9296
G01 X63.0208 Y36.9119
G01 X62.9996 Y36.8961
G01 X62.9769 Y36.8826
G01 X62.9530 Y36.8713
G01 X62.9282 Y36.8624
G01 X62.9025 Y36.8559
G01 X62.8764 Y36.8521
G01 X62.8345 Y36.8500
G01 X62.1655 Y36.8500
G01 X62.1236 Y36.8521
G01 X62.0975 Y36.8559
G01 X62.0718 Y36.8624
G01 X62.0470 Y36.8713
G01 X62.0231 Y36.8826
G01 X62.0004 Y36.8961
G01 X61.9792 Y36.9119
G01 X61.9596 Y36.9296
G01 X61.9419 Y36.9492
G01 X61.9261 Y36.9704
G01 X61.9126 Y36.9931
G01 X61.9013 Y37.0170
G01 X61.8924 Y37.0418
G01 X61.8859 Y37.0675
G01 X61.8821 Y37.0936
G01 X61.8808 Y37.1200
G01 X61.8821 Y37.1464
G01 X61.8859 Y37.1725
G01 X61.8924 Y37.1982
G01 X61.9013 Y37.2230
G01 X61.9126 Y37.2469
G01 X61.9261 Y37.2696
G01 X61.9419 Y37.2908
G01 X61.9596 Y37.3104
