(G-CODE GENERATED BY FLATCAM v8.994 - www.flatcam.org - Version Date: 2020/11/7)

(Name: astro-control-PTH-0.9_cnc)
(Type: G-code from Geometry)
(Units: MM)

(Created on Sunday, 28 December 2025 at 20:17)

(This preprocessor is the default preprocessor used by FlatCAM.)
(It is made to work with MACH3 compatible motion controllers.)


(TOOLS DIAMETER: )
(Tool: 1 -> Dia: 0.9)

(FEEDRATE Z: )
(Tool: 1 -> Feedrate: 300)

(FEEDRATE RAPIDS: )
(Tool: 1 -> Feedrate Rapids: 1500)

(Z_CUT: )
(Tool: 1 -> Z_Cut: -1.8)

(Tools Offset: )
(Tool: 1 -> Offset Z: 0.0)

(Z_MOVE: )
(Tool: 1 -> Z_Move: 2)

(Z Toolchange: 15.0 mm)
(X,Y Toolchange: 0.0000, 0.0000 mm)
(Z Start: None mm)
(Z End: 0.5 mm)
(X,Y End: None mm)
(Steps per circle: 64)
(Preprocessor Excellon: default)

(X range:   20.7460 ...  111.7220  mm)
(Y range:   28.0500 ...   70.7600  mm)

(Spindle Speed: 12000 RPM)
G21
G90
G94

G01 F300.00

M5
G00 Z15.0000
T1M6
(MSG, Change to Tool Dia = 0.9000 ||| Total drills for tool T1 = 42)
M0
G00 Z15.0000

G01 F300.00
M03 S12000
G00 X41.9600 Y40.5000
G01 Z-1.8000
G01 Z0
G00 Z2.0000
G00 X33.5000 Y38.0000
G01 Z-1.8000
G01 Z0
G00 Z2.0000
G00 X28.5000 Y38.0000
G01 Z-1.8000
G01 Z0
G00 Z2.0000
G00 X21.1960 Y31.0000
G01 Z-1.8000
G01 Z0
G00 Z2.0000
G00 X23.6960 Y31.0000
G01 Z-1.8000
G01 Z0
G00 Z2.0000
G00 X29.5000 Y30.9870
G01 Z-1.8000
G01 Z0
G00 Z2.0000
G00 X33.0000 Y30.9870
G01 Z-1.8000
G01 Z0
G00 Z2.0000
G00 X40.3800 Y33.0000
G01 Z-1.8000
G01 Z0
G00 Z2.0000
G00 X40.3800 Y30.0000
G01 Z-1.8000
G01 Z0
G00 Z2.0000
G00 X48.0000 Y30.0000
G01 Z-1.8000
G01 Z0
G00 Z2.0000
G00 X48.0000 Y33.0000
G01 Z-1.8000
G01 Z0
G00 Z2.0000
G00 X67.6900 Y33.5000
G01 Z-1.8000
G01 Z0
G00 Z2.0000
G00 X75.3100 Y33.5000
G01 Z-1.8000
G01 Z0
G00 Z2.0000
G00 X79.0000 Y42.5000
G01 Z-1.8000
G01 Z0
G00 Z2.0000
G00 X79.0000 Y46.0000
G01 Z-1.8000
G01 Z0
G00 Z2.0000
G00 X92.0120 Y44.0100
G01 Z-1.8000
G01 Z0
G00 Z2.0000
G00 X92.2020 Y28.5000
G01 Z-1.8000
G01 Z0
G00 Z2.0000
G00 X99.8220 Y28.5000
G01 Z-1.8000
G01 Z0
G00 Z2.0000
G00 X102.7020 Y28.5000
G01 Z-1.8000
G01 Z0
G00 Z2.0000
G00 X110.3220 Y28.5000
G01 Z-1.8000
G01 Z0
G00 Z2.0000
G00 X99.6320 Y44.0100
G01 Z-1.8000
G01 Z0
G00 Z2.0000
G00 X103.6530 Y44.0100
G01 Z-1.8000
G01 Z0
G00 Z2.0000
G00 X111.2720 Y44.0100
G01 Z-1.8000
G01 Z0
G00 Z2.0000
G00 X111.1200 Y59.5000
G01 Z-1.8000
G01 Z0
G00 Z2.0000
G00 X103.5000 Y59.5000
G01 Z-1.8000
G01 Z0
G00 Z2.0000
G00 X99.8100 Y59.5000
G01 Z-1.8000
G01 Z0
G00 Z2.0000
G00 X94.0000 Y62.6900
G01 Z-1.8000
G01 Z0
G00 Z2.0000
G00 X92.1900 Y59.5000
G01 Z-1.8000
G01 Z0
G00 Z2.0000
G00 X90.0000 Y62.5000
G01 Z-1.8000
G01 Z0
G00 Z2.0000
G00 X94.0000 Y70.3100
G01 Z-1.8000
G01 Z0
G00 Z2.0000
G00 X90.0000 Y67.5000
G01 Z-1.8000
G01 Z0
G00 Z2.0000
G00 X79.6200 Y62.5000
G01 Z-1.8000
G01 Z0
G00 Z2.0000
G00 X79.5000 Y58.0000
G01 Z-1.8000
G01 Z0
G00 Z2.0000
G00 X72.0000 Y62.5000
G01 Z-1.8000
G01 Z0
G00 Z2.0000
G00 X74.5000 Y58.0000
G01 Z-1.8000
G01 Z0
G00 Z2.0000
G00 X71.3800 Y46.0000
G01 Z-1.8000
G01 Z0
G00 Z2.0000
G00 X71.3800 Y42.5000
G01 Z-1.8000
G01 Z0
G00 Z2.0000
G00 X56.0000 Y40.5000
G01 Z-1.8000
G01 Z0
G00 Z2.0000
G00 X53.4600 Y40.5000
G01 Z-1.8000
G01 Z0
G00 Z2.0000
G00 X50.2700 Y40.5000
G01 Z-1.8000
G01 Z0
G00 Z2.0000
G00 X47.7300 Y40.5000
G01 Z-1.8000
G01 Z0
G00 Z2.0000
G00 X44.5000 Y40.5000
G01 Z-1.8000
G01 Z0
G00 Z2.0000
M05
G00 Z70.50


