(G-CODE GENERATED BY FLATCAM v8.994 - www.flatcam.org - Version Date: 2020/11/7)

(Name: astro-control-PTH.drl_mill_slot_cnc)
(Type: G-code from Geometry)
(Units: MM)

(Created on Sunday, 28 December 2025 at 20:21)

(This preprocessor is the default preprocessor used by FlatCAM.)
(It is made to work with MACH3 compatible motion controllers.)

(TOOL DIAMETER: 1.0 mm)
(Feedrate_XY: 120.0 mm/min)
(Feedrate_Z: 60.0 mm/min)
(Feedrate rapids 1500.0 mm/min)

(Z_Cut: -1.8 mm)
(Z_Move: 2.0 mm)
(Z Start: None mm)
(Z End: 15.0 mm)
(X,Y End: None mm)
(Steps per circle: 64)
(Preprocessor Geometry: default)

(X range:   28.9999 ...  122.0001  mm)
(Y range:   17.9999 ...   71.0501  mm)

(Spindle Speed: 12000.0 RPM)
G21
G90
G94

G01 F120.00

M5
G00 Z15.0000
G00 X0.0000 Y0.0000
T1M6    
(MSG, Change to Tool Dia = 1.0000)
M0
G00 Z15.0000

M03 S12000.0
G01 F120.00
G00 X31.0000 Y18.0001
G01 F60.00
G01 Z-1.8000
G01 F120.00
G01 X31.0000 Y17.9999
G01 X28.9999 Y18.0000
G01 X29.0000 Y18.0001
G01 X31.0000 Y18.0001
G00 Z2.0000
G00 X34.7001 Y20.2000
G01 F60.00
G01 Z-1.8000
G01 F120.00
G01 X34.6999 Y20.2000
G01 X34.7000 Y22.2001
G01 X34.7001 Y22.2000
G01 X34.7001 Y20.2000
G00 Z2.0000
G00 X31.0000 Y24.2001
G01 F60.00
G01 Z-1.8000
G01 F120.00
G01 X31.0000 Y24.1999
G01 X28.9999 Y24.2000
G01 X29.0000 Y24.2001
G01 X31.0000 Y24.2001
G00 Z2.0000
G00 X98.2999 Y70.6500
G01 F60.00
G01 Z-1.8000
G01 F120.00
G01 X98.3010 Y70.6794
G01 X98.3029 Y70.6990
G01 X98.3076 Y70.7281
G01 X98.3144 Y70.7567
G01 X98.3233 Y70.7848
G01 X98.3342 Y70.8121
G01 X98.3471 Y70.8386
G01 X98.3620 Y70.8641
G01 X98.3729 Y70.8804
G01 X98.3907 Y70.9038
G01 X98.4102 Y70.9259
G01 X98.4313 Y70.9465
G01 X98.4538 Y70.9654
G01 X98.4777 Y70.9827
G01 X98.5028 Y70.9981
G01 X98.5201 Y71.0074
G01 X98.5469 Y71.0196
G01 X98.5745 Y71.0299
G01 X98.6028 Y71.0381
G01 X98.6316 Y71.0442
G01 X98.6608 Y71.0482
G01 X98.6902 Y71.0500
G01 X98.7098 Y71.0500
G01 X98.7392 Y71.0482
G01 X98.7684 Y71.0442
G01 X98.7972 Y71.0381
G01 X98.8255 Y71.0299
G01 X98.8440 Y71.0233
G01 X98.8711 Y71.0117
G01 X98.8972 Y70.9981
G01 X98.9223 Y70.9827
G01 X98.9383 Y70.9714
G01 X98.9538 Y70.9593
G01 X98.9687 Y70.9465
G01 X98.9829 Y70.9329
G01 X98.9965 Y70.9187
G01 X99.0154 Y70.8962
G01 X99.0271 Y70.8804
G01 X99.0380 Y70.8641
G01 X99.0481 Y70.8472
G01 X99.0574 Y70.8299
G01 X99.0658 Y70.8121
G01 X99.0733 Y70.7940
G01 X99.0799 Y70.7755
G01 X99.0856 Y70.7567
G01 X99.0924 Y70.7281
G01 X99.0958 Y70.7087
G01 X99.0982 Y70.6892
G01 X99.0996 Y70.6696
G01 X99.1001 Y70.6500
G01 X99.1001 Y70.3500
G01 X99.0990 Y70.3206
G01 X99.0971 Y70.3010
G01 X99.0942 Y70.2816
G01 X99.0881 Y70.2528
G01 X99.0799 Y70.2245
G01 X99.0733 Y70.2060
G01 X99.0617 Y70.1789
G01 X99.0481 Y70.1528
G01 X99.0327 Y70.1277
G01 X99.0214 Y70.1117
G01 X99.0093 Y70.0962
G01 X98.9965 Y70.0813
G01 X98.9829 Y70.0671
G01 X98.9687 Y70.0535
G01 X98.9538 Y70.0407
G01 X98.9383 Y70.0286
G01 X98.9223 Y70.0173
G01 X98.9057 Y70.0068
G01 X98.8886 Y69.9971
G01 X98.8711 Y69.9883
G01 X98.8531 Y69.9804
G01 X98.8348 Y69.9733
G01 X98.8161 Y69.9671
G01 X98.7972 Y69.9619
G01 X98.7781 Y69.9576
G01 X98.7587 Y69.9542
G01 X98.7392 Y69.9518
G01 X98.7196 Y69.9504
G01 X98.7000 Y69.9499
G01 X98.6804 Y69.9504
G01 X98.6608 Y69.9518
G01 X98.6413 Y69.9542
G01 X98.6219 Y69.9576
G01 X98.6028 Y69.9619
G01 X98.5839 Y69.9671
G01 X98.5652 Y69.9733
G01 X98.5469 Y69.9804
G01 X98.5289 Y69.9883
G01 X98.5114 Y69.9971
G01 X98.4943 Y70.0068
G01 X98.4777 Y70.0173
G01 X98.4617 Y70.0286
G01 X98.4387 Y70.0470
G01 X98.4241 Y70.0602
G01 X98.4102 Y70.0741
G01 X98.3970 Y70.0887
G01 X98.3846 Y70.1038
G01 X98.3673 Y70.1277
G01 X98.3519 Y70.1528
G01 X98.3426 Y70.1701
G01 X98.3342 Y70.1879
G01 X98.3267 Y70.2060
G01 X98.3201 Y70.2245
G01 X98.3119 Y70.2528
G01 X98.3058 Y70.2816
G01 X98.3029 Y70.3010
G01 X98.3010 Y70.3206
G01 X98.3000 Y70.3402
G01 X98.2999 Y70.6500
G00 Z2.0000
G00 X107.0999 Y70.6500
G01 F60.00
G01 Z-1.8000
G01 F120.00
G01 X107.1010 Y70.6794
G01 X107.1029 Y70.6990
G01 X107.1076 Y70.7281
G01 X107.1144 Y70.7567
G01 X107.1233 Y70.7848
G01 X107.1342 Y70.8121
G01 X107.1471 Y70.8386
G01 X107.1620 Y70.8641
G01 X107.1729 Y70.8804
G01 X107.1907 Y70.9038
G01 X107.2102 Y70.9259
G01 X107.2313 Y70.9465
G01 X107.2538 Y70.9654
G01 X107.2777 Y70.9827
G01 X107.3028 Y70.9981
G01 X107.3201 Y71.0074
G01 X107.3469 Y71.0196
G01 X107.3745 Y71.0299
G01 X107.4028 Y71.0381
G01 X107.4316 Y71.0442
G01 X107.4608 Y71.0482
G01 X107.4902 Y71.0500
G01 X107.5098 Y71.0500
G01 X107.5392 Y71.0482
G01 X107.5684 Y71.0442
G01 X107.5972 Y71.0381
G01 X107.6255 Y71.0299
G01 X107.6440 Y71.0233
G01 X107.6711 Y71.0117
G01 X107.6972 Y70.9981
G01 X107.7223 Y70.9827
G01 X107.7383 Y70.9714
G01 X107.7538 Y70.9593
G01 X107.7687 Y70.9465
G01 X107.7829 Y70.9329
G01 X107.7965 Y70.9187
G01 X107.8154 Y70.8962
G01 X107.8271 Y70.8804
G01 X107.8380 Y70.8641
G01 X107.8481 Y70.8472
G01 X107.8574 Y70.8299
G01 X107.8658 Y70.8121
G01 X107.8733 Y70.7940
G01 X107.8799 Y70.7755
G01 X107.8856 Y70.7567
G01 X107.8924 Y70.7281
G01 X107.8958 Y70.7087
G01 X107.8982 Y70.6892
G01 X107.8996 Y70.6696
G01 X107.9001 Y70.6500
G01 X107.9001 Y70.3500
G01 X107.8990 Y70.3206
G01 X107.8971 Y70.3010
G01 X107.8942 Y70.2816
G01 X107.8881 Y70.2528
G01 X107.8799 Y70.2245
G01 X107.8733 Y70.2060
G01 X107.8617 Y70.1789
G01 X107.8481 Y70.1528
G01 X107.8327 Y70.1277
G01 X107.8214 Y70.1117
G01 X107.8093 Y70.0962
G01 X107.7965 Y70.0813
G01 X107.7829 Y70.0671
G01 X107.7687 Y70.0535
G01 X107.7538 Y70.0407
G01 X107.7383 Y70.0286
G01 X107.7223 Y70.0173
G01 X107.7057 Y70.0068
G01 X107.6886 Y69.9971
G01 X107.6711 Y69.9883
G01 X107.6531 Y69.9804
G01 X107.6348 Y69.9733
G01 X107.6161 Y69.9671
G01 X107.5972 Y69.9619
G01 X107.5781 Y69.9576
G01 X107.5587 Y69.9542
G01 X107.5392 Y69.9518
G01 X107.5196 Y69.9504
G01 X107.5000 Y69.9499
G01 X107.4804 Y69.9504
G01 X107.4608 Y69.9518
G01 X107.4413 Y69.9542
G01 X107.4219 Y69.9576
G01 X107.4028 Y69.9619
G01 X107.3839 Y69.9671
G01 X107.3652 Y69.9733
G01 X107.3469 Y69.9804
G01 X107.3289 Y69.9883
G01 X107.3114 Y69.9971
G01 X107.2943 Y70.0068
G01 X107.2777 Y70.0173
G01 X107.2617 Y70.0286
G01 X107.2387 Y70.0470
G01 X107.2241 Y70.0602
G01 X107.2102 Y70.0741
G01 X107.1970 Y70.0887
G01 X107.1846 Y70.1038
G01 X107.1673 Y70.1277
G01 X107.1519 Y70.1528
G01 X107.1426 Y70.1701
G01 X107.1342 Y70.1879
G01 X107.1267 Y70.2060
G01 X107.1201 Y70.2245
G01 X107.1119 Y70.2528
G01 X107.1058 Y70.2816
G01 X107.1029 Y70.3010
G01 X107.1010 Y70.3206
G01 X107.1000 Y70.3402
G01 X107.0999 Y70.6500
G00 Z2.0000
G00 X119.7870 Y57.2001
G01 F60.00
G01 Z-1.8000
G01 F120.00
G01 X119.7870 Y57.1999
G01 X117.7869 Y57.2000
G01 X117.7870 Y57.2001
G01 X119.7870 Y57.2001
G00 Z2.0000
G00 X121.9869 Y53.5000
G01 F60.00
G01 Z-1.8000
G01 F120.00
G01 X121.9871 Y53.5000
G01 X121.9870 Y51.4999
G01 X121.9869 Y51.5000
G01 X121.9869 Y53.5000
G00 Z2.0000
G00 X115.7869 Y53.5000
G01 F60.00
G01 Z-1.8000
G01 F120.00
G01 X115.7871 Y53.5000
G01 X115.7870 Y51.4999
G01 X115.7869 Y51.5000
G01 X115.7869 Y53.5000
G00 Z2.0000
G00 X119.8000 Y41.7001
G01 F60.00
G01 Z-1.8000
G01 F120.00
G01 X119.8000 Y41.6999
G01 X117.7999 Y41.7000
G01 X117.8000 Y41.7001
G01 X119.8000 Y41.7001
G00 Z2.0000
G00 X121.9999 Y38.0000
G01 F60.00
G01 Z-1.8000
G01 F120.00
G01 X122.0001 Y38.0000
G01 X122.0000 Y35.9999
G01 X121.9999 Y36.0000
G01 X121.9999 Y38.0000
G00 Z2.0000
G00 X115.7999 Y38.0000
G01 F60.00
G01 Z-1.8000
G01 F120.00
G01 X115.8001 Y38.0000
G01 X115.8000 Y35.9999
G01 X115.7999 Y36.0000
G01 X115.7999 Y38.0000
G00 Z2.0000
G00 X119.8000 Y26.2001
G01 F60.00
G01 Z-1.8000
G01 F120.00
G01 X119.8000 Y26.1999
G01 X117.7999 Y26.2000
G01 X117.8000 Y26.2001
G01 X119.8000 Y26.2001
G00 Z2.0000
G00 X121.9999 Y22.5000
G01 F60.00
G01 Z-1.8000
G01 F120.00
G01 X122.0001 Y22.5000
G01 X122.0000 Y20.4999
G01 X121.9999 Y20.5000
G01 X121.9999 Y22.5000
G00 Z2.0000
G00 X115.7999 Y22.5000
G01 F60.00
G01 Z-1.8000
G01 F120.00
G01 X115.8001 Y22.5000
G01 X115.8000 Y20.4999
G01 X115.7999 Y20.5000
G01 X115.7999 Y22.5000
G00 Z2.0000
M05
G00 Z2.0000
G00 Z75.00


