(G-CODE GENERATED BY FLATCAM v8.994 - www.flatcam.org - Version Date: 2020/11/7)

(Name: astro-control-PTH-1.1_cnc)
(Type: G-code from Geometry)
(Units: MM)

(Created on Sunday, 28 December 2025 at 20:20)

(This preprocessor is the default preprocessor used by FlatCAM.)
(It is made to work with MACH3 compatible motion controllers.)


(TOOLS DIAMETER: )
(Tool: 1 -> Dia: 1.1)

(FEEDRATE Z: )
(Tool: 1 -> Feedrate: 300)

(FEEDRATE RAPIDS: )
(Tool: 1 -> Feedrate Rapids: 1500)

(Z_CUT: )
(Tool: 1 -> Z_Cut: -1.8)

(Tools Offset: )
(Tool: 1 -> Offset Z: 0.0)

(Z_MOVE: )
(Tool: 1 -> Z_Move: 2)

(Z Toolchange: 15.0 mm)
(X,Y Toolchange: 0.0000, 0.0000 mm)
(Z Start: None mm)
(Z End: 0.5 mm)
(X,Y End: None mm)
(Steps per circle: 64)
(Preprocessor Excellon: default)

(X range:   16.6300 ...  122.5571  mm)
(Y range:   11.2200 ...   73.8600  mm)

(Spindle Speed: 12000 RPM)
G21
G90
G94

G01 F300.00

M5
G00 Z15.0000
T1M6
(MSG, Change to Tool Dia = 1.1000 ||| Total drills for tool T1 = 76)
M0
G00 Z15.0000

G01 F300.00
M03 S12000
G00 X17.1800 Y43.2500
G01 Z-1.8000
G01 Z0
G00 Z2.0000
G00 X17.1800 Y47.7500
G01 Z-1.8000
G01 Z0
G00 Z2.0000
G00 X17.2500 Y51.2500
G01 Z-1.8000
G01 Z0
G00 Z2.0000
G00 X17.2500 Y55.7500
G01 Z-1.8000
G01 Z0
G00 Z2.0000
G00 X17.2500 Y59.5000
G01 Z-1.8000
G01 Z0
G00 Z2.0000
G00 X17.2500 Y64.0000
G01 Z-1.8000
G01 Z0
G00 Z2.0000
G00 X17.1800 Y67.8500
G01 Z-1.8000
G01 Z0
G00 Z2.0000
G00 X17.1800 Y72.3500
G01 Z-1.8000
G01 Z0
G00 Z2.0000
G00 X23.6800 Y72.3500
G01 Z-1.8000
G01 Z0
G00 Z2.0000
G00 X23.6800 Y67.8500
G01 Z-1.8000
G01 Z0
G00 Z2.0000
G00 X23.7500 Y64.0000
G01 Z-1.8000
G01 Z0
G00 Z2.0000
G00 X23.7500 Y59.5000
G01 Z-1.8000
G01 Z0
G00 Z2.0000
G00 X23.7500 Y55.7500
G01 Z-1.8000
G01 Z0
G00 Z2.0000
G00 X39.1900 Y71.6300
G01 Z-1.8000
G01 Z0
G00 Z2.0000
G00 X41.7300 Y71.6300
G01 Z-1.8000
G01 Z0
G00 Z2.0000
G00 X44.2700 Y71.6300
G01 Z-1.8000
G01 Z0
G00 Z2.0000
G00 X46.8100 Y71.6300
G01 Z-1.8000
G01 Z0
G00 Z2.0000
G00 X62.5000 Y67.6000
G01 Z-1.8000
G01 Z0
G00 Z2.0000
G00 X85.3600 Y67.6000
G01 Z-1.8000
G01 Z0
G00 Z2.0000
G00 X100.6000 Y63.5000
G01 Z-1.8000
G01 Z0
G00 Z2.0000
G00 X103.1000 Y63.5000
G01 Z-1.8000
G01 Z0
G00 Z2.0000
G00 X105.6000 Y63.5000
G01 Z-1.8000
G01 Z0
G00 Z2.0000
G00 X116.2700 Y73.3100
G01 Z-1.8000
G01 Z0
G00 Z2.0000
G00 X116.2700 Y70.7700
G01 Z-1.8000
G01 Z0
G00 Z2.0000
G00 X116.2700 Y68.2300
G01 Z-1.8000
G01 Z0
G00 Z2.0000
G00 X116.2700 Y65.6900
G01 Z-1.8000
G01 Z0
G00 Z2.0000
G00 X110.4500 Y54.4600
G01 Z-1.8000
G01 Z0
G00 Z2.0000
G00 X110.4500 Y51.9200
G01 Z-1.8000
G01 Z0
G00 Z2.0000
G00 X110.4500 Y49.3800
G01 Z-1.8000
G01 Z0
G00 Z2.0000
G00 X110.4630 Y39.0100
G01 Z-1.8000
G01 Z0
G00 Z2.0000
G00 X110.4630 Y36.4700
G01 Z-1.8000
G01 Z0
G00 Z2.0000
G00 X110.4630 Y33.9300
G01 Z-1.8000
G01 Z0
G00 Z2.0000
G00 X110.5120 Y23.1000
G01 Z-1.8000
G01 Z0
G00 Z2.0000
G00 X110.5120 Y20.5600
G01 Z-1.8000
G01 Z0
G00 Z2.0000
G00 X110.5120 Y18.0200
G01 Z-1.8000
G01 Z0
G00 Z2.0000
G00 X85.3600 Y29.5000
G01 Z-1.8000
G01 Z0
G00 Z2.0000
G00 X85.3600 Y32.0400
G01 Z-1.8000
G01 Z0
G00 Z2.0000
G00 X85.3600 Y34.5800
G01 Z-1.8000
G01 Z0
G00 Z2.0000
G00 X85.3600 Y37.1200
G01 Z-1.8000
G01 Z0
G00 Z2.0000
G00 X85.3600 Y39.6600
G01 Z-1.8000
G01 Z0
G00 Z2.0000
G00 X85.3600 Y42.2000
G01 Z-1.8000
G01 Z0
G00 Z2.0000
G00 X85.3600 Y44.7400
G01 Z-1.8000
G01 Z0
G00 Z2.0000
G00 X85.3600 Y47.2800
G01 Z-1.8000
G01 Z0
G00 Z2.0000
G00 X85.3600 Y49.8200
G01 Z-1.8000
G01 Z0
G00 Z2.0000
G00 X85.3600 Y52.3600
G01 Z-1.8000
G01 Z0
G00 Z2.0000
G00 X85.3600 Y54.9000
G01 Z-1.8000
G01 Z0
G00 Z2.0000
G00 X85.3600 Y57.4400
G01 Z-1.8000
G01 Z0
G00 Z2.0000
G00 X85.3600 Y59.9800
G01 Z-1.8000
G01 Z0
G00 Z2.0000
G00 X85.3600 Y62.5200
G01 Z-1.8000
G01 Z0
G00 Z2.0000
G00 X85.3600 Y65.0600
G01 Z-1.8000
G01 Z0
G00 Z2.0000
G00 X62.5000 Y65.0600
G01 Z-1.8000
G01 Z0
G00 Z2.0000
G00 X62.5000 Y62.5200
G01 Z-1.8000
G01 Z0
G00 Z2.0000
G00 X62.5000 Y59.9800
G01 Z-1.8000
G01 Z0
G00 Z2.0000
G00 X62.5000 Y57.4400
G01 Z-1.8000
G01 Z0
G00 Z2.0000
G00 X62.5000 Y54.9000
G01 Z-1.8000
G01 Z0
G00 Z2.0000
G00 X62.5000 Y52.3600
G01 Z-1.8000
G01 Z0
G00 Z2.0000
G00 X62.5000 Y49.8200
G01 Z-1.8000
G01 Z0
G00 Z2.0000
G00 X62.5000 Y47.2800
G01 Z-1.8000
G01 Z0
G00 Z2.0000
G00 X62.5000 Y44.7400
G01 Z-1.8000
G01 Z0
G00 Z2.0000
G00 X62.5000 Y42.2000
G01 Z-1.8000
G01 Z0
G00 Z2.0000
G00 X62.5000 Y39.6600
G01 Z-1.8000
G01 Z0
G00 Z2.0000
G00 X62.5000 Y37.1200
G01 Z-1.8000
G01 Z0
G00 Z2.0000
G00 X62.5000 Y34.5800
G01 Z-1.8000
G01 Z0
G00 Z2.0000
G00 X62.5000 Y32.0400
G01 Z-1.8000
G01 Z0
G00 Z2.0000
G00 X62.5000 Y29.5000
G01 Z-1.8000
G01 Z0
G00 Z2.0000
G00 X58.7300 Y26.2300
G01 Z-1.8000
G01 Z0
G00 Z2.0000
G00 X58.7300 Y23.6900
G01 Z-1.8000
G01 Z0
G00 Z2.0000
G00 X58.7300 Y14.3100
G01 Z-1.8000
G01 Z0
G00 Z2.0000
G00 X58.7300 Y11.7700
G01 Z-1.8000
G01 Z0
G00 Z2.0000
G00 X39.2700 Y11.7700
G01 Z-1.8000
G01 Z0
G00 Z2.0000
G00 X39.2700 Y14.3100
G01 Z-1.8000
G01 Z0
G00 Z2.0000
G00 X39.2700 Y23.6900
G01 Z-1.8000
G01 Z0
G00 Z2.0000
G00 X39.2700 Y26.2300
G01 Z-1.8000
G01 Z0
G00 Z2.0000
G00 X23.6800 Y43.2500
G01 Z-1.8000
G01 Z0
G00 Z2.0000
G00 X23.6800 Y47.7500
G01 Z-1.8000
G01 Z0
G00 Z2.0000
G00 X23.7500 Y51.2500
G01 Z-1.8000
G01 Z0
G00 Z2.0000
M05
G00 Z70.50


