(G-CODE GENERATED BY FLATCAM v8.994 - www.flatcam.org - Version Date: 2020/11/7)

(Name: astro-control-Edge_Cuts.gbr_cutout_cnc)
(Type: G-code from Geometry)
(Units: MM)

(Created on Monday, 29 December 2025 at 09:41)

(This preprocessor is the default preprocessor used by FlatCAM.)
(It is made to work with MACH3 compatible motion controllers.)

(TOOL DIAMETER: 1.0 mm)
(Feedrate_XY: 120.0 mm/min)
(Feedrate_Z: 60.0 mm/min)
(Feedrate rapids 1500.0 mm/min)

(Z_Cut: -1.8 mm)
(DepthPerCut: 0.6 mm <=>3 passes)
(Z_Move: 2.0 mm)
(Z Start: None mm)
(Z End: 15.0 mm)
(X,Y End: None mm)
(Steps per circle: 64)
(Preprocessor Geometry: default)

(X range:    9.3750 ...  130.6250  mm)
(Y range:    9.3750 ...   80.6250  mm)

(Spindle Speed: 12000.0 RPM)
G21
G90
G94

G01 F120.00

M5
G00 Z15.0000
G00 X0.0000 Y0.0000
T1M6    
(MSG, Change to Tool Dia = 1.0000)
M0
G00 Z15.0000

M03 S12000.0
G01 F120.00
G00 X9.3750 Y44.1000
G01 F60.00
G01 Z-0.6000
G01 F120.00
G01 X9.3750 Y9.9750
G01 X9.3779 Y9.9162
G01 X9.3865 Y9.8579
G01 X9.4008 Y9.8008
G01 X9.4207 Y9.7454
G01 X9.4458 Y9.6921
G01 X9.4761 Y9.6416
G01 X9.5112 Y9.5944
G01 X9.5507 Y9.5507
G01 X9.5944 Y9.5112
G01 X9.6416 Y9.4761
G01 X9.6921 Y9.4458
G01 X9.7454 Y9.4207
G01 X9.8008 Y9.4008
G01 X9.8579 Y9.3865
G01 X9.9162 Y9.3779
G01 X9.9750 Y9.3750
G01 X69.1000 Y9.3750
G00 X69.1000 Y9.3750
G01 F60.00
G01 Z-1.2000
G01 F120.00
G01 X9.9750 Y9.3750
G01 X9.9162 Y9.3779
G01 X9.8579 Y9.3865
G01 X9.8008 Y9.4008
G01 X9.7454 Y9.4207
G01 X9.6921 Y9.4458
G01 X9.6416 Y9.4761
G01 X9.5944 Y9.5112
G01 X9.5507 Y9.5507
G01 X9.5112 Y9.5944
G01 X9.4761 Y9.6416
G01 X9.4458 Y9.6921
G01 X9.4207 Y9.7454
G01 X9.4008 Y9.8008
G01 X9.3865 Y9.8579
G01 X9.3779 Y9.9162
G01 X9.3750 Y9.9750
G01 X9.3750 Y44.1000
G00 X9.3750 Y44.1000
G01 F60.00
G01 Z-1.8000
G01 F120.00
G01 X9.3750 Y9.9750
G01 X9.3779 Y9.9162
G01 X9.3865 Y9.8579
G01 X9.4008 Y9.8008
G01 X9.4207 Y9.7454
G01 X9.4458 Y9.6921
G01 X9.4761 Y9.6416
G01 X9.5112 Y9.5944
G01 X9.5507 Y9.5507
G01 X9.5944 Y9.5112
G01 X9.6416 Y9.4761
G01 X9.6921 Y9.4458
G01 X9.7454 Y9.4207
G01 X9.8008 Y9.4008
G01 X9.8579 Y9.3865
G01 X9.9162 Y9.3779
G01 X9.9750 Y9.3750
G01 X69.1000 Y9.3750
G00 Z2.0000
G00 X9.3750 Y46.1000
G01 F60.00
G01 Z-0.6000
G01 F120.00
G01 X9.3750 Y80.0250
G01 X9.3779 Y80.0838
G01 X9.3865 Y80.1421
G01 X9.4008 Y80.1992
G01 X9.4207 Y80.2546
G01 X9.4458 Y80.3079
G01 X9.4761 Y80.3584
G01 X9.5112 Y80.4056
G01 X9.5507 Y80.4493
G01 X9.5944 Y80.4888
G01 X9.6416 Y80.5239
G01 X9.6921 Y80.5542
G01 X9.7454 Y80.5793
G01 X9.8008 Y80.5992
G01 X9.8579 Y80.6135
G01 X9.9162 Y80.6221
G01 X9.9750 Y80.6250
G01 X69.1000 Y80.6250
G00 X69.1000 Y80.6250
G01 F60.00
G01 Z-1.2000
G01 F120.00
G01 X9.9750 Y80.6250
G01 X9.9162 Y80.6221
G01 X9.8579 Y80.6135
G01 X9.8008 Y80.5992
G01 X9.7454 Y80.5793
G01 X9.6921 Y80.5542
G01 X9.6416 Y80.5239
G01 X9.5944 Y80.4888
G01 X9.5507 Y80.4493
G01 X9.5112 Y80.4056
G01 X9.4761 Y80.3584
G01 X9.4458 Y80.3079
G01 X9.4207 Y80.2546
G01 X9.4008 Y80.1992
G01 X9.3865 Y80.1421
G01 X9.3779 Y80.0838
G01 X9.3750 Y80.0250
G01 X9.3750 Y46.1000
G00 X9.3750 Y46.1000
G01 F60.00
G01 Z-1.8000
G01 F120.00
G01 X9.3750 Y80.0250
G01 X9.3779 Y80.0838
G01 X9.3865 Y80.1421
G01 X9.4008 Y80.1992
G01 X9.4207 Y80.2546
G01 X9.4458 Y80.3079
G01 X9.4761 Y80.3584
G01 X9.5112 Y80.4056
G01 X9.5507 Y80.4493
G01 X9.5944 Y80.4888
G01 X9.6416 Y80.5239
G01 X9.6921 Y80.5542
G01 X9.7454 Y80.5793
G01 X9.8008 Y80.5992
G01 X9.8579 Y80.6135
G01 X9.9162 Y80.6221
G01 X9.9750 Y80.6250
G01 X69.1000 Y80.6250
G00 Z2.0000
G00 X71.1000 Y80.6250
G01 F60.00
G01 Z-0.6000
G01 F120.00
G01 X130.0250 Y80.6250
G01 X130.0838 Y80.6221
G01 X130.1421 Y80.6135
G01 X130.1992 Y80.5992
G01 X130.2546 Y80.5793
G01 X130.3079 Y80.5542
G01 X130.3584 Y80.5239
G01 X130.4056 Y80.4888
G01 X130.4493 Y80.4493
G01 X130.4888 Y80.4056
G01 X130.5239 Y80.3584
G01 X130.5542 Y80.3079
G01 X130.5793 Y80.2546
G01 X130.5992 Y80.1992
G01 X130.6135 Y80.1421
G01 X130.6221 Y80.0838
G01 X130.6250 Y80.0250
G01 X130.6250 Y46.1000
G00 X130.6250 Y46.1000
G01 F60.00
G01 Z-1.2000
G01 F120.00
G01 X130.6250 Y80.0250
G01 X130.6221 Y80.0838
G01 X130.6135 Y80.1421
G01 X130.5992 Y80.1992
G01 X130.5793 Y80.2546
G01 X130.5542 Y80.3079
G01 X130.5239 Y80.3584
G01 X130.4888 Y80.4056
G01 X130.4493 Y80.4493
G01 X130.4056 Y80.4888
G01 X130.3584 Y80.5239
G01 X130.3079 Y80.5542
G01 X130.2546 Y80.5793
G01 X130.1992 Y80.5992
G01 X130.1421 Y80.6135
G01 X130.0838 Y80.6221
G01 X130.0250 Y80.6250
G01 X71.1000 Y80.6250
G00 X71.1000 Y80.6250
G01 F60.00
G01 Z-1.8000
G01 F120.00
G01 X130.0250 Y80.6250
G01 X130.0838 Y80.6221
G01 X130.1421 Y80.6135
G01 X130.1992 Y80.5992
G01 X130.2546 Y80.5793
G01 X130.3079 Y80.5542
G01 X130.3584 Y80.5239
G01 X130.4056 Y80.4888
G01 X130.4493 Y80.4493
G01 X130.4888 Y80.4056
G01 X130.5239 Y80.3584
G01 X130.5542 Y80.3079
G01 X130.5793 Y80.2546
G01 X130.5992 Y80.1992
G01 X130.6135 Y80.1421
G01 X130.6221 Y80.0838
G01 X130.6250 Y80.0250
G01 X130.6250 Y46.1000
G00 Z2.0000
G00 X130.6250 Y44.1000
G01 F60.00
G01 Z-0.6000
G01 F120.00
G01 X130.6250 Y9.9750
G01 X130.6221 Y9.9162
G01 X130.6135 Y9.8579
G01 X130.5992 Y9.8008
G01 X130.5793 Y9.7454
G01 X130.5542 Y9.6921
G01 X130.5239 Y9.6416
G01 X130.4888 Y9.5944
G01 X130.4493 Y9.5507
G01 X130.4056 Y9.5112
G01 X130.3584 Y9.4761
G01 X130.3079 Y9.4458
G01 X130.2546 Y9.4207
G01 X130.1992 Y9.4008
G01 X130.1421 Y9.3865
G01 X130.0838 Y9.3779
G01 X130.0250 Y9.3750
G01 X71.1000 Y9.3750
G00 X71.1000 Y9.3750
G01 F60.00
G01 Z-1.2000
G01 F120.00
G01 X130.0250 Y9.3750
G01 X130.0838 Y9.3779
G01 X130.1421 Y9.3865
G01 X130.1992 Y9.4008
G01 X130.2546 Y9.4207
G01 X130.3079 Y9.4458
G01 X130.3584 Y9.4761
G01 X130.4056 Y9.5112
G01 X130.4493 Y9.5507
G01 X130.4888 Y9.5944
G01 X130.5239 Y9.6416
G01 X130.5542 Y9.6921
G01 X130.5793 Y9.7454
G01 X130.5992 Y9.8008
G01 X130.6135 Y9.8579
G01 X130.6221 Y9.9162
G01 X130.6250 Y9.9750
G01 X130.6250 Y44.1000
G00 X130.6250 Y44.1000
G01 F60.00
G01 Z-1.8000
G01 F120.00
G01 X130.6250 Y9.9750
G01 X130.6221 Y9.9162
G01 X130.6135 Y9.8579
G01 X130.5992 Y9.8008
G01 X130.5793 Y9.7454
G01 X130.5542 Y9.6921
G01 X130.5239 Y9.6416
G01 X130.4888 Y9.5944
G01 X130.4493 Y9.5507
G01 X130.4056 Y9.5112
G01 X130.3584 Y9.4761
G01 X130.3079 Y9.4458
G01 X130.2546 Y9.4207
G01 X130.1992 Y9.4008
G01 X130.1421 Y9.3865
G01 X130.0838 Y9.3779
G01 X130.0250 Y9.3750
G01 X71.1000 Y9.3750
G00 Z2.0000
M05
G00 Z2.0000
G00 Z75.00


