(G-CODE GENERATED BY FLATCAM v8.994 - www.flatcam.org - Version Date: 2020/11/7)

(Name: astro-control-B_Cu.gbr_iso_combined_cnc)
(Type: G-code from Geometry)
(Units: MM)

(Created on Monday, 29 December 2025 at 10:54)

(This preprocessor is the default preprocessor used by FlatCAM.)
(It is made to work with MACH3 compatible motion controllers.)

(TOOL DIAMETER: 0.2155 mm)
(Feedrate_XY: 120.0 mm/min)
(Feedrate_Z: 60.0 mm/min)
(Feedrate rapids 1500.0 mm/min)

(Z_Cut: -0.1 mm)
(Z_Move: 2.0 mm)
(Z Start: None mm)
(Z End: 15.0 mm)
(X,Y End: None mm)
(Steps per circle: 64)
(Preprocessor Geometry: default)

(X range:   10.0480 ...  129.9520  mm)
(Y range:   10.0480 ...   79.9520  mm)

(Spindle Speed: 12000.0 RPM)
G21
G90
G94

G01 F120.00

M5
G00 Z15.0000
G00 X0.0000 Y0.0000
T1M6    
(MSG, Change to Tool Dia = 0.2155)
M0
G00 Z15.0000

M03 S12000.0
G01 F120.00
G00 X10.0480 Y10.6245
G01 F60.00
G01 Z-0.1000
G01 F120.00
G01 X10.0485 Y10.6030
G01 X10.0491 Y10.5922
G01 X10.0512 Y10.5708
G01 X10.0542 Y10.5495
G01 X10.0583 Y10.5283
G01 X10.0634 Y10.5074
G01 X10.0663 Y10.4970
G01 X10.0860 Y10.4300
G01 X10.0928 Y10.4086
G01 X10.1008 Y10.3875
G01 X10.1097 Y10.3669
G01 X10.1197 Y10.3468
G01 X10.1306 Y10.3271
G01 X10.1425 Y10.3081
G01 X10.1554 Y10.2896
G01 X10.1691 Y10.2719
G01 X10.1837 Y10.2548
G01 X10.1992 Y10.2385
G01 X10.2072 Y10.2306
G01 X10.2238 Y10.2154
G01 X10.2766 Y10.1697
G01 X10.2853 Y10.1624
G01 X10.3031 Y10.1485
G01 X10.3216 Y10.1354
G01 X10.3407 Y10.1233
G01 X10.3604 Y10.1122
G01 X10.3806 Y10.1021
G01 X10.3909 Y10.0974
G01 X10.4118 Y10.0888
G01 X10.4224 Y10.0849
G01 X10.4439 Y10.0779
G01 X10.4658 Y10.0720
G01 X10.5283 Y10.0583
G01 X10.5495 Y10.0542
G01 X10.5601 Y10.0526
G01 X10.5815 Y10.0500
G01 X10.6030 Y10.0485
G01 X10.6245 Y10.0480
G01 X38.0710 Y10.0481
G01 X38.0925 Y10.0491
G01 X38.1140 Y10.0512
G01 X38.1353 Y10.0542
G01 X38.1564 Y10.0583
G01 X38.1669 Y10.0607
G01 X38.1877 Y10.0663
G01 X38.2548 Y10.0860
G01 X38.2762 Y10.0928
G01 X38.2972 Y10.1008
G01 X38.3178 Y10.1097
G01 X38.3380 Y10.1197
G01 X38.3479 Y10.1250
G01 X38.3672 Y10.1365
G01 X38.3860 Y10.1489
G01 X38.3951 Y10.1554
G01 X38.4129 Y10.1691
G01 X38.4300 Y10.1837
G01 X38.4463 Y10.1992
G01 X38.4542 Y10.2072
G01 X38.4693 Y10.2238
G01 X38.5223 Y10.2852
G01 X38.5293 Y10.2940
G01 X38.5428 Y10.3120
G01 X38.5553 Y10.3307
G01 X38.5668 Y10.3500
G01 X38.5774 Y10.3698
G01 X38.5870 Y10.3901
G01 X38.5956 Y10.4109
G01 X38.6031 Y10.4321
G01 X38.6095 Y10.4536
G01 X38.6149 Y10.4754
G01 X38.6190 Y10.4960
G01 X38.6668 Y10.4790
G01 X38.6880 Y10.4726
G01 X38.7845 Y10.4483
G01 X38.7953 Y10.4457
G01 X38.8170 Y10.4414
G01 X38.9154 Y10.4267
G01 X38.9374 Y10.4240
G01 X38.9596 Y10.4223
G01 X39.0478 Y10.4180
G01 X39.0700 Y10.4175
G01 X39.4700 Y10.4175
G01 X39.4922 Y10.4180
G01 X39.5804 Y10.4223
G01 X39.6026 Y10.4240
G01 X39.6246 Y10.4267
G01 X39.7120 Y10.4396
G01 X39.7339 Y10.4434
G01 X39.7447 Y10.4457
G01 X39.8520 Y10.4726
G01 X39.8732 Y10.4790
G01 X39.9193 Y10.4954
G01 X39.9220 Y10.4822
G01 X39.9274 Y10.4604
G01 X39.9340 Y10.4389
G01 X39.9416 Y10.4178
G01 X39.9502 Y10.3970
G01 X39.9598 Y10.3767
G01 X39.9705 Y10.3569
G01 X39.9821 Y10.3377
G01 X39.9883 Y10.3283
G01 X40.0013 Y10.3100
G01 X40.0432 Y10.2540
G01 X40.0571 Y10.2364
G01 X40.0719 Y10.2194
G01 X40.0874 Y10.2032
G01 X40.1038 Y10.1879
G01 X40.1209 Y10.1733
G01 X40.1388 Y10.1596
G01 X40.1573 Y10.1468
G01 X40.1763 Y10.1350
G01 X40.1960 Y10.1241
G01 X40.2060 Y10.1190
G01 X40.2264 Y10.1096
G01 X40.2368 Y10.1053
G01 X40.3233 Y10.0730
G01 X40.3339 Y10.0695
G01 X40.3554 Y10.0633
G01 X40.3771 Y10.0581
G01 X40.3991 Y10.0540
G01 X40.4102 Y10.0524
G01 X40.4324 Y10.0499
G01 X40.4548 Y10.0486
G01 X40.4798 Y10.0480
G01 X57.5310 Y10.0481
G01 X57.5525 Y10.0491
G01 X57.5740 Y10.0512
G01 X57.5953 Y10.0542
G01 X57.6164 Y10.0583
G01 X57.6374 Y10.0634
G01 X57.6477 Y10.0663
G01 X57.7148 Y10.0860
G01 X57.7362 Y10.0928
G01 X57.7572 Y10.1008
G01 X57.7676 Y10.1051
G01 X57.7880 Y10.1146
G01 X57.8079 Y10.1250
G01 X57.8272 Y10.1365
G01 X57.8460 Y10.1489
G01 X57.8641 Y10.1622
G01 X57.8729 Y10.1691
G01 X57.8900 Y10.1837
G01 X57.9063 Y10.1992
G01 X57.9218 Y10.2154
G01 X57.9293 Y10.2238
G01 X57.9823 Y10.2852
G01 X57.9893 Y10.2940
G01 X58.0028 Y10.3120
G01 X58.0153 Y10.3307
G01 X58.0268 Y10.3500
G01 X58.0374 Y10.3698
G01 X58.0470 Y10.3901
G01 X58.0556 Y10.4109
G01 X58.0631 Y10.4321
G01 X58.0695 Y10.4536
G01 X58.0749 Y10.4754
G01 X58.0790 Y10.4960
G01 X58.1268 Y10.4790
G01 X58.1480 Y10.4726
G01 X58.2445 Y10.4483
G01 X58.2553 Y10.4457
G01 X58.2770 Y10.4414
G01 X58.3754 Y10.4267
G01 X58.3974 Y10.4240
G01 X58.4196 Y10.4223
G01 X58.5078 Y10.4180
G01 X58.5300 Y10.4175
G01 X58.9300 Y10.4175
G01 X58.9522 Y10.4180
G01 X59.0404 Y10.4223
G01 X59.0626 Y10.4240
G01 X59.0846 Y10.4267
G01 X59.1720 Y10.4396
G01 X59.1939 Y10.4434
G01 X59.2047 Y10.4457
G01 X59.3120 Y10.4726
G01 X59.3332 Y10.4790
G01 X59.3793 Y10.4954
G01 X59.3820 Y10.4822
G01 X59.3874 Y10.4604
G01 X59.3940 Y10.4389
G01 X59.4016 Y10.4178
G01 X59.4102 Y10.3970
G01 X59.4198 Y10.3767
G01 X59.4305 Y10.3569
G01 X59.4421 Y10.3377
G01 X59.4483 Y10.3283
G01 X59.4613 Y10.3100
G01 X59.5032 Y10.2540
G01 X59.5171 Y10.2364
G01 X59.5319 Y10.2194
G01 X59.5474 Y10.2032
G01 X59.5638 Y10.1879
G01 X59.5809 Y10.1733
G01 X59.5988 Y10.1596
G01 X59.6079 Y10.1531
G01 X59.6267 Y10.1408
G01 X59.6461 Y10.1294
G01 X59.6660 Y10.1190
G01 X59.6762 Y10.1142
G01 X59.6968 Y10.1053
G01 X59.7833 Y10.0730
G01 X59.8046 Y10.0662
G01 X59.8262 Y10.0605
G01 X59.8371 Y10.0581
G01 X59.8591 Y10.0540
G01 X59.8702 Y10.0524
G01 X59.8924 Y10.0499
G01 X59.9148 Y10.0486
G01 X59.9398 Y10.0480
G01 X129.3755 Y10.0480
G01 X129.3863 Y10.0481
G01 X129.4078 Y10.0491
G01 X129.4292 Y10.0512
G01 X129.4505 Y10.0542
G01 X129.4611 Y10.0561
G01 X129.4822 Y10.0607
G01 X129.4926 Y10.0634
G01 X129.5700 Y10.0860
G01 X129.5808 Y10.0893
G01 X129.6020 Y10.0967
G01 X129.6228 Y10.1051
G01 X129.6432 Y10.1146
G01 X129.6532 Y10.1197
G01 X129.6729 Y10.1306
G01 X129.6825 Y10.1365
G01 X129.7012 Y10.1489
G01 X129.7104 Y10.1554
G01 X129.7281 Y10.1691
G01 X129.7452 Y10.1837
G01 X129.7535 Y10.1914
G01 X129.7694 Y10.2072
G01 X129.7846 Y10.2238
G01 X129.8303 Y10.2766
G01 X129.8447 Y10.2941
G01 X129.8582 Y10.3122
G01 X129.8646 Y10.3216
G01 X129.8767 Y10.3407
G01 X129.8823 Y10.3505
G01 X129.8930 Y10.3704
G01 X129.8979 Y10.3806
G01 X129.9070 Y10.4013
G01 X129.9151 Y10.4224
G01 X129.9187 Y10.4331
G01 X129.9251 Y10.4548
G01 X129.9280 Y10.4658
G01 X129.9417 Y10.5283
G01 X129.9458 Y10.5495
G01 X129.9474 Y10.5601
G01 X129.9488 Y10.5708
G01 X129.9509 Y10.5922
G01 X129.9519 Y10.6137
G01 X129.9520 Y10.6245
G01 X129.9520 Y79.3755
G01 X129.9515 Y79.3970
G01 X129.9500 Y79.4185
G01 X129.9488 Y79.4292
G01 X129.9458 Y79.4505
G01 X129.9439 Y79.4611
G01 X129.9417 Y79.4717
G01 X129.9366 Y79.4926
G01 X129.9140 Y79.5700
G01 X129.9107 Y79.5808
G01 X129.9033 Y79.6020
G01 X129.8949 Y79.6228
G01 X129.8854 Y79.6432
G01 X129.8803 Y79.6532
G01 X129.8694 Y79.6729
G01 X129.8635 Y79.6825
G01 X129.8511 Y79.7012
G01 X129.8446 Y79.7104
G01 X129.8309 Y79.7281
G01 X129.8163 Y79.7452
G01 X129.8008 Y79.7615
G01 X129.7928 Y79.7694
G01 X129.7762 Y79.7846
G01 X129.7234 Y79.8303
G01 X129.7059 Y79.8447
G01 X129.6969 Y79.8515
G01 X129.6784 Y79.8646
G01 X129.6593 Y79.8767
G01 X129.6495 Y79.8823
G01 X129.6396 Y79.8878
G01 X129.6194 Y79.8979
G01 X129.5987 Y79.9070
G01 X129.5882 Y79.9112
G01 X129.5669 Y79.9187
G01 X129.5452 Y79.9251
G01 X129.5342 Y79.9280
G01 X129.4717 Y79.9417
G01 X129.4611 Y79.9439
G01 X129.4399 Y79.9474
G01 X129.4185 Y79.9500
G01 X129.4078 Y79.9509
G01 X129.3970 Y79.9515
G01 X129.3755 Y79.9520
G01 X10.6245 Y79.9520
G01 X10.6030 Y79.9515
G01 X10.5922 Y79.9509
G01 X10.5708 Y79.9488
G01 X10.5601 Y79.9474
G01 X10.5389 Y79.9439
G01 X10.5283 Y79.9417
G01 X10.5074 Y79.9366
G01 X10.4300 Y79.9140
G01 X10.4192 Y79.9107
G01 X10.3980 Y79.9033
G01 X10.3875 Y79.8992
G01 X10.3669 Y79.8903
G01 X10.3468 Y79.8803
G01 X10.3271 Y79.8694
G01 X10.3081 Y79.8575
G01 X10.2896 Y79.8446
G01 X10.2807 Y79.8378
G01 X10.2719 Y79.8309
G01 X10.2548 Y79.8163
G01 X10.2385 Y79.8008
G01 X10.2306 Y79.7928
G01 X10.2154 Y79.7762
G01 X10.1697 Y79.7234
G01 X10.1553 Y79.7059
G01 X10.1485 Y79.6969
G01 X10.1354 Y79.6784
G01 X10.1293 Y79.6690
G01 X10.1177 Y79.6495
G01 X10.1122 Y79.6396
G01 X10.1021 Y79.6194
G01 X10.0974 Y79.6091
G01 X10.0888 Y79.5882
G01 X10.0813 Y79.5669
G01 X10.0779 Y79.5561
G01 X10.0720 Y79.5342
G01 X10.0583 Y79.4717
G01 X10.0561 Y79.4611
G01 X10.0526 Y79.4399
G01 X10.0500 Y79.4185
G01 X10.0491 Y79.4078
G01 X10.0485 Y79.3970
G01 X10.0480 Y79.3755
G01 X10.0480 Y10.6245
G00 Z2.0000
G00 X10.2204 Y10.6245
G01 F60.00
G01 Z-0.1000
G01 F120.00
G01 X10.2211 Y10.6045
G01 X10.2223 Y10.5912
G01 X10.2242 Y10.5780
G01 X10.2268 Y10.5649
G01 X10.2317 Y10.5456
G01 X10.2514 Y10.4785
G01 X10.2580 Y10.4587
G01 X10.2632 Y10.4458
G01 X10.2691 Y10.4332
G01 X10.2756 Y10.4209
G01 X10.2864 Y10.4031
G01 X10.2944 Y10.3917
G01 X10.3029 Y10.3807
G01 X10.3119 Y10.3701
G01 X10.3215 Y10.3600
G01 X10.3367 Y10.3457
G01 X10.3895 Y10.3000
G01 X10.4003 Y10.2911
G01 X10.4173 Y10.2788
G01 X10.4292 Y10.2713
G01 X10.4414 Y10.2644
G01 X10.4539 Y10.2581
G01 X10.4667 Y10.2525
G01 X10.4798 Y10.2475
G01 X10.4998 Y10.2413
G01 X10.5134 Y10.2380
G01 X10.5649 Y10.2268
G01 X10.5780 Y10.2242
G01 X10.5912 Y10.2223
G01 X10.6045 Y10.2211
G01 X10.6245 Y10.2204
G01 X38.0669 Y10.2204
G01 X38.0869 Y10.2216
G01 X38.1067 Y10.2242
G01 X38.1263 Y10.2282
G01 X38.1392 Y10.2317
G01 X38.2062 Y10.2514
G01 X38.2195 Y10.2556
G01 X38.2325 Y10.2605
G01 X38.2452 Y10.2661
G01 X38.2577 Y10.2722
G01 X38.2699 Y10.2790
G01 X38.2874 Y10.2903
G01 X38.3041 Y10.3029
G01 X38.3198 Y10.3166
G01 X38.3296 Y10.3264
G01 X38.3390 Y10.3367
G01 X38.3892 Y10.3948
G01 X38.4019 Y10.4114
G01 X38.4096 Y10.4230
G01 X38.4202 Y10.4410
G01 X38.4293 Y10.4598
G01 X38.4346 Y10.4726
G01 X38.4393 Y10.4858
G01 X38.4450 Y10.5058
G01 X38.4493 Y10.5262
G01 X38.4603 Y10.6023
G01 X38.4619 Y10.6161
G01 X38.4629 Y10.6300
G01 X38.4630 Y10.6508
G01 X38.4616 Y10.6717
G01 X38.4598 Y10.6855
G01 X38.4558 Y10.7059
G01 X38.4503 Y10.7261
G01 X38.4458 Y10.7392
G01 X38.4406 Y10.7522
G01 X38.4279 Y10.7802
G01 X38.5017 Y10.7360
G01 X38.5137 Y10.7292
G01 X38.5260 Y10.7230
G01 X38.6058 Y10.6853
G01 X38.6184 Y10.6797
G01 X38.6312 Y10.6747
G01 X38.7144 Y10.6450
G01 X38.7274 Y10.6407
G01 X38.7407 Y10.6370
G01 X38.8263 Y10.6155
G01 X38.8398 Y10.6125
G01 X38.8533 Y10.6102
G01 X38.9407 Y10.5972
G01 X38.9543 Y10.5955
G01 X38.9680 Y10.5945
G01 X39.0563 Y10.5902
G01 X39.0700 Y10.5899
G01 X39.4769 Y10.5899
G01 X39.5720 Y10.5945
G01 X39.5857 Y10.5955
G01 X39.5993 Y10.5972
G01 X39.6935 Y10.6113
G01 X39.7137 Y10.6155
G01 X39.7993 Y10.6370
G01 X39.8126 Y10.6407
G01 X39.8256 Y10.6450
G01 X39.9088 Y10.6747
G01 X39.9216 Y10.6797
G01 X39.9342 Y10.6853
G01 X40.0140 Y10.7230
G01 X40.0263 Y10.7292
G01 X40.0383 Y10.7360
G01 X40.1092 Y10.7785
G01 X40.1006 Y10.7601
G01 X40.0932 Y10.7406
G01 X40.0891 Y10.7273
G01 X40.0841 Y10.7070
G01 X40.0807 Y10.6864
G01 X40.0793 Y10.6726
G01 X40.0784 Y10.6517
G01 X40.0792 Y10.6309
G01 X40.0847 Y10.5542
G01 X40.0875 Y10.5336
G01 X40.0918 Y10.5131
G01 X40.0976 Y10.4931
G01 X40.1023 Y10.4800
G01 X40.1077 Y10.4672
G01 X40.1136 Y10.4546
G01 X40.1202 Y10.4423
G01 X40.1313 Y10.4246
G01 X40.1393 Y10.4133
G01 X40.1812 Y10.3573
G01 X40.1898 Y10.3464
G01 X40.1989 Y10.3359
G01 X40.2136 Y10.3211
G01 X40.2293 Y10.3074
G01 X40.2460 Y10.2949
G01 X40.2636 Y10.2836
G01 X40.2820 Y10.2738
G01 X40.3011 Y10.2653
G01 X40.3730 Y10.2383
G01 X40.3927 Y10.2318
G01 X40.4129 Y10.2267
G01 X40.4333 Y10.2232
G01 X40.4540 Y10.2212
G01 X40.4798 Y10.2204
G01 X57.5269 Y10.2204
G01 X57.5469 Y10.2216
G01 X57.5667 Y10.2242
G01 X57.5863 Y10.2282
G01 X57.5992 Y10.2317
G01 X57.6662 Y10.2514
G01 X57.6795 Y10.2556
G01 X57.6925 Y10.2605
G01 X57.7052 Y10.2661
G01 X57.7177 Y10.2722
G01 X57.7299 Y10.2790
G01 X57.7417 Y10.2864
G01 X57.7586 Y10.2985
G01 X57.7746 Y10.3119
G01 X57.7896 Y10.3264
G01 X57.7990 Y10.3367
G01 X57.8492 Y10.3948
G01 X57.8578 Y10.4058
G01 X57.8696 Y10.4230
G01 X57.8802 Y10.4410
G01 X57.8893 Y10.4598
G01 X57.8946 Y10.4726
G01 X57.8993 Y10.4858
G01 X57.9050 Y10.5058
G01 X57.9093 Y10.5262
G01 X57.9203 Y10.6023
G01 X57.9219 Y10.6161
G01 X57.9229 Y10.6300
G01 X57.9231 Y10.6439
G01 X57.9222 Y10.6647
G01 X57.9198 Y10.6855
G01 X57.9158 Y10.7059
G01 X57.9123 Y10.7194
G01 X57.9058 Y10.7392
G01 X57.9006 Y10.7522
G01 X57.8879 Y10.7802
G01 X57.9617 Y10.7360
G01 X57.9737 Y10.7292
G01 X57.9860 Y10.7230
G01 X58.0658 Y10.6853
G01 X58.0784 Y10.6797
G01 X58.0912 Y10.6747
G01 X58.1744 Y10.6450
G01 X58.1874 Y10.6407
G01 X58.2007 Y10.6370
G01 X58.2863 Y10.6155
G01 X58.2998 Y10.6125
G01 X58.3133 Y10.6102
G01 X58.4007 Y10.5972
G01 X58.4143 Y10.5955
G01 X58.4280 Y10.5945
G01 X58.5163 Y10.5902
G01 X58.5300 Y10.5899
G01 X58.9369 Y10.5899
G01 X59.0320 Y10.5945
G01 X59.0457 Y10.5955
G01 X59.0593 Y10.5972
G01 X59.1535 Y10.6113
G01 X59.1737 Y10.6155
G01 X59.2593 Y10.6370
G01 X59.2726 Y10.6407
G01 X59.2856 Y10.6450
G01 X59.3688 Y10.6747
G01 X59.3816 Y10.6797
G01 X59.3942 Y10.6853
G01 X59.4740 Y10.7230
G01 X59.4863 Y10.7292
G01 X59.4983 Y10.7360
G01 X59.5692 Y10.7785
G01 X59.5606 Y10.7601
G01 X59.5532 Y10.7406
G01 X59.5491 Y10.7273
G01 X59.5441 Y10.7070
G01 X59.5417 Y10.6933
G01 X59.5393 Y10.6726
G01 X59.5384 Y10.6517
G01 X59.5392 Y10.6309
G01 X59.5447 Y10.5542
G01 X59.5475 Y10.5336
G01 X59.5518 Y10.5131
G01 X59.5555 Y10.4997
G01 X59.5599 Y10.4865
G01 X59.5677 Y10.4672
G01 X59.5736 Y10.4546
G01 X59.5802 Y10.4423
G01 X59.5913 Y10.4246
G01 X59.5993 Y10.4133
G01 X59.6412 Y10.3573
G01 X59.6498 Y10.3464
G01 X59.6589 Y10.3359
G01 X59.6736 Y10.3211
G01 X59.6893 Y10.3074
G01 X59.7060 Y10.2949
G01 X59.7236 Y10.2836
G01 X59.7420 Y10.2738
G01 X59.7611 Y10.2653
G01 X59.8330 Y10.2383
G01 X59.8527 Y10.2318
G01 X59.8729 Y10.2267
G01 X59.8933 Y10.2232
G01 X59.9140 Y10.2212
G01 X59.9398 Y10.2204
G01 X129.3755 Y10.2204
G01 X129.3888 Y10.2207
G01 X129.4088 Y10.2223
G01 X129.4285 Y10.2254
G01 X129.4480 Y10.2299
G01 X129.5215 Y10.2514
G01 X129.5347 Y10.2556
G01 X129.5477 Y10.2605
G01 X129.5605 Y10.2661
G01 X129.5730 Y10.2722
G01 X129.5851 Y10.2790
G01 X129.6027 Y10.2903
G01 X129.6193 Y10.3029
G01 X129.6350 Y10.3166
G01 X129.6449 Y10.3264
G01 X129.6543 Y10.3367
G01 X129.7000 Y10.3895
G01 X129.7089 Y10.4003
G01 X129.7212 Y10.4173
G01 X129.7322 Y10.4352
G01 X129.7419 Y10.4539
G01 X129.7475 Y10.4667
G01 X129.7547 Y10.4864
G01 X129.7605 Y10.5066
G01 X129.7732 Y10.5649
G01 X129.7758 Y10.5780
G01 X129.7777 Y10.5912
G01 X129.7789 Y10.6045
G01 X129.7796 Y10.6245
G01 X129.7796 Y79.3755
G01 X129.7789 Y79.3955
G01 X129.7777 Y79.4088
G01 X129.7746 Y79.4285
G01 X129.7701 Y79.4480
G01 X129.7486 Y79.5215
G01 X129.7444 Y79.5347
G01 X129.7395 Y79.5477
G01 X129.7339 Y79.5605
G01 X129.7278 Y79.5730
G01 X129.7210 Y79.5851
G01 X129.7136 Y79.5969
G01 X129.7015 Y79.6139
G01 X129.6881 Y79.6299
G01 X129.6736 Y79.6449
G01 X129.6633 Y79.6543
G01 X129.6105 Y79.7000
G01 X129.5997 Y79.7089
G01 X129.5827 Y79.7212
G01 X129.5648 Y79.7322
G01 X129.5461 Y79.7419
G01 X129.5333 Y79.7475
G01 X129.5136 Y79.7547
G01 X129.4934 Y79.7605
G01 X129.4351 Y79.7732
G01 X129.4220 Y79.7758
G01 X129.4021 Y79.7784
G01 X129.3888 Y79.7793
G01 X129.3755 Y79.7796
G01 X10.6245 Y79.7796
G01 X10.6045 Y79.7789
G01 X10.5846 Y79.7768
G01 X10.5649 Y79.7732
G01 X10.5520 Y79.7701
G01 X10.4785 Y79.7486
G01 X10.4653 Y79.7444
G01 X10.4523 Y79.7395
G01 X10.4395 Y79.7339
G01 X10.4270 Y79.7278
G01 X10.4149 Y79.7210
G01 X10.4031 Y79.7136
G01 X10.3861 Y79.7015
G01 X10.3701 Y79.6881
G01 X10.3551 Y79.6736
G01 X10.3457 Y79.6633
G01 X10.3000 Y79.6105
G01 X10.2911 Y79.5997
G01 X10.2788 Y79.5827
G01 X10.2678 Y79.5648
G01 X10.2581 Y79.5461
G01 X10.2525 Y79.5333
G01 X10.2453 Y79.5136
G01 X10.2395 Y79.4934
G01 X10.2268 Y79.4351
G01 X10.2242 Y79.4220
G01 X10.2223 Y79.4088
G01 X10.2211 Y79.3955
G01 X10.2204 Y79.3755
G01 X10.2204 Y10.6245
G00 Z2.0000
G00 X10.3928 Y10.6245
G01 F60.00
G01 Z-0.1000
G01 F120.00
G01 X10.3935 Y10.6117
G01 X10.3958 Y10.5991
G01 X10.4184 Y10.5220
G01 X10.4236 Y10.5097
G01 X10.4288 Y10.5003
G01 X10.4366 Y10.4895
G01 X10.4438 Y10.4815
G01 X10.4496 Y10.4760
G01 X10.5045 Y10.4285
G01 X10.5131 Y10.4221
G01 X10.5248 Y10.4154
G01 X10.5371 Y10.4101
G01 X10.5501 Y10.4064
G01 X10.6041 Y10.3947
G01 X10.6143 Y10.3932
G01 X10.6245 Y10.3928
G01 X38.0628 Y10.3928
G01 X38.0705 Y10.3932
G01 X38.0781 Y10.3942
G01 X38.0906 Y10.3971
G01 X38.1602 Y10.4176
G01 X38.1726 Y10.4225
G01 X38.1821 Y10.4274
G01 X38.1889 Y10.4318
G01 X38.1953 Y10.4366
G01 X38.2051 Y10.4457
G01 X38.2562 Y10.5045
G01 X38.2640 Y10.5153
G01 X38.2705 Y10.5270
G01 X38.2754 Y10.5394
G01 X38.2788 Y10.5524
G01 X38.2896 Y10.6268
G01 X38.2905 Y10.6348
G01 X38.2907 Y10.6428
G01 X38.2904 Y10.6508
G01 X38.2894 Y10.6588
G01 X38.2879 Y10.6667
G01 X38.2849 Y10.6770
G01 X38.2821 Y10.6845
G01 X38.2520 Y10.7505
G01 X38.2471 Y10.7599
G01 X38.2397 Y10.7710
G01 X38.2346 Y10.7772
G01 X38.2241 Y10.7884
G01 X38.0843 Y10.9282
G01 X37.9648 Y11.0927
G01 X37.8724 Y11.2740
G01 X37.8275 Y11.4123
G01 X38.1288 Y11.4123
G01 X38.1400 Y11.3819
G01 X38.1800 Y11.2973
G01 X38.1839 Y11.2903
G01 X38.2306 Y11.2123
G01 X38.2351 Y11.2058
G01 X38.2910 Y11.1307
G01 X38.3556 Y11.0593
G01 X38.3612 Y11.0538
G01 X38.4307 Y10.9910
G01 X38.5101 Y10.9321
G01 X38.5949 Y10.8812
G01 X38.6795 Y10.8411
G01 X38.6868 Y10.8380
G01 X38.7775 Y10.8056
G01 X38.8682 Y10.7828
G01 X38.8786 Y10.7807
G01 X38.9712 Y10.7671
G01 X39.0700 Y10.7623
G01 X39.4700 Y10.7623
G01 X39.5635 Y10.7667
G01 X39.5740 Y10.7678
G01 X39.6666 Y10.7816
G01 X39.7625 Y10.8056
G01 X39.8556 Y10.8390
G01 X39.9403 Y10.8789
G01 X39.9497 Y10.8839
G01 X40.0254 Y10.9293
G01 X40.0321 Y10.9336
G01 X40.1093 Y10.9910
G01 X40.1788 Y11.0538
G01 X40.1862 Y11.0612
G01 X40.2455 Y11.1267
G01 X40.2507 Y11.1328
G01 X40.3079 Y11.2101
G01 X40.3575 Y11.2926
G01 X40.3611 Y11.2997
G01 X40.4000 Y11.3819
G01 X40.4112 Y11.4123
G01 X40.7125 Y11.4123
G01 X40.6676 Y11.2740
G01 X40.5752 Y11.0927
G01 X40.4557 Y10.9282
G01 X40.3159 Y10.7884
G01 X40.3074 Y10.7788
G01 X40.3028 Y10.7726
G01 X40.2988 Y10.7661
G01 X40.2628 Y10.7001
G01 X40.2574 Y10.6879
G01 X40.2542 Y10.6777
G01 X40.2517 Y10.6645
G01 X40.2510 Y10.6565
G01 X40.2509 Y10.6485
G01 X40.2566 Y10.5682
G01 X40.2591 Y10.5550
G01 X40.2631 Y10.5423
G01 X40.2687 Y10.5301
G01 X40.2742 Y10.5210
G01 X40.3225 Y10.4565
G01 X40.3317 Y10.4467
G01 X40.3420 Y10.4382
G01 X40.3532 Y10.4310
G01 X40.3653 Y10.4252
G01 X40.4333 Y10.3999
G01 X40.4434 Y10.3966
G01 X40.4512 Y10.3949
G01 X40.4591 Y10.3937
G01 X40.4798 Y10.3928
G01 X57.5228 Y10.3928
G01 X57.5305 Y10.3932
G01 X57.5381 Y10.3942
G01 X57.5506 Y10.3971
G01 X57.6202 Y10.4176
G01 X57.6302 Y10.4214
G01 X57.6421 Y10.4274
G01 X57.6489 Y10.4318
G01 X57.6553 Y10.4366
G01 X57.6651 Y10.4457
G01 X57.7162 Y10.5045
G01 X57.7240 Y10.5153
G01 X57.7305 Y10.5270
G01 X57.7354 Y10.5394
G01 X57.7388 Y10.5524
G01 X57.7496 Y10.6268
G01 X57.7505 Y10.6348
G01 X57.7507 Y10.6428
G01 X57.7504 Y10.6508
G01 X57.7494 Y10.6588
G01 X57.7479 Y10.6667
G01 X57.7458 Y10.6744
G01 X57.7421 Y10.6845
G01 X57.7120 Y10.7505
G01 X57.7071 Y10.7599
G01 X57.6997 Y10.7710
G01 X57.6946 Y10.7772
G01 X57.6841 Y10.7884
G01 X57.5443 Y10.9282
G01 X57.4248 Y11.0927
G01 X57.3324 Y11.2740
G01 X57.2875 Y11.4123
G01 X57.5888 Y11.4123
G01 X57.6000 Y11.3819
G01 X57.6400 Y11.2973
G01 X57.6439 Y11.2903
G01 X57.6906 Y11.2123
G01 X57.6951 Y11.2058
G01 X57.7510 Y11.1307
G01 X57.8156 Y11.0593
G01 X57.8212 Y11.0538
G01 X57.8907 Y10.9910
G01 X57.9701 Y10.9321
G01 X58.0549 Y10.8812
G01 X58.1395 Y10.8411
G01 X58.1468 Y10.8380
G01 X58.2375 Y10.8056
G01 X58.3282 Y10.7828
G01 X58.3386 Y10.7807
G01 X58.4312 Y10.7671
G01 X58.5300 Y10.7623
G01 X58.9300 Y10.7623
G01 X59.0235 Y10.7667
G01 X59.0340 Y10.7678
G01 X59.1266 Y10.7816
G01 X59.2225 Y10.8056
G01 X59.3156 Y10.8390
G01 X59.4003 Y10.8789
G01 X59.4097 Y10.8839
G01 X59.4854 Y10.9293
G01 X59.4921 Y10.9336
G01 X59.5693 Y10.9910
G01 X59.6388 Y11.0538
G01 X59.6462 Y11.0612
G01 X59.7055 Y11.1267
G01 X59.7107 Y11.1328
G01 X59.7679 Y11.2101
G01 X59.8175 Y11.2926
G01 X59.8211 Y11.2997
G01 X59.8600 Y11.3819
G01 X59.8712 Y11.4123
G01 X60.1725 Y11.4123
G01 X60.1276 Y11.2740
G01 X60.0352 Y11.0927
G01 X59.9157 Y10.9282
G01 X59.7759 Y10.7884
G01 X59.7674 Y10.7788
G01 X59.7628 Y10.7726
G01 X59.7588 Y10.7661
G01 X59.7228 Y10.7001
G01 X59.7184 Y10.6904
G01 X59.7142 Y10.6777
G01 X59.7125 Y10.6698
G01 X59.7114 Y10.6619
G01 X59.7109 Y10.6485
G01 X59.7166 Y10.5682
G01 X59.7191 Y10.5550
G01 X59.7231 Y10.5423
G01 X59.7287 Y10.5301
G01 X59.7342 Y10.5210
G01 X59.7825 Y10.4565
G01 X59.7917 Y10.4467
G01 X59.8020 Y10.4382
G01 X59.8132 Y10.4310
G01 X59.8253 Y10.4252
G01 X59.8933 Y10.3999
G01 X59.9034 Y10.3966
G01 X59.9112 Y10.3949
G01 X59.9191 Y10.3937
G01 X59.9398 Y10.3928
G01 X129.3755 Y10.3928
G01 X129.3832 Y10.3930
G01 X129.3908 Y10.3938
G01 X129.3984 Y10.3952
G01 X129.4059 Y10.3971
G01 X129.4755 Y10.4176
G01 X129.4879 Y10.4225
G01 X129.4974 Y10.4274
G01 X129.5041 Y10.4318
G01 X129.5105 Y10.4366
G01 X129.5166 Y10.4419
G01 X129.5222 Y10.4476
G01 X129.5715 Y10.5045
G01 X129.5779 Y10.5131
G01 X129.5821 Y10.5200
G01 X129.5858 Y10.5272
G01 X129.5890 Y10.5346
G01 X129.5930 Y10.5475
G01 X129.6053 Y10.6041
G01 X129.6068 Y10.6143
G01 X129.6072 Y10.6245
G01 X129.6072 Y79.3755
G01 X129.6070 Y79.3832
G01 X129.6062 Y79.3908
G01 X129.6048 Y79.3984
G01 X129.6029 Y79.4059
G01 X129.5824 Y79.4755
G01 X129.5775 Y79.4879
G01 X129.5726 Y79.4974
G01 X129.5682 Y79.5041
G01 X129.5634 Y79.5105
G01 X129.5581 Y79.5166
G01 X129.5524 Y79.5222
G01 X129.4955 Y79.5715
G01 X129.4891 Y79.5764
G01 X129.4800 Y79.5821
G01 X129.4679 Y79.5880
G01 X129.4603 Y79.5908
G01 X129.4525 Y79.5930
G01 X129.3959 Y79.6053
G01 X129.3857 Y79.6068
G01 X129.3755 Y79.6072
G01 X10.6245 Y79.6072
G01 X10.6168 Y79.6070
G01 X10.6092 Y79.6062
G01 X10.6016 Y79.6048
G01 X10.5941 Y79.6029
G01 X10.5245 Y79.5824
G01 X10.5145 Y79.5786
G01 X10.5026 Y79.5726
G01 X10.4959 Y79.5682
G01 X10.4895 Y79.5634
G01 X10.4834 Y79.5581
G01 X10.4778 Y79.5524
G01 X10.4285 Y79.4955
G01 X10.4236 Y79.4891
G01 X10.4179 Y79.4800
G01 X10.4142 Y79.4728
G01 X10.4110 Y79.4654
G01 X10.4070 Y79.4525
G01 X10.3947 Y79.3959
G01 X10.3932 Y79.3857
G01 X10.3928 Y79.3755
G01 X10.3928 Y10.6245
G00 Z2.0000
G00 X12.2572 Y13.8858
G01 F60.00
G01 Z-0.1000
G01 F120.00
G01 X12.2871 Y13.6593
G01 X12.3462 Y13.4386
G01 X12.4336 Y13.2275
G01 X12.5478 Y13.0297
G01 X12.6869 Y12.8485
G01 X12.8485 Y12.6869
G01 X13.0297 Y12.5479
G01 X13.2276 Y12.4336
G01 X13.4386 Y12.3462
G01 X13.6593 Y12.2871
G01 X13.8858 Y12.2572
G01 X14.1142 Y12.2572
G01 X14.3407 Y12.2871
G01 X14.5614 Y12.3462
G01 X14.7725 Y12.4336
G01 X14.9703 Y12.5478
G01 X15.1515 Y12.6869
G01 X15.3131 Y12.8485
G01 X15.4522 Y13.0297
G01 X15.5664 Y13.2275
G01 X15.6538 Y13.4386
G01 X15.7129 Y13.6593
G01 X15.7428 Y13.8858
G01 X15.7428 Y14.1142
G01 X15.7129 Y14.3407
G01 X15.6538 Y14.5614
G01 X15.5664 Y14.7725
G01 X15.4522 Y14.9703
G01 X15.3131 Y15.1515
G01 X15.1515 Y15.3131
G01 X14.9703 Y15.4522
G01 X14.7725 Y15.5664
G01 X14.5614 Y15.6538
G01 X14.3407 Y15.7129
G01 X14.1142 Y15.7428
G01 X13.8858 Y15.7428
G01 X13.6593 Y15.7129
G01 X13.4386 Y15.6538
G01 X13.2275 Y15.5664
G01 X13.0297 Y15.4522
G01 X12.8485 Y15.3131
G01 X12.6869 Y15.1515
G01 X12.5478 Y14.9703
G01 X12.4336 Y14.7725
G01 X12.3462 Y14.5614
G01 X12.2871 Y14.3407
G01 X12.2572 Y14.1142
G01 X12.2572 Y13.8858
G00 Z2.0000
G00 X12.4296 Y13.8971
G01 F60.00
G01 Z-0.1000
G01 F120.00
G01 X12.4565 Y13.6930
G01 X12.5098 Y13.4941
G01 X12.5886 Y13.3040
G01 X12.6915 Y13.1257
G01 X12.8168 Y12.9624
G01 X12.9624 Y12.8168
G01 X13.1257 Y12.6915
G01 X13.3040 Y12.5886
G01 X13.4941 Y12.5098
G01 X13.6930 Y12.4565
G01 X13.8971 Y12.4296
G01 X14.1029 Y12.4296
G01 X14.3070 Y12.4565
G01 X14.5059 Y12.5098
G01 X14.6960 Y12.5886
G01 X14.8743 Y12.6915
G01 X15.0376 Y12.8168
G01 X15.1832 Y12.9624
G01 X15.3085 Y13.1257
G01 X15.4114 Y13.3040
G01 X15.4902 Y13.4941
G01 X15.5435 Y13.6930
G01 X15.5704 Y13.8971
G01 X15.5704 Y14.1029
G01 X15.5435 Y14.3070
G01 X15.4902 Y14.5059
G01 X15.4114 Y14.6960
G01 X15.3085 Y14.8743
G01 X15.1832 Y15.0376
G01 X15.0376 Y15.1832
G01 X14.8743 Y15.3085
G01 X14.6960 Y15.4114
G01 X14.5059 Y15.4902
G01 X14.3070 Y15.5435
G01 X14.1029 Y15.5704
G01 X13.8971 Y15.5704
G01 X13.6930 Y15.5435
G01 X13.4941 Y15.4902
G01 X13.3040 Y15.4114
G01 X13.1257 Y15.3085
G01 X12.9624 Y15.1832
G01 X12.8168 Y15.0376
G01 X12.6915 Y14.8743
G01 X12.5886 Y14.6960
G01 X12.5098 Y14.5059
G01 X12.4565 Y14.3070
G01 X12.4296 Y14.1029
G01 X12.4296 Y13.8971
G00 Z2.0000
G00 X12.6020 Y13.9084
G01 F60.00
G01 Z-0.1000
G01 F120.00
G01 X12.6260 Y13.7267
G01 X12.6734 Y13.5497
G01 X12.7435 Y13.3804
G01 X12.8352 Y13.2217
G01 X12.9467 Y13.0763
G01 X13.0763 Y12.9467
G01 X13.2217 Y12.8352
G01 X13.3804 Y12.7435
G01 X13.5497 Y12.6734
G01 X13.7267 Y12.6260
G01 X13.9084 Y12.6020
G01 X14.0916 Y12.6020
G01 X14.2733 Y12.6260
G01 X14.4503 Y12.6734
G01 X14.6196 Y12.7435
G01 X14.7783 Y12.8352
G01 X14.9237 Y12.9467
G01 X15.0533 Y13.0763
G01 X15.1648 Y13.2217
G01 X15.2565 Y13.3804
G01 X15.3266 Y13.5497
G01 X15.3740 Y13.7267
G01 X15.3980 Y13.9084
G01 X15.3980 Y14.0916
G01 X15.3740 Y14.2733
G01 X15.3266 Y14.4503
G01 X15.2565 Y14.6196
G01 X15.1648 Y14.7783
G01 X15.0533 Y14.9237
G01 X14.9237 Y15.0533
G01 X14.7783 Y15.1648
G01 X14.6196 Y15.2565
G01 X14.4503 Y15.3266
G01 X14.2733 Y15.3740
G01 X14.0916 Y15.3980
G01 X13.9084 Y15.3980
G01 X13.7267 Y15.3740
G01 X13.5497 Y15.3266
G01 X13.3804 Y15.2565
G01 X13.2217 Y15.1648
G01 X13.0763 Y15.0533
G01 X12.9467 Y14.9237
G01 X12.8352 Y14.7783
G01 X12.7435 Y14.6196
G01 X12.6734 Y14.4503
G01 X12.6260 Y14.2733
G01 X12.6020 Y14.0916
G01 X12.6020 Y13.9084
G00 Z2.0000
G00 X27.5439 Y17.6422
G01 F60.00
G01 Z-0.1000
G01 F120.00
G01 X27.5941 Y17.4549
G01 X27.6790 Y17.2499
G01 X27.7899 Y17.0578
G01 X27.9250 Y16.8818
G01 X28.0818 Y16.7250
G01 X28.2578 Y16.5899
G01 X28.4499 Y16.4790
G01 X28.6549 Y16.3941
G01 X28.8692 Y16.3367
G01 X29.0891 Y16.3077
G01 X29.6423 Y16.3077
G01 X29.6423 Y16.5923
G01 X29.1974 Y16.5923
G01 X29.0620 Y16.5990
G01 X28.9306 Y16.6184
G01 X28.9202 Y16.6205
G01 X28.7964 Y16.6515
G01 X28.7863 Y16.6545
G01 X28.6613 Y16.6994
G01 X28.5387 Y16.7573
G01 X28.5318 Y16.7611
G01 X28.4179 Y16.8295
G01 X28.3069 Y16.9118
G01 X28.2046 Y17.0046
G01 X28.1152 Y17.1029
G01 X28.1101 Y17.1090
G01 X28.0295 Y17.2179
G01 X27.9611 Y17.3318
G01 X27.9573 Y17.3387
G01 X27.9016 Y17.4564
G01 X27.8984 Y17.4637
G01 X27.8537 Y17.5888
G01 X27.8400 Y17.6422
G01 X27.5439 Y17.6422
G00 Z2.0000
G00 X27.5439 Y18.3577
G01 F60.00
G01 Z-0.1000
G01 F120.00
G01 X27.8400 Y18.3577
G01 X27.8537 Y18.4112
G01 X27.8984 Y18.5363
G01 X27.9016 Y18.5436
G01 X27.9573 Y18.6613
G01 X27.9611 Y18.6682
G01 X28.0295 Y18.7821
G01 X28.1101 Y18.8910
G01 X28.1152 Y18.8971
G01 X28.2046 Y18.9954
G01 X28.3069 Y19.0882
G01 X28.4179 Y19.1705
G01 X28.5318 Y19.2389
G01 X28.5387 Y19.2427
G01 X28.6613 Y19.3006
G01 X28.7863 Y19.3455
G01 X28.7964 Y19.3485
G01 X28.9202 Y19.3795
G01 X28.9306 Y19.3816
G01 X29.0620 Y19.4010
G01 X29.1974 Y19.4077
G01 X29.6423 Y19.4077
G01 X29.6423 Y19.6922
G01 X29.0891 Y19.6922
G01 X28.8692 Y19.6633
G01 X28.6549 Y19.6059
G01 X28.4499 Y19.5210
G01 X28.2578 Y19.4101
G01 X28.0818 Y19.2750
G01 X27.9250 Y19.1182
G01 X27.7899 Y18.9422
G01 X27.6790 Y18.7501
G01 X27.5941 Y18.5451
G01 X27.5439 Y18.3577
G00 Z2.0000
G00 X30.3577 Y19.4077
G01 F60.00
G01 Z-0.1000
G01 F120.00
G01 X30.8026 Y19.4077
G01 X30.9380 Y19.4010
G01 X31.0694 Y19.3816
G01 X31.0798 Y19.3795
G01 X31.2036 Y19.3485
G01 X31.2137 Y19.3455
G01 X31.3387 Y19.3006
G01 X31.4613 Y19.2427
G01 X31.4682 Y19.2389
G01 X31.5821 Y19.1705
G01 X31.6931 Y19.0882
G01 X31.7954 Y18.9954
G01 X31.8848 Y18.8971
G01 X31.8899 Y18.8910
G01 X31.9705 Y18.7821
G01 X32.0389 Y18.6682
G01 X32.0427 Y18.6613
G01 X32.0984 Y18.5436
G01 X32.1016 Y18.5363
G01 X32.1463 Y18.4112
G01 X32.1600 Y18.3577
G01 X32.4561 Y18.3577
G01 X32.4059 Y18.5451
G01 X32.3210 Y18.7501
G01 X32.2101 Y18.9422
G01 X32.0750 Y19.1182
G01 X31.9182 Y19.2750
G01 X31.7422 Y19.4101
G01 X31.5501 Y19.5210
G01 X31.3451 Y19.6059
G01 X31.1308 Y19.6633
G01 X30.9109 Y19.6923
G01 X30.3577 Y19.6923
G01 X30.3577 Y19.4077
G00 Z2.0000
G00 X33.0077 Y20.2891
G01 F60.00
G01 Z-0.1000
G01 F120.00
G01 X33.0367 Y20.0692
G01 X33.0941 Y19.8549
G01 X33.1790 Y19.6499
G01 X33.2899 Y19.4578
G01 X33.4250 Y19.2818
G01 X33.5818 Y19.1250
G01 X33.7578 Y18.9899
G01 X33.9499 Y18.8790
G01 X34.1549 Y18.7941
G01 X34.3423 Y18.7439
G01 X34.3423 Y19.0400
G01 X34.2888 Y19.0537
G01 X34.1637 Y19.0984
G01 X34.1564 Y19.1016
G01 X34.0387 Y19.1573
G01 X34.0318 Y19.1611
G01 X33.9179 Y19.2295
G01 X33.8090 Y19.3101
G01 X33.8029 Y19.3152
G01 X33.7046 Y19.4046
G01 X33.6118 Y19.5069
G01 X33.5295 Y19.6179
G01 X33.4611 Y19.7318
G01 X33.4573 Y19.7387
G01 X33.3994 Y19.8613
G01 X33.3545 Y19.9863
G01 X33.3515 Y19.9964
G01 X33.3205 Y20.1202
G01 X33.3184 Y20.1306
G01 X33.2990 Y20.2620
G01 X33.2923 Y20.3974
G01 X33.2923 Y20.8423
G01 X33.0077 Y20.8423
G01 X33.0077 Y20.2891
G00 Z2.0000
G00 X33.2923 Y21.5577
G01 F60.00
G01 Z-0.1000
G01 F120.00
G01 X33.2923 Y22.0026
G01 X33.2990 Y22.1380
G01 X33.3184 Y22.2694
G01 X33.3205 Y22.2798
G01 X33.3515 Y22.4036
G01 X33.3545 Y22.4137
G01 X33.3994 Y22.5387
G01 X33.4573 Y22.6613
G01 X33.4611 Y22.6682
G01 X33.5295 Y22.7821
G01 X33.6118 Y22.8931
G01 X33.7046 Y22.9954
G01 X33.8029 Y23.0848
G01 X33.8090 Y23.0899
G01 X33.9179 Y23.1705
G01 X34.0318 Y23.2389
G01 X34.0387 Y23.2427
G01 X34.1564 Y23.2984
G01 X34.1637 Y23.3016
G01 X34.2888 Y23.3463
G01 X34.3422 Y23.3600
G01 X34.3422 Y23.6561
G01 X34.1549 Y23.6059
G01 X33.9499 Y23.5210
G01 X33.7578 Y23.4101
G01 X33.5818 Y23.2750
G01 X33.4250 Y23.1182
G01 X33.2899 Y22.9422
G01 X33.1790 Y22.7501
G01 X33.0941 Y22.5451
G01 X33.0367 Y22.3308
G01 X33.0077 Y22.1109
G01 X33.0077 Y21.5577
G01 X33.2923 Y21.5577
G00 Z2.0000
G00 X35.0577 Y23.3600
G01 F60.00
G01 Z-0.1000
G01 F120.00
G01 X35.1112 Y23.3463
G01 X35.2338 Y23.3025
G01 X35.2412 Y23.2995
G01 X35.3636 Y23.2415
G01 X35.4776 Y23.1733
G01 X35.4843 Y23.1690
G01 X35.5931 Y23.0882
G01 X35.6954 Y22.9954
G01 X35.7882 Y22.8931
G01 X35.8675 Y22.7864
G01 X35.8733 Y22.7776
G01 X35.9415 Y22.6636
G01 X36.0006 Y22.5387
G01 X36.0471 Y22.4086
G01 X36.0807 Y22.2746
G01 X36.1010 Y22.1380
G01 X36.1076 Y22.0053
G01 X36.1077 Y21.5577
G01 X36.3922 Y21.5577
G01 X36.3922 Y22.1109
G01 X36.3633 Y22.3308
G01 X36.3059 Y22.5451
G01 X36.2210 Y22.7501
G01 X36.1101 Y22.9422
G01 X35.9750 Y23.1182
G01 X35.8182 Y23.2750
G01 X35.6422 Y23.4101
G01 X35.4501 Y23.5210
G01 X35.2451 Y23.6059
G01 X35.0577 Y23.6561
G01 X35.0577 Y23.3600
G00 Z2.0000
G00 X37.4891 Y24.3182
G01 F60.00
G01 Z-0.1000
G01 F120.00
G01 X37.4891 Y24.4491
G01 X37.3558 Y24.4491
G01 X37.3697 Y24.4389
G01 X37.3805 Y24.4300
G01 X37.4333 Y24.3843
G01 X37.4485 Y24.3700
G01 X37.4627 Y24.3547
G01 X37.4715 Y24.3439
G01 X37.4797 Y24.3327
G01 X37.4891 Y24.3182
G00 Z2.0000
G00 X41.0509 Y25.6018
G01 F60.00
G01 Z-0.1000
G01 F120.00
G01 X41.0509 Y25.4709
G01 X41.1842 Y25.4709
G01 X41.1703 Y25.4811
G01 X41.1595 Y25.4900
G01 X41.1067 Y25.5357
G01 X41.0915 Y25.5500
G01 X41.0773 Y25.5653
G01 X41.0685 Y25.5761
G01 X41.0603 Y25.5873
G01 X41.0509 Y25.6018
G00 Z2.0000
G00 X39.2182 Y28.0109
G01 F60.00
G01 Z-0.1000
G01 F120.00
G01 X39.2769 Y28.0108
G01 X39.3495 Y28.0073
G01 X39.3495 Y28.1448
G01 X39.3432 Y28.1359
G01 X39.3345 Y28.1249
G01 X39.2843 Y28.0667
G01 X39.2749 Y28.0564
G01 X39.2650 Y28.0466
G01 X39.2493 Y28.0329
G01 X39.2327 Y28.0203
G01 X39.2182 Y28.0109
G00 Z2.0000
G00 X39.8287 Y31.9428
G01 F60.00
G01 Z-0.1000
G01 F120.00
G01 X39.9223 Y31.8951
G01 X40.1008 Y31.8371
G01 X40.2862 Y31.8077
G01 X40.4738 Y31.8077
G01 X40.6592 Y31.8371
G01 X40.8377 Y31.8951
G01 X40.9313 Y31.9428
G01 X40.7167 Y32.1574
G01 X40.6435 Y32.1313
G01 X40.5571 Y32.1097
G01 X40.4690 Y32.0966
G01 X40.3800 Y32.0923
G01 X40.2910 Y32.0966
G01 X40.2029 Y32.1097
G01 X40.1165 Y32.1313
G01 X40.0433 Y32.1574
G01 X39.8287 Y31.9428
G00 Z2.0000
G00 X39.3228 Y33.5513
G01 F60.00
G01 Z-0.1000
G01 F120.00
G01 X39.2751 Y33.4577
G01 X39.2171 Y33.2792
G01 X39.1877 Y33.0938
G01 X39.1877 Y32.9062
G01 X39.2171 Y32.7208
G01 X39.2751 Y32.5423
G01 X39.3228 Y32.4487
G01 X39.5374 Y32.6633
G01 X39.5113 Y32.7365
G01 X39.4897 Y32.8229
G01 X39.4766 Y32.9110
G01 X39.4723 Y33.0000
G01 X39.4766 Y33.0890
G01 X39.4897 Y33.1771
G01 X39.5113 Y33.2635
G01 X39.5374 Y33.3367
G01 X39.3228 Y33.5513
G00 Z2.0000
G00 X40.4112 Y34.4803
G01 F60.00
G01 Z-0.1000
G01 F120.00
G01 X40.4236 Y34.4082
G01 X40.4253 Y34.3943
G01 X40.4266 Y34.3735
G01 X40.4263 Y34.3526
G01 X40.4244 Y34.3319
G01 X40.4223 Y34.3181
G01 X40.4195 Y34.3045
G01 X40.4141 Y34.2843
G01 X40.4072 Y34.2646
G01 X40.3774 Y34.1938
G01 X40.3685 Y34.1749
G01 X40.3583 Y34.1567
G01 X40.3508 Y34.1451
G01 X40.3426 Y34.1338
G01 X40.3340 Y34.1229
G01 X40.3248 Y34.1124
G01 X40.3150 Y34.1025
G01 X40.3049 Y34.0930
G01 X40.2942 Y34.0840
G01 X40.2832 Y34.0757
G01 X40.3663 Y34.0798
G01 X40.3800 Y34.0801
G01 X40.3937 Y34.0798
G01 X40.4722 Y34.0760
G01 X40.4859 Y34.0749
G01 X40.4995 Y34.0733
G01 X40.5772 Y34.0617
G01 X40.5907 Y34.0594
G01 X40.6041 Y34.0564
G01 X40.6869 Y34.0356
G01 X40.7066 Y34.0293
G01 X40.7805 Y34.0029
G01 X40.7934 Y33.9979
G01 X40.8059 Y33.9924
G01 X40.8831 Y33.9558
G01 X40.9011 Y33.9458
G01 X40.9743 Y33.9019
G01 X40.9913 Y33.8902
G01 X41.0302 Y33.8614
G01 X40.4112 Y34.4803
G00 Z2.0000
G00 X41.2414 Y33.6502
G01 F60.00
G01 Z-0.1000
G01 F120.00
G01 X41.2702 Y33.6113
G01 X41.2819 Y33.5943
G01 X41.3258 Y33.5211
G01 X41.3358 Y33.5031
G01 X41.3724 Y33.4259
G01 X41.3779 Y33.4134
G01 X41.3829 Y33.4005
G01 X41.4093 Y33.3266
G01 X41.4156 Y33.3069
G01 X41.4364 Y33.2241
G01 X41.4394 Y33.2107
G01 X41.4417 Y33.1972
G01 X41.4533 Y33.1195
G01 X41.4549 Y33.1059
G01 X41.4560 Y33.0922
G01 X41.4598 Y33.0137
G01 X41.4601 Y33.0000
G01 X41.4598 Y32.9863
G01 X41.4559 Y32.9072
G01 X41.4626 Y32.9143
G01 X41.4727 Y32.9240
G01 X41.4887 Y32.9376
G01 X41.5502 Y32.9838
G01 X41.5615 Y32.9918
G01 X41.5792 Y33.0028
G01 X41.5977 Y33.0125
G01 X41.6104 Y33.0181
G01 X41.6300 Y33.0254
G01 X41.6433 Y33.0295
G01 X41.6568 Y33.0329
G01 X41.6705 Y33.0356
G01 X41.6842 Y33.0376
G01 X41.6981 Y33.0389
G01 X41.7747 Y33.0443
G01 X41.7956 Y33.0445
G01 X41.8164 Y33.0432
G01 X41.8371 Y33.0402
G01 X41.8552 Y33.0364
G01 X41.2414 Y33.6502
G00 Z2.0000
G00 X40.9523 Y40.1423
G01 F60.00
G01 Z-0.1000
G01 F120.00
G01 X40.6677 Y40.1423
G01 X40.6677 Y39.5579
G01 X40.6721 Y39.5176
G01 X40.7122 Y39.4101
G01 X40.7798 Y39.3198
G01 X40.8701 Y39.2522
G01 X40.9776 Y39.2121
G01 X41.0179 Y39.2077
G01 X41.6023 Y39.2077
G01 X41.6023 Y39.4923
G01 X41.0600 Y39.4923
G01 X41.0521 Y39.4925
G01 X41.0416 Y39.4938
G01 X41.0287 Y39.4969
G01 X41.0188 Y39.5005
G01 X41.0069 Y39.5062
G01 X40.9958 Y39.5135
G01 X40.9876 Y39.5202
G01 X40.9802 Y39.5276
G01 X40.9719 Y39.5380
G01 X40.9676 Y39.5446
G01 X40.9638 Y39.5516
G01 X40.9605 Y39.5588
G01 X40.9577 Y39.5662
G01 X40.9555 Y39.5738
G01 X40.9538 Y39.5816
G01 X40.9528 Y39.5894
G01 X40.9523 Y39.5974
G01 X40.9523 Y40.1423
G00 Z2.0000
G00 X41.0600 Y41.5077
G01 F60.00
G01 Z-0.1000
G01 F120.00
G01 X41.6023 Y41.5077
G01 X41.6023 Y41.7922
G01 X41.0179 Y41.7922
G01 X40.9776 Y41.7879
G01 X40.8701 Y41.7478
G01 X40.7798 Y41.6802
G01 X40.7122 Y41.5899
G01 X40.6721 Y41.4824
G01 X40.6677 Y41.4421
G01 X40.6677 Y40.8577
G01 X40.9523 Y40.8577
G01 X40.9523 Y41.4000
G01 X40.9525 Y41.4079
G01 X40.9538 Y41.4184
G01 X40.9562 Y41.4287
G01 X40.9585 Y41.4363
G01 X40.9626 Y41.4461
G01 X40.9662 Y41.4531
G01 X40.9719 Y41.4620
G01 X40.9767 Y41.4684
G01 X40.9838 Y41.4762
G01 X40.9896 Y41.4816
G01 X40.9980 Y41.4881
G01 X41.0046 Y41.4924
G01 X41.0139 Y41.4974
G01 X41.0237 Y41.5015
G01 X41.0338 Y41.5045
G01 X41.0416 Y41.5062
G01 X41.0521 Y41.5075
G01 X41.0600 Y41.5077
G00 Z2.0000
G00 X43.5651 Y39.7813
G01 F60.00
G01 Z-0.1000
G01 F120.00
G01 X43.5267 Y39.8331
G01 X43.5187 Y39.8443
G01 X43.5114 Y39.8560
G01 X43.4660 Y39.9317
G01 X43.4592 Y39.9437
G01 X43.4530 Y39.9560
G01 X43.4153 Y40.0358
G01 X43.4097 Y40.0484
G01 X43.4047 Y40.0612
G01 X43.3727 Y40.1509
G01 X43.3670 Y40.1707
G01 X43.3455 Y40.2563
G01 X43.3425 Y40.2698
G01 X43.3402 Y40.2833
G01 X43.3272 Y40.3707
G01 X43.3255 Y40.3843
G01 X43.3245 Y40.3980
G01 X43.3202 Y40.4863
G01 X43.3199 Y40.5000
G01 X43.3202 Y40.5137
G01 X43.3245 Y40.6020
G01 X43.3255 Y40.6157
G01 X43.3272 Y40.6293
G01 X43.3402 Y40.7167
G01 X43.3425 Y40.7302
G01 X43.3455 Y40.7437
G01 X43.3670 Y40.8293
G01 X43.3727 Y40.8491
G01 X43.4047 Y40.9388
G01 X43.4097 Y40.9516
G01 X43.4153 Y40.9642
G01 X43.4530 Y41.0440
G01 X43.4592 Y41.0563
G01 X43.4660 Y41.0683
G01 X43.5114 Y41.1440
G01 X43.5187 Y41.1557
G01 X43.5267 Y41.1669
G01 X43.5681 Y41.2227
G01 X43.4933 Y41.2065
G01 X43.4727 Y41.2034
G01 X43.4518 Y41.2018
G01 X43.4310 Y41.2017
G01 X43.4102 Y41.2032
G01 X43.3895 Y41.2062
G01 X43.3759 Y41.2091
G01 X43.3625 Y41.2126
G01 X43.3426 Y41.2192
G01 X43.2707 Y41.2461
G01 X43.2579 Y41.2516
G01 X43.2454 Y41.2578
G01 X43.2273 Y41.2681
G01 X43.2157 Y41.2757
G01 X43.1990 Y41.2882
G01 X43.1884 Y41.2972
G01 X43.1782 Y41.3068
G01 X43.1686 Y41.3168
G01 X43.1594 Y41.3273
G01 X43.1401 Y41.3525
G01 X43.1401 Y39.6544
G01 X43.1554 Y39.6703
G01 X43.1712 Y39.6845
G01 X43.1822 Y39.6932
G01 X43.2382 Y39.7351
G01 X43.2495 Y39.7431
G01 X43.2672 Y39.7542
G01 X43.2857 Y39.7638
G01 X43.3049 Y39.7721
G01 X43.3246 Y39.7789
G01 X43.3448 Y39.7842
G01 X43.3585 Y39.7869
G01 X43.3722 Y39.7889
G01 X43.3861 Y39.7903
G01 X43.4558 Y39.7952
G01 X43.4697 Y39.7959
G01 X43.4905 Y39.7956
G01 X43.5044 Y39.7945
G01 X43.5182 Y39.7927
G01 X43.5387 Y39.7888
G01 X43.5522 Y39.7853
G01 X43.5651 Y39.7813
G00 Z2.0000
G00 X45.0058 Y39.6295
G01 F60.00
G01 Z-0.1000
G01 F120.00
G01 X56.3177 Y28.3177
G01 X56.3364 Y28.3007
G01 X56.3568 Y28.2856
G01 X56.3761 Y28.2739
G01 X56.3832 Y28.2702
G01 X56.4013 Y28.2618
G01 X56.4252 Y28.2533
G01 X56.4471 Y28.2477
G01 X56.4549 Y28.2462
G01 X56.4747 Y28.2434
G01 X56.4974 Y28.2422
G01 X59.4327 Y28.2422
G01 X60.9121 Y26.7628
G01 X60.9290 Y26.7477
G01 X60.9449 Y26.7357
G01 X60.9515 Y26.7312
G01 X60.9710 Y26.7196
G01 X60.9938 Y26.7088
G01 X61.0126 Y26.7019
G01 X61.0202 Y26.6995
G01 X61.0422 Y26.6941
G01 X61.0672 Y26.6904
G01 X61.0925 Y26.6892
G01 X63.9683 Y26.6892
G01 X63.9935 Y26.6904
G01 X64.0186 Y26.6941
G01 X64.0431 Y26.7003
G01 X64.0669 Y26.7088
G01 X64.0851 Y26.7172
G01 X64.0944 Y26.7222
G01 X64.1093 Y26.7312
G01 X64.1158 Y26.7357
G01 X64.1318 Y26.7477
G01 X64.1506 Y26.7647
G01 X71.5623 Y34.1764
G01 X71.5776 Y34.1932
G01 X71.5826 Y34.1994
G01 X71.5944 Y34.2155
G01 X71.6074 Y34.2372
G01 X71.6172 Y34.2577
G01 X71.6201 Y34.2650
G01 X71.6267 Y34.2839
G01 X71.6317 Y34.3033
G01 X71.6334 Y34.3110
G01 X71.6366 Y34.3335
G01 X71.6378 Y34.3587
G01 X71.6378 Y41.6298
G01 X71.6485 Y41.6330
G01 X71.7224 Y41.6594
G01 X71.7322 Y41.6635
G01 X71.8079 Y41.6994
G01 X71.8799 Y41.7424
G01 X71.8886 Y41.7483
G01 X71.9559 Y41.7983
G01 X72.0219 Y41.8581
G01 X72.0817 Y41.9241
G01 X72.1348 Y41.9957
G01 X72.1806 Y42.0721
G01 X72.2187 Y42.1526
G01 X72.2487 Y42.2365
G01 X72.2691 Y42.3177
G01 X72.2712 Y42.3281
G01 X72.2827 Y42.4058
G01 X72.2838 Y42.4163
G01 X72.2877 Y42.5000
G01 X72.2834 Y42.5890
G01 X72.2703 Y42.6771
G01 X72.2487 Y42.7635
G01 X72.2187 Y42.8474
G01 X72.1829 Y42.9232
G01 X72.1780 Y42.9325
G01 X72.1348 Y43.0043
G01 X72.0850 Y43.0717
G01 X72.0782 Y43.0799
G01 X72.0255 Y43.1380
G01 X72.0180 Y43.1455
G01 X71.9559 Y43.2017
G01 X71.8843 Y43.2548
G01 X71.8079 Y43.3006
G01 X71.7274 Y43.3387
G01 X71.6435 Y43.3687
G01 X71.5571 Y43.3903
G01 X71.4690 Y43.4034
G01 X71.3800 Y43.4077
G01 X71.2910 Y43.4034
G01 X71.2029 Y43.3903
G01 X71.1165 Y43.3687
G01 X71.0376 Y43.3406
G01 X71.0278 Y43.3365
G01 X70.9521 Y43.3006
G01 X70.8801 Y43.2576
G01 X70.8714 Y43.2517
G01 X70.8083 Y43.2050
G01 X70.8001 Y43.1982
G01 X70.7381 Y43.1419
G01 X70.6783 Y43.0759
G01 X70.6252 Y43.0043
G01 X70.5794 Y42.9279
G01 X70.5413 Y42.8474
G01 X70.5113 Y42.7635
G01 X70.4897 Y42.6771
G01 X70.4773 Y42.5942
G01 X70.4762 Y42.5837
G01 X70.4724 Y42.5053
G01 X70.4724 Y42.4947
G01 X70.4766 Y42.4110
G01 X70.4888 Y42.3281
G01 X70.4909 Y42.3177
G01 X70.5113 Y42.2365
G01 X70.5413 Y42.1526
G01 X70.5794 Y42.0721
G01 X70.6252 Y41.9957
G01 X70.6783 Y41.9241
G01 X70.7381 Y41.8581
G01 X70.8041 Y41.7983
G01 X70.8714 Y41.7483
G01 X70.8801 Y41.7424
G01 X70.9521 Y41.6994
G01 X71.0278 Y41.6635
G01 X71.0376 Y41.6594
G01 X71.1115 Y41.6330
G01 X71.1222 Y41.6298
G01 X71.1222 Y34.4655
G01 X63.8615 Y27.2048
G01 X61.1993 Y27.2048
G01 X59.7199 Y28.6842
G01 X59.7031 Y28.6993
G01 X59.6871 Y28.7113
G01 X59.6805 Y28.7158
G01 X59.6611 Y28.7274
G01 X59.6406 Y28.7372
G01 X59.6332 Y28.7401
G01 X59.6144 Y28.7467
G01 X59.5924 Y28.7523
G01 X59.5648 Y28.7566
G01 X59.5395 Y28.7578
G01 X56.6068 Y28.7578
G01 X45.3705 Y39.9942
G01 X45.3900 Y40.0273
G01 X45.4289 Y40.1095
G01 X45.4320 Y40.1168
G01 X45.4644 Y40.2075
G01 X45.4878 Y40.3008
G01 X45.4893 Y40.3086
G01 X45.5029 Y40.4012
G01 X45.5076 Y40.4947
G01 X45.5076 Y40.5053
G01 X45.5033 Y40.5935
G01 X45.5026 Y40.6014
G01 X45.4884 Y40.6966
G01 X45.4644 Y40.7925
G01 X45.4310 Y40.8856
G01 X45.3911 Y40.9703
G01 X45.3861 Y40.9797
G01 X45.3407 Y41.0554
G01 X45.3349 Y41.0642
G01 X45.2790 Y41.1393
G01 X45.2126 Y41.2126
G01 X45.1393 Y41.2790
G01 X45.0642 Y41.3349
G01 X45.0554 Y41.3407
G01 X44.9797 Y41.3861
G01 X44.9703 Y41.3911
G01 X44.8856 Y41.4310
G01 X44.7925 Y41.4644
G01 X44.6966 Y41.4884
G01 X44.6040 Y41.5022
G01 X44.5935 Y41.5033
G01 X44.5053 Y41.5076
G01 X44.4947 Y41.5076
G01 X44.4012 Y41.5029
G01 X44.3034 Y41.4884
G01 X44.2075 Y41.4644
G01 X44.1193 Y41.4329
G01 X44.1095 Y41.4289
G01 X44.0297 Y41.3911
G01 X44.0226 Y41.3875
G01 X43.9401 Y41.3379
G01 X43.8607 Y41.2790
G01 X43.7874 Y41.2126
G01 X43.7210 Y41.1393
G01 X43.6621 Y41.0599
G01 X43.6112 Y40.9751
G01 X43.5690 Y40.8856
G01 X43.5356 Y40.7925
G01 X43.5116 Y40.6966
G01 X43.4971 Y40.5988
G01 X43.4923 Y40.5000
G01 X43.4971 Y40.4012
G01 X43.5116 Y40.3034
G01 X43.5356 Y40.2075
G01 X43.5690 Y40.1144
G01 X43.6089 Y40.0297
G01 X43.6125 Y40.0226
G01 X43.6621 Y39.9401
G01 X43.7210 Y39.8607
G01 X43.7874 Y39.7874
G01 X43.8607 Y39.7210
G01 X43.9401 Y39.6621
G01 X44.0249 Y39.6112
G01 X44.1144 Y39.5690
G01 X44.2024 Y39.5373
G01 X44.2100 Y39.5349
G01 X44.3034 Y39.5116
G01 X44.4012 Y39.4971
G01 X44.5000 Y39.4923
G01 X44.5935 Y39.4967
G01 X44.6014 Y39.4974
G01 X44.6966 Y39.5116
G01 X44.7874 Y39.5342
G01 X44.7951 Y39.5364
G01 X44.8807 Y39.5671
G01 X44.8881 Y39.5700
G01 X44.9727 Y39.6100
G01 X45.0058 Y39.6295
G00 Z2.0000
G00 X44.9770 Y39.4146
G01 F60.00
G01 Z-0.1000
G01 F120.00
G01 X44.9724 Y39.4191
G01 X44.9674 Y39.4168
G01 X44.9720 Y39.4158
G01 X44.9770 Y39.4146
G00 Z2.0000
G00 X45.5834 Y40.0329
G01 F60.00
G01 Z-0.1000
G01 F120.00
G01 X45.5809 Y40.0276
G01 X45.5854 Y40.0230
G01 X45.5838 Y40.0307
G01 X45.5834 Y40.0329
G00 Z2.0000
G00 X46.1122 Y39.4963
G01 F60.00
G01 Z-0.1000
G01 F120.00
G01 X46.7273 Y38.8812
G01 X46.7238 Y38.8946
G01 X46.7209 Y38.9082
G01 X46.7180 Y38.9288
G01 X46.7169 Y38.9427
G01 X46.7164 Y38.9566
G01 X46.7171 Y38.9775
G01 X46.7193 Y38.9982
G01 X46.7292 Y39.0674
G01 X46.7315 Y39.0811
G01 X46.7345 Y39.0947
G01 X46.7382 Y39.1081
G01 X46.7425 Y39.1213
G01 X46.7475 Y39.1343
G01 X46.7531 Y39.1470
G01 X46.7594 Y39.1595
G01 X46.7699 Y39.1775
G01 X46.7817 Y39.1947
G01 X46.7948 Y39.2110
G01 X46.8405 Y39.2638
G01 X46.8548 Y39.2790
G01 X46.8701 Y39.2932
G01 X46.8809 Y39.3020
G01 X46.8921 Y39.3102
G01 X46.9070 Y39.3199
G01 X46.8300 Y39.3199
G01 X46.8094 Y39.3206
G01 X46.7957 Y39.3220
G01 X46.7821 Y39.3240
G01 X46.7686 Y39.3267
G01 X46.7487 Y39.3319
G01 X46.7292 Y39.3386
G01 X46.7165 Y39.3439
G01 X46.6979 Y39.3529
G01 X46.6860 Y39.3597
G01 X46.6687 Y39.3710
G01 X46.6576 Y39.3791
G01 X46.6419 Y39.3924
G01 X46.6319 Y39.4019
G01 X46.6224 Y39.4119
G01 X46.6091 Y39.4276
G01 X46.6010 Y39.4387
G01 X46.5897 Y39.4560
G01 X46.5798 Y39.4740
G01 X46.5739 Y39.4865
G01 X46.5686 Y39.4992
G01 X46.5619 Y39.5187
G01 X46.5582 Y39.5319
G01 X46.5552 Y39.5453
G01 X46.5520 Y39.5657
G01 X46.5506 Y39.5794
G01 X46.5499 Y39.6000
G01 X46.5499 Y39.6784
G01 X46.5433 Y39.6672
G01 X46.5356 Y39.6556
G01 X46.5274 Y39.6443
G01 X46.5187 Y39.6335
G01 X46.5046 Y39.6181
G01 X46.4946 Y39.6085
G01 X46.4841 Y39.5993
G01 X46.4732 Y39.5907
G01 X46.4172 Y39.5489
G01 X46.4059 Y39.5408
G01 X46.3942 Y39.5333
G01 X46.3821 Y39.5264
G01 X46.3697 Y39.5201
G01 X46.3569 Y39.5145
G01 X46.3374 Y39.5072
G01 X46.3174 Y39.5014
G01 X46.3038 Y39.4983
G01 X46.2901 Y39.4960
G01 X46.2693 Y39.4937
G01 X46.1927 Y39.4883
G01 X46.1718 Y39.4881
G01 X46.1579 Y39.4888
G01 X46.1441 Y39.4903
G01 X46.1303 Y39.4924
G01 X46.1122 Y39.4963
G00 Z2.0000
G00 X46.8300 Y41.5077
G01 F60.00
G01 Z-0.1000
G01 F120.00
G01 X47.3723 Y41.5077
G01 X47.3723 Y41.7922
G01 X46.7879 Y41.7922
G01 X46.7476 Y41.7879
G01 X46.6401 Y41.7478
G01 X46.5498 Y41.6802
G01 X46.4822 Y41.5899
G01 X46.4421 Y41.4824
G01 X46.4377 Y41.4421
G01 X46.4377 Y40.8577
G01 X46.7223 Y40.8577
G01 X46.7223 Y41.4000
G01 X46.7225 Y41.4079
G01 X46.7238 Y41.4184
G01 X46.7262 Y41.4287
G01 X46.7285 Y41.4363
G01 X46.7326 Y41.4461
G01 X46.7362 Y41.4531
G01 X46.7419 Y41.4620
G01 X46.7467 Y41.4684
G01 X46.7538 Y41.4762
G01 X46.7596 Y41.4816
G01 X46.7680 Y41.4881
G01 X46.7746 Y41.4924
G01 X46.7839 Y41.4974
G01 X46.7937 Y41.5015
G01 X46.8038 Y41.5045
G01 X46.8116 Y41.5062
G01 X46.8221 Y41.5075
G01 X46.8300 Y41.5077
G00 Z2.0000
G00 X49.3351 Y39.7813
G01 F60.00
G01 Z-0.1000
G01 F120.00
G01 X49.2967 Y39.8331
G01 X49.2887 Y39.8443
G01 X49.2814 Y39.8560
G01 X49.2360 Y39.9317
G01 X49.2292 Y39.9437
G01 X49.2230 Y39.9560
G01 X49.1853 Y40.0358
G01 X49.1797 Y40.0484
G01 X49.1747 Y40.0612
G01 X49.1427 Y40.1509
G01 X49.1370 Y40.1707
G01 X49.1155 Y40.2563
G01 X49.1125 Y40.2698
G01 X49.1102 Y40.2833
G01 X49.0972 Y40.3707
G01 X49.0955 Y40.3843
G01 X49.0945 Y40.3980
G01 X49.0902 Y40.4863
G01 X49.0899 Y40.5000
G01 X49.0902 Y40.5137
G01 X49.0945 Y40.6020
G01 X49.0955 Y40.6157
G01 X49.0972 Y40.6293
G01 X49.1102 Y40.7167
G01 X49.1125 Y40.7302
G01 X49.1155 Y40.7437
G01 X49.1370 Y40.8293
G01 X49.1427 Y40.8491
G01 X49.1747 Y40.9388
G01 X49.1797 Y40.9516
G01 X49.1853 Y40.9642
G01 X49.2230 Y41.0440
G01 X49.2292 Y41.0563
G01 X49.2360 Y41.0683
G01 X49.2814 Y41.1440
G01 X49.2887 Y41.1557
G01 X49.2967 Y41.1669
G01 X49.3381 Y41.2227
G01 X49.2633 Y41.2065
G01 X49.2427 Y41.2034
G01 X49.2218 Y41.2018
G01 X49.2010 Y41.2017
G01 X49.1802 Y41.2032
G01 X49.1595 Y41.2062
G01 X49.1459 Y41.2091
G01 X49.1325 Y41.2126
G01 X49.1126 Y41.2192
G01 X49.0407 Y41.2461
G01 X49.0279 Y41.2516
G01 X49.0154 Y41.2578
G01 X48.9973 Y41.2681
G01 X48.9857 Y41.2757
G01 X48.9690 Y41.2882
G01 X48.9584 Y41.2972
G01 X48.9482 Y41.3068
G01 X48.9386 Y41.3168
G01 X48.9294 Y41.3273
G01 X48.9101 Y41.3525
G01 X48.9101 Y39.6544
G01 X48.9254 Y39.6703
G01 X48.9412 Y39.6845
G01 X48.9522 Y39.6932
G01 X49.0082 Y39.7351
G01 X49.0195 Y39.7431
G01 X49.0372 Y39.7542
G01 X49.0557 Y39.7638
G01 X49.0749 Y39.7721
G01 X49.0946 Y39.7789
G01 X49.1148 Y39.7842
G01 X49.1285 Y39.7869
G01 X49.1422 Y39.7889
G01 X49.1561 Y39.7903
G01 X49.2258 Y39.7952
G01 X49.2397 Y39.7959
G01 X49.2605 Y39.7956
G01 X49.2744 Y39.7945
G01 X49.2882 Y39.7927
G01 X49.3087 Y39.7888
G01 X49.3222 Y39.7853
G01 X49.3351 Y39.7813
G00 Z2.0000
G00 X49.8398 Y39.3952
G01 F60.00
G01 Z-0.1000
G01 F120.00
G01 X49.8398 Y39.4017
G01 X49.8346 Y39.4035
G01 X49.8371 Y39.3996
G01 X49.8398 Y39.3952
G00 Z2.0000
G00 X50.0122 Y39.5268
G01 F60.00
G01 Z-0.1000
G01 F120.00
G01 X50.0122 Y38.6195
G01 X50.0132 Y38.5968
G01 X50.0166 Y38.5718
G01 X50.0219 Y38.5497
G01 X50.0249 Y38.5396
G01 X50.0328 Y38.5184
G01 X50.0426 Y38.4979
G01 X50.0556 Y38.4762
G01 X50.0707 Y38.4559
G01 X50.0840 Y38.4410
G01 X61.1591 Y27.3657
G01 X61.1739 Y27.3522
G01 X61.1800 Y27.3470
G01 X61.1939 Y27.3367
G01 X61.2027 Y27.3308
G01 X61.2223 Y27.3194
G01 X61.2452 Y27.3088
G01 X61.2666 Y27.3013
G01 X61.2912 Y27.2951
G01 X61.3162 Y27.2914
G01 X61.3388 Y27.2902
G01 X63.7193 Y27.2902
G01 X63.7419 Y27.2912
G01 X63.7498 Y27.2921
G01 X63.7696 Y27.2951
G01 X63.7942 Y27.3013
G01 X63.8155 Y27.3088
G01 X63.8228 Y27.3119
G01 X63.8408 Y27.3206
G01 X63.8581 Y27.3308
G01 X63.8647 Y27.3351
G01 X63.8829 Y27.3487
G01 X63.9016 Y27.3657
G01 X70.3113 Y33.7754
G01 X70.3283 Y33.7941
G01 X70.3434 Y33.8144
G01 X70.3564 Y33.8362
G01 X70.3662 Y33.8566
G01 X70.3757 Y33.8828
G01 X70.3819 Y33.9074
G01 X70.3856 Y33.9324
G01 X70.3868 Y33.9577
G01 X70.3868 Y44.6422
G01 X70.9470 Y45.2024
G01 X70.9568 Y45.1971
G01 X71.0278 Y45.1635
G01 X71.0376 Y45.1594
G01 X71.1165 Y45.1313
G01 X71.2029 Y45.1097
G01 X71.2910 Y45.0966
G01 X71.3747 Y45.0924
G01 X71.3853 Y45.0924
G01 X71.4690 Y45.0966
G01 X71.5519 Y45.1088
G01 X71.5623 Y45.1109
G01 X71.6435 Y45.1313
G01 X71.7274 Y45.1613
G01 X71.8079 Y45.1994
G01 X71.8799 Y45.2424
G01 X71.8886 Y45.2483
G01 X71.9517 Y45.2950
G01 X71.9579 Y45.3000
G01 X72.0219 Y45.3581
G01 X72.0782 Y45.4201
G01 X72.0850 Y45.4283
G01 X72.1348 Y45.4957
G01 X72.1806 Y45.5721
G01 X72.2165 Y45.6478
G01 X72.2206 Y45.6576
G01 X72.2487 Y45.7365
G01 X72.2703 Y45.8229
G01 X72.2827 Y45.9058
G01 X72.2838 Y45.9163
G01 X72.2877 Y46.0000
G01 X72.2838 Y46.0837
G01 X72.2827 Y46.0942
G01 X72.2703 Y46.1771
G01 X72.2487 Y46.2635
G01 X72.2187 Y46.3474
G01 X72.1829 Y46.4232
G01 X72.1780 Y46.4325
G01 X72.1348 Y46.5043
G01 X72.0850 Y46.5717
G01 X72.0782 Y46.5799
G01 X72.0255 Y46.6380
G01 X72.0180 Y46.6455
G01 X71.9559 Y46.7017
G01 X71.8843 Y46.7548
G01 X71.8079 Y46.8006
G01 X71.7322 Y46.8365
G01 X71.7224 Y46.8406
G01 X71.6435 Y46.8687
G01 X71.5623 Y46.8891
G01 X71.5519 Y46.8912
G01 X71.4742 Y46.9027
G01 X71.4637 Y46.9038
G01 X71.3800 Y46.9077
G01 X71.2910 Y46.9034
G01 X71.2029 Y46.8903
G01 X71.1216 Y46.8701
G01 X71.1115 Y46.8670
G01 X71.0326 Y46.8387
G01 X70.9568 Y46.8029
G01 X70.9475 Y46.7980
G01 X70.8779 Y46.7562
G01 X70.8714 Y46.7517
G01 X70.8041 Y46.7017
G01 X70.7381 Y46.6419
G01 X70.6783 Y46.5759
G01 X70.6252 Y46.5043
G01 X70.5794 Y46.4279
G01 X70.5413 Y46.3474
G01 X70.5113 Y46.2635
G01 X70.4909 Y46.1823
G01 X70.4888 Y46.1719
G01 X70.4766 Y46.0890
G01 X70.4723 Y46.0000
G01 X70.4766 Y45.9110
G01 X70.4888 Y45.8281
G01 X70.4909 Y45.8177
G01 X70.5113 Y45.7365
G01 X70.5394 Y45.6576
G01 X70.5435 Y45.6478
G01 X70.5771 Y45.5768
G01 X70.5824 Y45.5670
G01 X69.9430 Y44.9275
G01 X69.9297 Y44.9126
G01 X69.9177 Y44.8966
G01 X69.9132 Y44.8900
G01 X69.9016 Y44.8705
G01 X69.8918 Y44.8501
G01 X69.8889 Y44.8427
G01 X69.8823 Y44.8238
G01 X69.8761 Y44.7993
G01 X69.8724 Y44.7743
G01 X69.8712 Y44.7490
G01 X69.8712 Y34.0645
G01 X63.6125 Y27.8058
G01 X61.4482 Y27.8058
G01 X50.5278 Y38.7262
G01 X50.5278 Y39.5268
G01 X50.5651 Y39.5364
G01 X50.6507 Y39.5671
G01 X50.6581 Y39.5700
G01 X50.7451 Y39.6112
G01 X50.8277 Y39.6606
G01 X50.8342 Y39.6651
G01 X50.9093 Y39.7210
G01 X50.9788 Y39.7838
G01 X50.9862 Y39.7912
G01 X51.0455 Y39.8567
G01 X51.0507 Y39.8628
G01 X51.1079 Y39.9401
G01 X51.1588 Y40.0249
G01 X51.2010 Y40.1144
G01 X51.2327 Y40.2024
G01 X51.2358 Y40.2126
G01 X51.2572 Y40.2982
G01 X51.2593 Y40.3086
G01 X51.2729 Y40.4012
G01 X51.2777 Y40.5000
G01 X51.2729 Y40.5988
G01 X51.2593 Y40.6914
G01 X51.2572 Y40.7018
G01 X51.2358 Y40.7874
G01 X51.2327 Y40.7976
G01 X51.2010 Y40.8856
G01 X51.1588 Y40.9751
G01 X51.1079 Y41.0599
G01 X51.0523 Y41.1351
G01 X51.0455 Y41.1433
G01 X50.9862 Y41.2088
G01 X50.9788 Y41.2162
G01 X50.9093 Y41.2790
G01 X50.8299 Y41.3379
G01 X50.7451 Y41.3888
G01 X50.6605 Y41.4289
G01 X50.6507 Y41.4329
G01 X50.5676 Y41.4627
G01 X50.5600 Y41.4651
G01 X50.4666 Y41.4884
G01 X50.3688 Y41.5029
G01 X50.2700 Y41.5077
G01 X50.1712 Y41.5029
G01 X50.0734 Y41.4884
G01 X49.9775 Y41.4644
G01 X49.8844 Y41.4310
G01 X49.7949 Y41.3888
G01 X49.7101 Y41.3379
G01 X49.6307 Y41.2790
G01 X49.5574 Y41.2126
G01 X49.4910 Y41.1393
G01 X49.4321 Y41.0599
G01 X49.3812 Y40.9751
G01 X49.3390 Y40.8856
G01 X49.3073 Y40.7976
G01 X49.3049 Y40.7900
G01 X49.2816 Y40.6966
G01 X49.2671 Y40.5988
G01 X49.2623 Y40.5000
G01 X49.2671 Y40.4012
G01 X49.2816 Y40.3034
G01 X49.3056 Y40.2075
G01 X49.3390 Y40.1144
G01 X49.3789 Y40.0297
G01 X49.3825 Y40.0226
G01 X49.4321 Y39.9401
G01 X49.4910 Y39.8607
G01 X49.5574 Y39.7874
G01 X49.6267 Y39.7245
G01 X49.6328 Y39.7193
G01 X49.7101 Y39.6621
G01 X49.7903 Y39.6139
G01 X49.7973 Y39.6100
G01 X49.8795 Y39.5711
G01 X49.8868 Y39.5680
G01 X49.9749 Y39.5364
G01 X50.0122 Y39.5268
G00 Z2.0000
G00 X50.7057 Y39.4036
G01 F60.00
G01 Z-0.1000
G01 F120.00
G01 X50.7002 Y39.4017
G01 X50.7002 Y39.3952
G01 X50.7045 Y39.4018
G01 X50.7057 Y39.4036
G00 Z2.0000
G00 X52.4523 Y40.1423
G01 F60.00
G01 Z-0.1000
G01 F120.00
G01 X52.1677 Y40.1423
G01 X52.1677 Y39.5579
G01 X52.1721 Y39.5176
G01 X52.2122 Y39.4101
G01 X52.2798 Y39.3198
G01 X52.3701 Y39.2522
G01 X52.4776 Y39.2121
G01 X52.5179 Y39.2077
G01 X53.1023 Y39.2077
G01 X53.1023 Y39.4923
G01 X52.5600 Y39.4923
G01 X52.5521 Y39.4925
G01 X52.5416 Y39.4938
G01 X52.5287 Y39.4969
G01 X52.5188 Y39.5005
G01 X52.5069 Y39.5062
G01 X52.4958 Y39.5135
G01 X52.4876 Y39.5202
G01 X52.4802 Y39.5276
G01 X52.4719 Y39.5380
G01 X52.4676 Y39.5446
G01 X52.4638 Y39.5516
G01 X52.4605 Y39.5588
G01 X52.4577 Y39.5662
G01 X52.4555 Y39.5738
G01 X52.4538 Y39.5816
G01 X52.4528 Y39.5894
G01 X52.4523 Y39.5974
G01 X52.4523 Y40.1423
G00 Z2.0000
G00 X52.5600 Y41.5077
G01 F60.00
G01 Z-0.1000
G01 F120.00
G01 X53.1023 Y41.5077
G01 X53.1023 Y41.7922
G01 X52.5179 Y41.7922
G01 X52.4776 Y41.7879
G01 X52.3701 Y41.7478
G01 X52.2798 Y41.6802
G01 X52.2122 Y41.5899
G01 X52.1721 Y41.4824
G01 X52.1677 Y41.4421
G01 X52.1677 Y40.8577
G01 X52.4523 Y40.8577
G01 X52.4523 Y41.4000
G01 X52.4525 Y41.4079
G01 X52.4538 Y41.4184
G01 X52.4562 Y41.4287
G01 X52.4585 Y41.4363
G01 X52.4626 Y41.4461
G01 X52.4662 Y41.4531
G01 X52.4719 Y41.4620
G01 X52.4767 Y41.4684
G01 X52.4838 Y41.4762
G01 X52.4896 Y41.4816
G01 X52.4980 Y41.4881
G01 X52.5046 Y41.4924
G01 X52.5139 Y41.4974
G01 X52.5237 Y41.5015
G01 X52.5338 Y41.5045
G01 X52.5416 Y41.5062
G01 X52.5521 Y41.5075
G01 X52.5600 Y41.5077
G00 Z2.0000
G00 X55.0651 Y39.7813
G01 F60.00
G01 Z-0.1000
G01 F120.00
G01 X55.0267 Y39.8331
G01 X55.0187 Y39.8443
G01 X55.0114 Y39.8560
G01 X54.9660 Y39.9317
G01 X54.9592 Y39.9437
G01 X54.9530 Y39.9560
G01 X54.9153 Y40.0358
G01 X54.9097 Y40.0484
G01 X54.9047 Y40.0612
G01 X54.8727 Y40.1509
G01 X54.8670 Y40.1707
G01 X54.8455 Y40.2563
G01 X54.8425 Y40.2698
G01 X54.8402 Y40.2833
G01 X54.8272 Y40.3707
G01 X54.8255 Y40.3843
G01 X54.8245 Y40.3980
G01 X54.8202 Y40.4863
G01 X54.8199 Y40.5000
G01 X54.8202 Y40.5137
G01 X54.8245 Y40.6020
G01 X54.8255 Y40.6157
G01 X54.8272 Y40.6293
G01 X54.8402 Y40.7167
G01 X54.8425 Y40.7302
G01 X54.8455 Y40.7437
G01 X54.8670 Y40.8293
G01 X54.8727 Y40.8491
G01 X54.9047 Y40.9388
G01 X54.9097 Y40.9516
G01 X54.9153 Y40.9642
G01 X54.9530 Y41.0440
G01 X54.9592 Y41.0563
G01 X54.9660 Y41.0683
G01 X55.0114 Y41.1440
G01 X55.0187 Y41.1557
G01 X55.0267 Y41.1669
G01 X55.0681 Y41.2227
G01 X54.9933 Y41.2065
G01 X54.9727 Y41.2034
G01 X54.9518 Y41.2018
G01 X54.9310 Y41.2017
G01 X54.9102 Y41.2032
G01 X54.8895 Y41.2062
G01 X54.8759 Y41.2091
G01 X54.8625 Y41.2126
G01 X54.8426 Y41.2192
G01 X54.7707 Y41.2461
G01 X54.7579 Y41.2516
G01 X54.7454 Y41.2578
G01 X54.7273 Y41.2681
G01 X54.7157 Y41.2757
G01 X54.6990 Y41.2882
G01 X54.6884 Y41.2972
G01 X54.6782 Y41.3068
G01 X54.6686 Y41.3168
G01 X54.6594 Y41.3273
G01 X54.6401 Y41.3525
G01 X54.6401 Y39.6544
G01 X54.6554 Y39.6703
G01 X54.6712 Y39.6845
G01 X54.6822 Y39.6932
G01 X54.7382 Y39.7351
G01 X54.7495 Y39.7431
G01 X54.7672 Y39.7542
G01 X54.7857 Y39.7638
G01 X54.8049 Y39.7721
G01 X54.8246 Y39.7789
G01 X54.8448 Y39.7842
G01 X54.8585 Y39.7869
G01 X54.8722 Y39.7889
G01 X54.8861 Y39.7903
G01 X54.9558 Y39.7952
G01 X54.9697 Y39.7959
G01 X54.9905 Y39.7956
G01 X55.0044 Y39.7945
G01 X55.0182 Y39.7927
G01 X55.0387 Y39.7888
G01 X55.0522 Y39.7853
G01 X55.0651 Y39.7813
G00 Z2.0000
G00 X55.5698 Y39.3952
G01 F60.00
G01 Z-0.1000
G01 F120.00
G01 X55.5698 Y39.4017
G01 X55.5646 Y39.4035
G01 X55.5671 Y39.3996
G01 X55.5698 Y39.3952
G00 Z2.0000
G00 X55.7422 Y39.5268
G01 F60.00
G01 Z-0.1000
G01 F120.00
G01 X55.7422 Y33.7394
G01 X55.7434 Y33.7141
G01 X55.7466 Y33.6917
G01 X55.7483 Y33.6839
G01 X55.7533 Y33.6646
G01 X55.7599 Y33.6457
G01 X55.7628 Y33.6383
G01 X55.7714 Y33.6202
G01 X55.7828 Y33.6006
G01 X55.7887 Y33.5918
G01 X55.8007 Y33.5758
G01 X55.8177 Y33.5571
G01 X61.4081 Y27.9667
G01 X61.4268 Y27.9497
G01 X61.4428 Y27.9377
G01 X61.4516 Y27.9318
G01 X61.4712 Y27.9204
G01 X61.4893 Y27.9118
G01 X61.4967 Y27.9089
G01 X61.5156 Y27.9023
G01 X61.5349 Y27.8973
G01 X61.5427 Y27.8956
G01 X61.5625 Y27.8927
G01 X61.5878 Y27.8912
G01 X63.4704 Y27.8912
G01 X63.4930 Y27.8922
G01 X63.5009 Y27.8931
G01 X63.5207 Y27.8961
G01 X63.5452 Y27.9023
G01 X63.5690 Y27.9108
G01 X63.5872 Y27.9192
G01 X63.5965 Y27.9242
G01 X63.6114 Y27.9332
G01 X63.6179 Y27.9377
G01 X63.6339 Y27.9497
G01 X63.6527 Y27.9667
G01 X67.8742 Y32.1882
G01 X67.8893 Y32.2051
G01 X67.9013 Y32.2211
G01 X67.9058 Y32.2276
G01 X67.9174 Y32.2471
G01 X67.9282 Y32.2700
G01 X67.9351 Y32.2888
G01 X67.9381 Y32.2989
G01 X67.9434 Y32.3209
G01 X67.9466 Y32.3434
G01 X67.9478 Y32.3660
G01 X67.9478 Y32.6298
G01 X67.9585 Y32.6330
G01 X68.0374 Y32.6613
G01 X68.1179 Y32.6994
G01 X68.1943 Y32.7452
G01 X68.2659 Y32.7983
G01 X68.3319 Y32.8581
G01 X68.3917 Y32.9241
G01 X68.4448 Y32.9957
G01 X68.4880 Y33.0675
G01 X68.4918 Y33.0744
G01 X68.5287 Y33.1526
G01 X68.5587 Y33.2365
G01 X68.5803 Y33.3229
G01 X68.5927 Y33.4058
G01 X68.5938 Y33.4163
G01 X68.5976 Y33.4947
G01 X68.5976 Y33.5053
G01 X68.5934 Y33.5890
G01 X68.5803 Y33.6771
G01 X68.5587 Y33.7635
G01 X68.5306 Y33.8424
G01 X68.5265 Y33.8522
G01 X68.4929 Y33.9232
G01 X68.4880 Y33.9325
G01 X68.4448 Y34.0043
G01 X68.3917 Y34.0759
G01 X68.3319 Y34.1419
G01 X68.2699 Y34.1982
G01 X68.2617 Y34.2050
G01 X68.1986 Y34.2517
G01 X68.1899 Y34.2576
G01 X68.1179 Y34.3006
G01 X68.0374 Y34.3387
G01 X67.9535 Y34.3687
G01 X67.8723 Y34.3891
G01 X67.8619 Y34.3912
G01 X67.7842 Y34.4027
G01 X67.7737 Y34.4038
G01 X67.6900 Y34.4077
G01 X67.6010 Y34.4034
G01 X67.5129 Y34.3903
G01 X67.4316 Y34.3701
G01 X67.4215 Y34.3670
G01 X67.3476 Y34.3406
G01 X67.3378 Y34.3365
G01 X67.2621 Y34.3006
G01 X67.1901 Y34.2576
G01 X67.1835 Y34.2533
G01 X67.1141 Y34.2017
G01 X67.0520 Y34.1455
G01 X67.0445 Y34.1380
G01 X66.9883 Y34.0759
G01 X66.9383 Y34.0086
G01 X66.9324 Y33.9999
G01 X66.8894 Y33.9279
G01 X66.8535 Y33.8522
G01 X66.8494 Y33.8424
G01 X66.8230 Y33.7685
G01 X66.8199 Y33.7584
G01 X66.7997 Y33.6771
G01 X66.7873 Y33.5942
G01 X66.7862 Y33.5837
G01 X66.7823 Y33.5000
G01 X66.7862 Y33.4163
G01 X66.7873 Y33.4058
G01 X66.7997 Y33.3229
G01 X66.8199 Y33.2416
G01 X66.8230 Y33.2315
G01 X66.8494 Y33.1576
G01 X66.8535 Y33.1478
G01 X66.8894 Y33.0721
G01 X66.9324 Y33.0001
G01 X66.9367 Y32.9935
G01 X66.9883 Y32.9241
G01 X67.0481 Y32.8581
G01 X67.1141 Y32.7983
G01 X67.1814 Y32.7483
G01 X67.1901 Y32.7424
G01 X67.2621 Y32.6994
G01 X67.3378 Y32.6635
G01 X67.3476 Y32.6594
G01 X67.4215 Y32.6330
G01 X67.4322 Y32.6298
G01 X67.4322 Y32.4754
G01 X63.3636 Y28.4068
G01 X61.6972 Y28.4068
G01 X56.2578 Y33.8462
G01 X56.2578 Y39.5268
G01 X56.2951 Y39.5364
G01 X56.3807 Y39.5671
G01 X56.3881 Y39.5700
G01 X56.4751 Y39.6112
G01 X56.5577 Y39.6606
G01 X56.5642 Y39.6651
G01 X56.6393 Y39.7210
G01 X56.7088 Y39.7838
G01 X56.7162 Y39.7912
G01 X56.7755 Y39.8567
G01 X56.7807 Y39.8628
G01 X56.8379 Y39.9401
G01 X56.8888 Y40.0249
G01 X56.9310 Y40.1144
G01 X56.9627 Y40.2024
G01 X56.9658 Y40.2126
G01 X56.9872 Y40.2982
G01 X56.9893 Y40.3086
G01 X57.0029 Y40.4012
G01 X57.0077 Y40.5000
G01 X57.0029 Y40.5988
G01 X56.9893 Y40.6914
G01 X56.9872 Y40.7018
G01 X56.9658 Y40.7874
G01 X56.9627 Y40.7976
G01 X56.9310 Y40.8856
G01 X56.8888 Y40.9751
G01 X56.8379 Y41.0599
G01 X56.7823 Y41.1351
G01 X56.7755 Y41.1433
G01 X56.7162 Y41.2088
G01 X56.7088 Y41.2162
G01 X56.6393 Y41.2790
G01 X56.5599 Y41.3379
G01 X56.4751 Y41.3888
G01 X56.3905 Y41.4289
G01 X56.3807 Y41.4329
G01 X56.2976 Y41.4627
G01 X56.2900 Y41.4651
G01 X56.1966 Y41.4884
G01 X56.0988 Y41.5029
G01 X56.0000 Y41.5077
G01 X55.9012 Y41.5029
G01 X55.8034 Y41.4884
G01 X55.7075 Y41.4644
G01 X55.6144 Y41.4310
G01 X55.5249 Y41.3888
G01 X55.4401 Y41.3379
G01 X55.3607 Y41.2790
G01 X55.2874 Y41.2126
G01 X55.2210 Y41.1393
G01 X55.1621 Y41.0599
G01 X55.1112 Y40.9751
G01 X55.0690 Y40.8856
G01 X55.0373 Y40.7976
G01 X55.0349 Y40.7900
G01 X55.0116 Y40.6966
G01 X54.9971 Y40.5988
G01 X54.9923 Y40.5000
G01 X54.9971 Y40.4012
G01 X55.0116 Y40.3034
G01 X55.0356 Y40.2075
G01 X55.0690 Y40.1144
G01 X55.1089 Y40.0297
G01 X55.1125 Y40.0226
G01 X55.1621 Y39.9401
G01 X55.2210 Y39.8607
G01 X55.2874 Y39.7874
G01 X55.3567 Y39.7245
G01 X55.3628 Y39.7193
G01 X55.4401 Y39.6621
G01 X55.5203 Y39.6139
G01 X55.5273 Y39.6100
G01 X55.6095 Y39.5711
G01 X55.6168 Y39.5680
G01 X55.7049 Y39.5364
G01 X55.7422 Y39.5268
G00 Z2.0000
G00 X56.4357 Y39.4036
G01 F60.00
G01 Z-0.1000
G01 F120.00
G01 X56.4302 Y39.4017
G01 X56.4302 Y39.3952
G01 X56.4345 Y39.4018
G01 X56.4357 Y39.4036
G00 Z2.0000
G00 X55.1317 Y34.3662
G01 F60.00
G01 Z-0.1000
G01 F120.00
G01 X55.5698 Y33.9281
G01 X55.5698 Y34.5491
G01 X55.5628 Y34.5372
G01 X55.5551 Y34.5255
G01 X55.5426 Y34.5088
G01 X55.5336 Y34.4982
G01 X55.5241 Y34.4881
G01 X55.5089 Y34.4738
G01 X55.4927 Y34.4607
G01 X55.4367 Y34.4188
G01 X55.4254 Y34.4108
G01 X55.4137 Y34.4033
G01 X55.4016 Y34.3964
G01 X55.3892 Y34.3901
G01 X55.3764 Y34.3844
G01 X55.3569 Y34.3771
G01 X55.3436 Y34.3731
G01 X55.3301 Y34.3697
G01 X55.3096 Y34.3659
G01 X55.2888 Y34.3636
G01 X55.2122 Y34.3583
G01 X55.1913 Y34.3581
G01 X55.1774 Y34.3588
G01 X55.1636 Y34.3602
G01 X55.1498 Y34.3623
G01 X55.1317 Y34.3662
G00 Z2.0000
G00 X55.4428 Y28.3292
G01 F60.00
G01 Z-0.1000
G01 F120.00
G01 X56.0623 Y28.3292
G01 X55.6232 Y28.7683
G01 X55.6267 Y28.7549
G01 X55.6296 Y28.7413
G01 X55.6325 Y28.7207
G01 X55.6336 Y28.7068
G01 X55.6341 Y28.6929
G01 X55.6334 Y28.6720
G01 X55.6312 Y28.6513
G01 X55.6213 Y28.5821
G01 X55.6190 Y28.5684
G01 X55.6160 Y28.5548
G01 X55.6123 Y28.5414
G01 X55.6080 Y28.5282
G01 X55.6030 Y28.5152
G01 X55.5943 Y28.4962
G01 X55.5843 Y28.4779
G01 X55.5768 Y28.4662
G01 X55.5688 Y28.4548
G01 X55.5557 Y28.4385
G01 X55.5053 Y28.3805
G01 X55.4907 Y28.3656
G01 X55.4804 Y28.3563
G01 X55.4696 Y28.3475
G01 X55.4584 Y28.3393
G01 X55.4428 Y28.3292
G00 Z2.0000
G00 X58.0912 Y27.3253
G01 F60.00
G01 Z-0.1000
G01 F120.00
G01 X58.1744 Y27.3550
G01 X58.1874 Y27.3593
G01 X58.2007 Y27.3630
G01 X58.2863 Y27.3845
G01 X58.2998 Y27.3875
G01 X58.3133 Y27.3898
G01 X58.4007 Y27.4028
G01 X58.4143 Y27.4045
G01 X58.4280 Y27.4055
G01 X58.5163 Y27.4098
G01 X58.5300 Y27.4101
G01 X58.9300 Y27.4101
G01 X58.9437 Y27.4098
G01 X59.0320 Y27.4055
G01 X59.0525 Y27.4037
G01 X59.1535 Y27.3887
G01 X59.1670 Y27.3860
G01 X59.2044 Y27.3768
G01 X59.1124 Y27.4688
G01 X53.1010 Y27.4688
G01 X53.0873 Y27.4691
G01 X53.0588 Y27.4708
G01 X53.0306 Y27.4747
G01 X53.0103 Y27.4785
G01 X52.9827 Y27.4854
G01 X52.9631 Y27.4916
G01 X52.9364 Y27.5015
G01 X52.9105 Y27.5134
G01 X52.8982 Y27.5196
G01 X52.8862 Y27.5264
G01 X52.8677 Y27.5375
G01 X52.8563 Y27.5452
G01 X52.8281 Y27.5664
G01 X52.8177 Y27.5754
G01 X52.7968 Y27.5948
G01 X48.4302 Y31.9613
G01 X48.4302 Y30.9903
G01 X48.4969 Y30.9588
G01 X48.5092 Y30.9526
G01 X48.5211 Y30.9458
G01 X48.5885 Y30.9055
G01 X48.6058 Y30.8942
G01 X48.6744 Y30.8434
G01 X48.6852 Y30.8350
G01 X48.6957 Y30.8260
G01 X48.7538 Y30.7733
G01 X48.7638 Y30.7638
G01 X48.7733 Y30.7538
G01 X48.8260 Y30.6957
G01 X48.8393 Y30.6799
G01 X48.8902 Y30.6113
G01 X48.8981 Y30.6001
G01 X48.9055 Y30.5885
G01 X48.9458 Y30.5211
G01 X48.9526 Y30.5092
G01 X48.9588 Y30.4969
G01 X48.9924 Y30.4259
G01 X48.9979 Y30.4134
G01 X49.0029 Y30.4005
G01 X49.0293 Y30.3266
G01 X49.0336 Y30.3136
G01 X49.0373 Y30.3003
G01 X49.0564 Y30.2241
G01 X49.0594 Y30.2107
G01 X49.0617 Y30.1972
G01 X49.0733 Y30.1195
G01 X49.0755 Y30.0990
G01 X49.0798 Y30.0137
G01 X49.0801 Y30.0000
G01 X49.0798 Y29.9863
G01 X49.0760 Y29.9078
G01 X49.0749 Y29.8941
G01 X49.0733 Y29.8805
G01 X49.0617 Y29.8028
G01 X49.0580 Y29.7825
G01 X49.0373 Y29.6997
G01 X49.0336 Y29.6864
G01 X49.0293 Y29.6734
G01 X49.0029 Y29.5995
G01 X48.9979 Y29.5866
G01 X48.9924 Y29.5741
G01 X48.9588 Y29.5031
G01 X48.9526 Y29.4908
G01 X48.9458 Y29.4789
G01 X48.9055 Y29.4115
G01 X48.8981 Y29.3999
G01 X48.8902 Y29.3887
G01 X48.8434 Y29.3256
G01 X48.8350 Y29.3148
G01 X48.8260 Y29.3043
G01 X48.7733 Y29.2462
G01 X48.7638 Y29.2362
G01 X48.7538 Y29.2267
G01 X48.6957 Y29.1740
G01 X48.6852 Y29.1650
G01 X48.6744 Y29.1566
G01 X48.6113 Y29.1098
G01 X48.6001 Y29.1019
G01 X48.5885 Y29.0945
G01 X48.5211 Y29.0542
G01 X48.5092 Y29.0474
G01 X48.4969 Y29.0412
G01 X48.4259 Y29.0076
G01 X48.4134 Y29.0021
G01 X48.4005 Y28.9971
G01 X48.3266 Y28.9707
G01 X48.3136 Y28.9664
G01 X48.3003 Y28.9627
G01 X48.2241 Y28.9436
G01 X48.2107 Y28.9406
G01 X48.1972 Y28.9383
G01 X48.1195 Y28.9267
G01 X48.1059 Y28.9251
G01 X48.0922 Y28.9240
G01 X48.0137 Y28.9202
G01 X48.0000 Y28.9199
G01 X47.9863 Y28.9202
G01 X47.9078 Y28.9240
G01 X47.8873 Y28.9258
G01 X47.8028 Y28.9383
G01 X47.7893 Y28.9406
G01 X47.7759 Y28.9436
G01 X47.6997 Y28.9627
G01 X47.6864 Y28.9664
G01 X47.6734 Y28.9707
G01 X47.5995 Y28.9971
G01 X47.5866 Y29.0021
G01 X47.5741 Y29.0076
G01 X47.5031 Y29.0412
G01 X47.4908 Y29.0474
G01 X47.4789 Y29.0542
G01 X47.4057 Y29.0981
G01 X47.3887 Y29.1098
G01 X47.3256 Y29.1566
G01 X47.3148 Y29.1650
G01 X47.3043 Y29.1740
G01 X47.2411 Y29.2314
G01 X47.2267 Y29.2462
G01 X47.1740 Y29.3043
G01 X47.1650 Y29.3148
G01 X47.1566 Y29.3256
G01 X47.1098 Y29.3887
G01 X47.1019 Y29.3999
G01 X47.0945 Y29.4115
G01 X47.0542 Y29.4789
G01 X47.0442 Y29.4969
G01 X47.0076 Y29.5741
G01 X47.0021 Y29.5866
G01 X46.9971 Y29.5995
G01 X46.9684 Y29.6799
G01 X46.9627 Y29.6997
G01 X46.9420 Y29.7825
G01 X46.9393 Y29.7960
G01 X46.9331 Y29.8373
G01 X46.9262 Y29.8220
G01 X46.9198 Y29.8097
G01 X46.9128 Y29.7977
G01 X46.9051 Y29.7861
G01 X46.8969 Y29.7748
G01 X46.8882 Y29.7640
G01 X46.8789 Y29.7536
G01 X46.8691 Y29.7437
G01 X46.8589 Y29.7343
G01 X46.8482 Y29.7255
G01 X46.7811 Y29.6753
G01 X46.7696 Y29.6675
G01 X46.7577 Y29.6603
G01 X46.7392 Y29.6506
G01 X46.7200 Y29.6424
G01 X46.7069 Y29.6377
G01 X46.6936 Y29.6336
G01 X46.6801 Y29.6303
G01 X46.6664 Y29.6275
G01 X46.6458 Y29.6248
G01 X46.5691 Y29.6192
G01 X46.5483 Y29.6185
G01 X46.5274 Y29.6193
G01 X46.5136 Y29.6208
G01 X46.4998 Y29.6229
G01 X46.4817 Y29.6268
G01 X53.6782 Y22.4302
G01 X80.3218 Y22.4302
G01 X87.1658 Y29.2742
G01 X87.1658 Y34.7058
G01 X86.7655 Y35.1061
G01 X86.7947 Y35.0442
G01 X86.8003 Y35.0316
G01 X86.8053 Y35.0188
G01 X86.8350 Y34.9356
G01 X86.8393 Y34.9226
G01 X86.8430 Y34.9093
G01 X86.8645 Y34.8237
G01 X86.8675 Y34.8102
G01 X86.8698 Y34.7967
G01 X86.8828 Y34.7093
G01 X86.8845 Y34.6957
G01 X86.8855 Y34.6820
G01 X86.8898 Y34.5937
G01 X86.8901 Y34.5800
G01 X86.8898 Y34.5663
G01 X86.8855 Y34.4780
G01 X86.8845 Y34.4643
G01 X86.8828 Y34.4507
G01 X86.8698 Y34.3633
G01 X86.8675 Y34.3498
G01 X86.8645 Y34.3363
G01 X86.8430 Y34.2507
G01 X86.8393 Y34.2374
G01 X86.8350 Y34.2244
G01 X86.8053 Y34.1412
G01 X86.8003 Y34.1284
G01 X86.7947 Y34.1158
G01 X86.7570 Y34.0360
G01 X86.7508 Y34.0237
G01 X86.7440 Y34.0117
G01 X86.6986 Y33.9360
G01 X86.6913 Y33.9243
G01 X86.6833 Y33.9131
G01 X86.6307 Y33.8422
G01 X86.6223 Y33.8313
G01 X86.6133 Y33.8209
G01 X86.5540 Y33.7555
G01 X86.5445 Y33.7455
G01 X86.5345 Y33.7360
G01 X86.4691 Y33.6767
G01 X86.4587 Y33.6677
G01 X86.4478 Y33.6593
G01 X86.3769 Y33.6067
G01 X86.3657 Y33.5987
G01 X86.3540 Y33.5914
G01 X86.2783 Y33.5460
G01 X86.2663 Y33.5392
G01 X86.2540 Y33.5330
G01 X86.1679 Y33.4924
G01 X86.1488 Y33.4847
G01 X86.0656 Y33.4550
G01 X86.0526 Y33.4507
G01 X86.0393 Y33.4470
G01 X85.9537 Y33.4255
G01 X85.9402 Y33.4225
G01 X85.9267 Y33.4202
G01 X85.8393 Y33.4072
G01 X85.8188 Y33.4049
G01 X85.7237 Y33.4002
G01 X85.7100 Y33.3999
G01 X85.0031 Y33.3999
G01 X84.9080 Y33.4045
G01 X84.8943 Y33.4055
G01 X84.8807 Y33.4072
G01 X84.7933 Y33.4202
G01 X84.7798 Y33.4225
G01 X84.7663 Y33.4255
G01 X84.6807 Y33.4470
G01 X84.6674 Y33.4507
G01 X84.6544 Y33.4550
G01 X84.5712 Y33.4847
G01 X84.5584 Y33.4897
G01 X84.5458 Y33.4953
G01 X84.4839 Y33.5245
G01 X84.8066 Y33.2018
G01 X84.8807 Y33.2128
G01 X84.8943 Y33.2145
G01 X84.9080 Y33.2155
G01 X85.0031 Y33.2201
G01 X85.7100 Y33.2201
G01 X85.7237 Y33.2198
G01 X85.8120 Y33.2155
G01 X85.8257 Y33.2145
G01 X85.8393 Y33.2128
G01 X85.9267 Y33.1998
G01 X85.9402 Y33.1975
G01 X85.9537 Y33.1945
G01 X86.0393 Y33.1730
G01 X86.0526 Y33.1693
G01 X86.0656 Y33.1650
G01 X86.1488 Y33.1353
G01 X86.1616 Y33.1303
G01 X86.1742 Y33.1247
G01 X86.2540 Y33.0870
G01 X86.2663 Y33.0808
G01 X86.2783 Y33.0740
G01 X86.3540 Y33.0286
G01 X86.3657 Y33.0213
G01 X86.3769 Y33.0133
G01 X86.4478 Y32.9607
G01 X86.4587 Y32.9523
G01 X86.4691 Y32.9433
G01 X86.5345 Y32.8840
G01 X86.5445 Y32.8745
G01 X86.5540 Y32.8645
G01 X86.6133 Y32.7991
G01 X86.6223 Y32.7887
G01 X86.6307 Y32.7778
G01 X86.6833 Y32.7069
G01 X86.6913 Y32.6957
G01 X86.6986 Y32.6840
G01 X86.7440 Y32.6083
G01 X86.7508 Y32.5963
G01 X86.7570 Y32.5840
G01 X86.7947 Y32.5042
G01 X86.8003 Y32.4916
G01 X86.8053 Y32.4788
G01 X86.8350 Y32.3956
G01 X86.8393 Y32.3826
G01 X86.8430 Y32.3693
G01 X86.8645 Y32.2837
G01 X86.8675 Y32.2702
G01 X86.8698 Y32.2567
G01 X86.8828 Y32.1693
G01 X86.8845 Y32.1557
G01 X86.8855 Y32.1420
G01 X86.8898 Y32.0537
G01 X86.8901 Y32.0400
G01 X86.8898 Y32.0263
G01 X86.8855 Y31.9380
G01 X86.8845 Y31.9243
G01 X86.8828 Y31.9107
G01 X86.8698 Y31.8233
G01 X86.8675 Y31.8098
G01 X86.8645 Y31.7963
G01 X86.8430 Y31.7107
G01 X86.8393 Y31.6974
G01 X86.8350 Y31.6844
G01 X86.8053 Y31.6012
G01 X86.8003 Y31.5884
G01 X86.7947 Y31.5758
G01 X86.7570 Y31.4960
G01 X86.7508 Y31.4837
G01 X86.7440 Y31.4717
G01 X86.6986 Y31.3960
G01 X86.6913 Y31.3843
G01 X86.6833 Y31.3731
G01 X86.6307 Y31.3022
G01 X86.6223 Y31.2913
G01 X86.6133 Y31.2809
G01 X86.5540 Y31.2155
G01 X86.5445 Y31.2055
G01 X86.5345 Y31.1960
G01 X86.4691 Y31.1367
G01 X86.4587 Y31.1277
G01 X86.4478 Y31.1193
G01 X86.3769 Y31.0667
G01 X86.3657 Y31.0587
G01 X86.3540 Y31.0514
G01 X86.2783 Y31.0060
G01 X86.2663 Y30.9992
G01 X86.2540 Y30.9930
G01 X86.1742 Y30.9553
G01 X86.1616 Y30.9497
G01 X86.1488 Y30.9447
G01 X86.0656 Y30.9150
G01 X86.0526 Y30.9107
G01 X86.0393 Y30.9070
G01 X85.9537 Y30.8855
G01 X85.9335 Y30.8813
G01 X85.8393 Y30.8672
G01 X85.8257 Y30.8655
G01 X85.8120 Y30.8645
G01 X85.7169 Y30.8599
G01 X85.0100 Y30.8599
G01 X84.9963 Y30.8602
G01 X84.9012 Y30.8649
G01 X84.8807 Y30.8672
G01 X84.7933 Y30.8802
G01 X84.7798 Y30.8825
G01 X84.7663 Y30.8855
G01 X84.6807 Y30.9070
G01 X84.6674 Y30.9107
G01 X84.6544 Y30.9150
G01 X84.5712 Y30.9447
G01 X84.5584 Y30.9497
G01 X84.5458 Y30.9553
G01 X84.4660 Y30.9930
G01 X84.4537 Y30.9992
G01 X84.4417 Y31.0060
G01 X84.3660 Y31.0514
G01 X84.3543 Y31.0587
G01 X84.3431 Y31.0667
G01 X84.2722 Y31.1193
G01 X84.2613 Y31.1277
G01 X84.2509 Y31.1367
G01 X84.1855 Y31.1960
G01 X84.1755 Y31.2055
G01 X84.1660 Y31.2155
G01 X84.1067 Y31.2809
G01 X84.0977 Y31.2913
G01 X84.0893 Y31.3022
G01 X84.0367 Y31.3731
G01 X84.0287 Y31.3843
G01 X84.0214 Y31.3960
G01 X83.9760 Y31.4717
G01 X83.9692 Y31.4837
G01 X83.9630 Y31.4960
G01 X83.9253 Y31.5758
G01 X83.9197 Y31.5884
G01 X83.9147 Y31.6012
G01 X83.8850 Y31.6844
G01 X83.8807 Y31.6974
G01 X83.8770 Y31.7107
G01 X83.8540 Y31.8030
G01 X83.8502 Y31.8233
G01 X83.8372 Y31.9107
G01 X83.8355 Y31.9243
G01 X83.8345 Y31.9380
G01 X83.8302 Y32.0263
G01 X83.8299 Y32.0400
G01 X83.8302 Y32.0537
G01 X83.8345 Y32.1420
G01 X83.8355 Y32.1557
G01 X83.8372 Y32.1693
G01 X83.8502 Y32.2567
G01 X83.8540 Y32.2770
G01 X83.8770 Y32.3693
G01 X83.8807 Y32.3826
G01 X83.8850 Y32.3956
G01 X83.9147 Y32.4788
G01 X83.9224 Y32.4979
G01 X83.9630 Y32.5840
G01 X83.9725 Y32.6023
G01 X84.0250 Y32.6899
G01 X84.0326 Y32.7013
G01 X84.0571 Y32.7345
G01 X76.3762 Y40.4153
G01 X76.3762 Y34.1360
G01 X76.3747 Y34.1007
G01 X76.3725 Y34.0802
G01 X76.3680 Y34.0521
G01 X76.3596 Y34.0177
G01 X76.3556 Y34.0046
G01 X76.3484 Y33.9842
G01 X76.3408 Y33.9650
G01 X76.3254 Y33.9332
G01 X76.3103 Y33.9074
G01 X76.3393 Y33.8266
G01 X76.3436 Y33.8136
G01 X76.3473 Y33.8003
G01 X76.3664 Y33.7241
G01 X76.3694 Y33.7107
G01 X76.3717 Y33.6972
G01 X76.3833 Y33.6195
G01 X76.3849 Y33.6059
G01 X76.3860 Y33.5922
G01 X76.3898 Y33.5137
G01 X76.3901 Y33.5000
G01 X76.3898 Y33.4863
G01 X76.3860 Y33.4078
G01 X76.3849 Y33.3941
G01 X76.3833 Y33.3805
G01 X76.3717 Y33.3028
G01 X76.3680 Y33.2825
G01 X76.3473 Y33.1997
G01 X76.3436 Y33.1864
G01 X76.3393 Y33.1734
G01 X76.3129 Y33.0995
G01 X76.3079 Y33.0866
G01 X76.3024 Y33.0741
G01 X76.2688 Y33.0031
G01 X76.2593 Y32.9848
G01 X76.2155 Y32.9115
G01 X76.2081 Y32.8999
G01 X76.2002 Y32.8887
G01 X76.1534 Y32.8256
G01 X76.1450 Y32.8148
G01 X76.1360 Y32.8043
G01 X76.0833 Y32.7462
G01 X76.0689 Y32.7314
G01 X76.0057 Y32.6740
G01 X75.9952 Y32.6650
G01 X75.9844 Y32.6566
G01 X75.9213 Y32.6098
G01 X75.9043 Y32.5981
G01 X75.8311 Y32.5542
G01 X75.8192 Y32.5474
G01 X75.8069 Y32.5412
G01 X75.7359 Y32.5076
G01 X75.7234 Y32.5021
G01 X75.7105 Y32.4971
G01 X75.6366 Y32.4707
G01 X75.6236 Y32.4664
G01 X75.6103 Y32.4627
G01 X75.5341 Y32.4436
G01 X75.5207 Y32.4406
G01 X75.5072 Y32.4383
G01 X75.4295 Y32.4267
G01 X75.4159 Y32.4251
G01 X75.4022 Y32.4240
G01 X75.3237 Y32.4202
G01 X75.3100 Y32.4199
G01 X75.2963 Y32.4202
G01 X75.2178 Y32.4240
G01 X75.2041 Y32.4251
G01 X75.1905 Y32.4267
G01 X75.1128 Y32.4383
G01 X75.0993 Y32.4406
G01 X75.0859 Y32.4436
G01 X75.0097 Y32.4627
G01 X74.9964 Y32.4664
G01 X74.9834 Y32.4707
G01 X74.9095 Y32.4971
G01 X74.8966 Y32.5021
G01 X74.8841 Y32.5076
G01 X74.8131 Y32.5412
G01 X74.8008 Y32.5474
G01 X74.7889 Y32.5542
G01 X74.7215 Y32.5945
G01 X74.7099 Y32.6019
G01 X74.6987 Y32.6098
G01 X74.6356 Y32.6566
G01 X74.6248 Y32.6650
G01 X74.6143 Y32.6740
G01 X74.5562 Y32.7267
G01 X74.5462 Y32.7362
G01 X74.5367 Y32.7462
G01 X74.4840 Y32.8043
G01 X74.4750 Y32.8148
G01 X74.4666 Y32.8256
G01 X74.4198 Y32.8887
G01 X74.4119 Y32.8999
G01 X74.4045 Y32.9115
G01 X74.3642 Y32.9789
G01 X74.3574 Y32.9908
G01 X74.3512 Y33.0031
G01 X74.3176 Y33.0741
G01 X74.3121 Y33.0866
G01 X74.3071 Y33.0995
G01 X74.2807 Y33.1734
G01 X74.2764 Y33.1864
G01 X74.2727 Y33.1997
G01 X74.2536 Y33.2759
G01 X74.2506 Y33.2893
G01 X74.2483 Y33.3028
G01 X74.2358 Y33.3873
G01 X74.2340 Y33.4078
G01 X74.2302 Y33.4863
G01 X74.2299 Y33.5000
G01 X74.2302 Y33.5137
G01 X74.2340 Y33.5922
G01 X74.2351 Y33.6059
G01 X74.2367 Y33.6195
G01 X74.2493 Y33.7040
G01 X74.2536 Y33.7241
G01 X74.2727 Y33.8003
G01 X74.2764 Y33.8136
G01 X74.2807 Y33.8266
G01 X74.3071 Y33.9005
G01 X74.3121 Y33.9134
G01 X74.3176 Y33.9259
G01 X74.3512 Y33.9969
G01 X74.3574 Y34.0092
G01 X74.3642 Y34.0211
G01 X74.4045 Y34.0885
G01 X74.4119 Y34.1001
G01 X74.4198 Y34.1113
G01 X74.4666 Y34.1744
G01 X74.4750 Y34.1852
G01 X74.4840 Y34.1957
G01 X74.5367 Y34.2538
G01 X74.5462 Y34.2638
G01 X74.5562 Y34.2733
G01 X74.6143 Y34.3260
G01 X74.6248 Y34.3350
G01 X74.6356 Y34.3434
G01 X74.6987 Y34.3902
G01 X74.7157 Y34.4019
G01 X74.7889 Y34.4458
G01 X74.8008 Y34.4526
G01 X74.8131 Y34.4588
G01 X74.8841 Y34.4924
G01 X74.8966 Y34.4979
G01 X74.9095 Y34.5029
G01 X74.9834 Y34.5293
G01 X74.9964 Y34.5336
G01 X75.0097 Y34.5373
G01 X75.0859 Y34.5564
G01 X75.0993 Y34.5594
G01 X75.1128 Y34.5617
G01 X75.1905 Y34.5733
G01 X75.2041 Y34.5749
G01 X75.2178 Y34.5760
G01 X75.2963 Y34.5798
G01 X75.3100 Y34.5801
G01 X75.3237 Y34.5798
G01 X75.4022 Y34.5760
G01 X75.4159 Y34.5749
G01 X75.4295 Y34.5733
G01 X75.5158 Y34.5603
G01 X75.5158 Y37.0361
G01 X64.5214 Y26.0418
G01 X64.4954 Y26.0179
G01 X64.4848 Y26.0091
G01 X64.4675 Y25.9962
G01 X64.4562 Y25.9883
G01 X64.4446 Y25.9809
G01 X64.4260 Y25.9699
G01 X64.4139 Y25.9634
G01 X64.3818 Y25.9485
G01 X64.3486 Y25.9364
G01 X64.3355 Y25.9324
G01 X64.3145 Y25.9271
G01 X64.2944 Y25.9228
G01 X64.2594 Y25.9178
G01 X64.2241 Y25.9159
G01 X60.8436 Y25.9158
G01 X60.8151 Y25.9168
G01 X60.7946 Y25.9186
G01 X60.7596 Y25.9240
G01 X60.7319 Y25.9306
G01 X60.7121 Y25.9364
G01 X60.6789 Y25.9485
G01 X60.6469 Y25.9634
G01 X60.6288 Y25.9734
G01 X60.6103 Y25.9845
G01 X60.5989 Y25.9922
G01 X60.5706 Y26.0134
G01 X60.5602 Y26.0224
G01 X60.5394 Y26.0418
G01 X60.0768 Y26.5044
G01 X60.0860 Y26.4670
G01 X60.0887 Y26.4535
G01 X60.1037 Y26.3525
G01 X60.1055 Y26.3320
G01 X60.1101 Y26.2369
G01 X60.1098 Y26.2163
G01 X60.1055 Y26.1280
G01 X60.1045 Y26.1143
G01 X60.1028 Y26.1007
G01 X60.0887 Y26.0065
G01 X60.0845 Y25.9863
G01 X60.0630 Y25.9007
G01 X60.0593 Y25.8874
G01 X60.0550 Y25.8744
G01 X60.0253 Y25.7912
G01 X60.0203 Y25.7784
G01 X60.0147 Y25.7658
G01 X59.9770 Y25.6860
G01 X59.9708 Y25.6737
G01 X59.9640 Y25.6617
G01 X59.9150 Y25.5801
G01 X59.9033 Y25.5631
G01 X59.8507 Y25.4922
G01 X59.8423 Y25.4813
G01 X59.8333 Y25.4709
G01 X59.7740 Y25.4055
G01 X59.7645 Y25.3955
G01 X59.7545 Y25.3860
G01 X59.6891 Y25.3267
G01 X59.6787 Y25.3177
G01 X59.6678 Y25.3093
G01 X59.5969 Y25.2567
G01 X59.5857 Y25.2487
G01 X59.5740 Y25.2414
G01 X59.4983 Y25.1960
G01 X59.4863 Y25.1892
G01 X59.4740 Y25.1830
G01 X59.3942 Y25.1453
G01 X59.3816 Y25.1397
G01 X59.3688 Y25.1347
G01 X59.2856 Y25.1050
G01 X59.2726 Y25.1007
G01 X59.2593 Y25.0970
G01 X59.1737 Y25.0755
G01 X59.1602 Y25.0725
G01 X59.1602 Y24.8475
G01 X59.1737 Y24.8445
G01 X59.2593 Y24.8230
G01 X59.2726 Y24.8193
G01 X59.2856 Y24.8150
G01 X59.3688 Y24.7853
G01 X59.3816 Y24.7803
G01 X59.3942 Y24.7747
G01 X59.4740 Y24.7370
G01 X59.4863 Y24.7308
G01 X59.4983 Y24.7240
G01 X59.5740 Y24.6786
G01 X59.5857 Y24.6713
G01 X59.5969 Y24.6633
G01 X59.6678 Y24.6107
G01 X59.6787 Y24.6023
G01 X59.6891 Y24.5933
G01 X59.7545 Y24.5340
G01 X59.7645 Y24.5245
G01 X59.7740 Y24.5145
G01 X59.8333 Y24.4491
G01 X59.8423 Y24.4387
G01 X59.8507 Y24.4278
G01 X59.9033 Y24.3569
G01 X59.9113 Y24.3457
G01 X59.9186 Y24.3340
G01 X59.9640 Y24.2583
G01 X59.9708 Y24.2463
G01 X59.9770 Y24.2340
G01 X60.0176 Y24.1479
G01 X60.0229 Y24.1352
G01 X60.0283 Y24.1202
G01 X79.3718 Y24.1202
G01 X84.0571 Y28.8055
G01 X84.0326 Y28.8387
G01 X84.0250 Y28.8501
G01 X83.9760 Y28.9317
G01 X83.9660 Y28.9498
G01 X83.9253 Y29.0358
G01 X83.9197 Y29.0484
G01 X83.9147 Y29.0612
G01 X83.8850 Y29.1444
G01 X83.8788 Y29.1640
G01 X83.8555 Y29.2563
G01 X83.8525 Y29.2698
G01 X83.8502 Y29.2833
G01 X83.8372 Y29.3707
G01 X83.8355 Y29.3843
G01 X83.8345 Y29.3980
G01 X83.8302 Y29.4863
G01 X83.8299 Y29.5000
G01 X83.8302 Y29.5137
G01 X83.8345 Y29.6020
G01 X83.8363 Y29.6225
G01 X83.8502 Y29.7167
G01 X83.8525 Y29.7302
G01 X83.8555 Y29.7437
G01 X83.8770 Y29.8293
G01 X83.8807 Y29.8426
G01 X83.8850 Y29.8556
G01 X83.9147 Y29.9388
G01 X83.9197 Y29.9516
G01 X83.9253 Y29.9642
G01 X83.9630 Y30.0440
G01 X83.9692 Y30.0563
G01 X83.9760 Y30.0683
G01 X84.0214 Y30.1440
G01 X84.0287 Y30.1557
G01 X84.0367 Y30.1669
G01 X84.0893 Y30.2378
G01 X84.0977 Y30.2487
G01 X84.1067 Y30.2591
G01 X84.1660 Y30.3245
G01 X84.1755 Y30.3345
G01 X84.1855 Y30.3440
G01 X84.2561 Y30.4078
G01 X84.2722 Y30.4207
G01 X84.3431 Y30.4733
G01 X84.3543 Y30.4813
G01 X84.3660 Y30.4886
G01 X84.4417 Y30.5340
G01 X84.4537 Y30.5408
G01 X84.4660 Y30.5470
G01 X84.5458 Y30.5847
G01 X84.5584 Y30.5903
G01 X84.5712 Y30.5953
G01 X84.6544 Y30.6250
G01 X84.6674 Y30.6293
G01 X84.6807 Y30.6330
G01 X84.7663 Y30.6545
G01 X84.7798 Y30.6575
G01 X84.7933 Y30.6598
G01 X84.8807 Y30.6728
G01 X84.8943 Y30.6745
G01 X84.9080 Y30.6755
G01 X85.0031 Y30.6801
G01 X85.7169 Y30.6801
G01 X85.8120 Y30.6755
G01 X85.8257 Y30.6745
G01 X85.8393 Y30.6728
G01 X85.9267 Y30.6598
G01 X85.9402 Y30.6575
G01 X85.9537 Y30.6545
G01 X86.0393 Y30.6330
G01 X86.0526 Y30.6293
G01 X86.0656 Y30.6250
G01 X86.1488 Y30.5953
G01 X86.1616 Y30.5903
G01 X86.1742 Y30.5847
G01 X86.2540 Y30.5470
G01 X86.2663 Y30.5408
G01 X86.2783 Y30.5340
G01 X86.3540 Y30.4886
G01 X86.3657 Y30.4813
G01 X86.3769 Y30.4733
G01 X86.4478 Y30.4207
G01 X86.4587 Y30.4123
G01 X86.4691 Y30.4033
G01 X86.5396 Y30.3393
G01 X86.5540 Y30.3245
G01 X86.6133 Y30.2591
G01 X86.6223 Y30.2487
G01 X86.6307 Y30.2378
G01 X86.6833 Y30.1669
G01 X86.6913 Y30.1557
G01 X86.6986 Y30.1440
G01 X86.7440 Y30.0683
G01 X86.7508 Y30.0563
G01 X86.7570 Y30.0440
G01 X86.7947 Y29.9642
G01 X86.8003 Y29.9516
G01 X86.8053 Y29.9388
G01 X86.8350 Y29.8556
G01 X86.8393 Y29.8426
G01 X86.8430 Y29.8293
G01 X86.8645 Y29.7437
G01 X86.8675 Y29.7302
G01 X86.8698 Y29.7167
G01 X86.8828 Y29.6293
G01 X86.8845 Y29.6157
G01 X86.8855 Y29.6020
G01 X86.8898 Y29.5137
G01 X86.8901 Y29.5000
G01 X86.8898 Y29.4863
G01 X86.8855 Y29.3980
G01 X86.8845 Y29.3843
G01 X86.8828 Y29.3707
G01 X86.8698 Y29.2833
G01 X86.8675 Y29.2698
G01 X86.8645 Y29.2563
G01 X86.8430 Y29.1707
G01 X86.8393 Y29.1574
G01 X86.8350 Y29.1444
G01 X86.8053 Y29.0612
G01 X86.8003 Y29.0484
G01 X86.7947 Y29.0358
G01 X86.7570 Y28.9560
G01 X86.7508 Y28.9437
G01 X86.7440 Y28.9317
G01 X86.6986 Y28.8560
G01 X86.6913 Y28.8443
G01 X86.6833 Y28.8331
G01 X86.6307 Y28.7622
G01 X86.6223 Y28.7513
G01 X86.6133 Y28.7409
G01 X86.5493 Y28.6704
G01 X86.5345 Y28.6560
G01 X86.4691 Y28.5967
G01 X86.4587 Y28.5877
G01 X86.4478 Y28.5793
G01 X86.3769 Y28.5267
G01 X86.3657 Y28.5187
G01 X86.3540 Y28.5114
G01 X86.2783 Y28.4660
G01 X86.2663 Y28.4592
G01 X86.2540 Y28.4530
G01 X86.1742 Y28.4153
G01 X86.1616 Y28.4097
G01 X86.1488 Y28.4047
G01 X86.0656 Y28.3750
G01 X86.0526 Y28.3707
G01 X86.0393 Y28.3670
G01 X85.9537 Y28.3455
G01 X85.9402 Y28.3425
G01 X85.9267 Y28.3402
G01 X85.8393 Y28.3272
G01 X85.8257 Y28.3255
G01 X85.8120 Y28.3245
G01 X85.7237 Y28.3202
G01 X85.7100 Y28.3199
G01 X85.0031 Y28.3199
G01 X84.9080 Y28.3245
G01 X84.8943 Y28.3255
G01 X84.8807 Y28.3272
G01 X84.8066 Y28.3382
G01 X79.8542 Y23.3858
G01 X79.8282 Y23.3619
G01 X79.8121 Y23.3490
G01 X79.7890 Y23.3323
G01 X79.7588 Y23.3139
G01 X79.7405 Y23.3044
G01 X79.7146 Y23.2925
G01 X79.6814 Y23.2804
G01 X79.6616 Y23.2746
G01 X79.6339 Y23.2680
G01 X79.5990 Y23.2626
G01 X79.5785 Y23.2608
G01 X79.5500 Y23.2598
G01 X60.0283 Y23.2598
G01 X60.0229 Y23.2448
G01 X60.0176 Y23.2321
G01 X59.9770 Y23.1460
G01 X59.9708 Y23.1337
G01 X59.9640 Y23.1217
G01 X59.9186 Y23.0460
G01 X59.9113 Y23.0343
G01 X59.9033 Y23.0231
G01 X59.8507 Y22.9522
G01 X59.8423 Y22.9413
G01 X59.8333 Y22.9309
G01 X59.7740 Y22.8655
G01 X59.7645 Y22.8555
G01 X59.7545 Y22.8460
G01 X59.6891 Y22.7867
G01 X59.6787 Y22.7777
G01 X59.6678 Y22.7693
G01 X59.5969 Y22.7167
G01 X59.5857 Y22.7087
G01 X59.5740 Y22.7014
G01 X59.4983 Y22.6560
G01 X59.4863 Y22.6492
G01 X59.4740 Y22.6430
G01 X59.3942 Y22.6053
G01 X59.3816 Y22.5997
G01 X59.3688 Y22.5947
G01 X59.2856 Y22.5650
G01 X59.2726 Y22.5607
G01 X59.2593 Y22.5570
G01 X59.1737 Y22.5355
G01 X59.1602 Y22.5325
G01 X59.1467 Y22.5302
G01 X59.0593 Y22.5172
G01 X59.0388 Y22.5149
G01 X58.9437 Y22.5102
G01 X58.9300 Y22.5099
G01 X58.5231 Y22.5099
G01 X58.4280 Y22.5145
G01 X58.4143 Y22.5155
G01 X58.4007 Y22.5172
G01 X58.3133 Y22.5302
G01 X58.2998 Y22.5325
G01 X58.2863 Y22.5355
G01 X58.2007 Y22.5570
G01 X58.1874 Y22.5607
G01 X58.1744 Y22.5650
G01 X58.0912 Y22.5947
G01 X58.0784 Y22.5997
G01 X58.0658 Y22.6053
G01 X57.9860 Y22.6430
G01 X57.9737 Y22.6492
G01 X57.9617 Y22.6560
G01 X57.8860 Y22.7014
G01 X57.8743 Y22.7087
G01 X57.8631 Y22.7167
G01 X57.7922 Y22.7693
G01 X57.7813 Y22.7777
G01 X57.7709 Y22.7867
G01 X57.7055 Y22.8460
G01 X57.6955 Y22.8555
G01 X57.6860 Y22.8655
G01 X57.6267 Y22.9309
G01 X57.6177 Y22.9413
G01 X57.6093 Y22.9522
G01 X57.5567 Y23.0231
G01 X57.5487 Y23.0343
G01 X57.5414 Y23.0460
G01 X57.4960 Y23.1217
G01 X57.4892 Y23.1337
G01 X57.4830 Y23.1460
G01 X57.4453 Y23.2258
G01 X57.4397 Y23.2384
G01 X57.4347 Y23.2512
G01 X57.4050 Y23.3344
G01 X57.4007 Y23.3474
G01 X57.3970 Y23.3607
G01 X57.3755 Y23.4463
G01 X57.3725 Y23.4598
G01 X57.3702 Y23.4733
G01 X57.3572 Y23.5607
G01 X57.3555 Y23.5743
G01 X57.3545 Y23.5880
G01 X57.3502 Y23.6763
G01 X57.3499 Y23.6900
G01 X57.3502 Y23.7037
G01 X57.3545 Y23.7920
G01 X57.3555 Y23.8057
G01 X57.3572 Y23.8193
G01 X57.3702 Y23.9067
G01 X57.3725 Y23.9202
G01 X57.3755 Y23.9337
G01 X57.3970 Y24.0193
G01 X57.4007 Y24.0326
G01 X57.4050 Y24.0456
G01 X57.4347 Y24.1288
G01 X57.4397 Y24.1416
G01 X57.4453 Y24.1542
G01 X57.4830 Y24.2340
G01 X57.4892 Y24.2463
G01 X57.4960 Y24.2583
G01 X57.5414 Y24.3340
G01 X57.5487 Y24.3457
G01 X57.5567 Y24.3569
G01 X57.6093 Y24.4278
G01 X57.6177 Y24.4387
G01 X57.6267 Y24.4491
G01 X57.6860 Y24.5145
G01 X57.6955 Y24.5245
G01 X57.7055 Y24.5340
G01 X57.7709 Y24.5933
G01 X57.7813 Y24.6023
G01 X57.7922 Y24.6107
G01 X57.8631 Y24.6633
G01 X57.8743 Y24.6713
G01 X57.8860 Y24.6786
G01 X57.9617 Y24.7240
G01 X57.9737 Y24.7308
G01 X57.9860 Y24.7370
G01 X58.0658 Y24.7747
G01 X58.0784 Y24.7803
G01 X58.0912 Y24.7853
G01 X58.1744 Y24.8150
G01 X58.1874 Y24.8193
G01 X58.2007 Y24.8230
G01 X58.2863 Y24.8445
G01 X58.2998 Y24.8475
G01 X58.2998 Y25.0725
G01 X58.2863 Y25.0755
G01 X58.2007 Y25.0970
G01 X58.1874 Y25.1007
G01 X58.1744 Y25.1050
G01 X58.0912 Y25.1347
G01 X58.0784 Y25.1397
G01 X58.0658 Y25.1453
G01 X57.9860 Y25.1830
G01 X57.9737 Y25.1892
G01 X57.9617 Y25.1960
G01 X57.8860 Y25.2414
G01 X57.8743 Y25.2487
G01 X57.8631 Y25.2567
G01 X57.7922 Y25.3093
G01 X57.7813 Y25.3177
G01 X57.7709 Y25.3267
G01 X57.7055 Y25.3860
G01 X57.6955 Y25.3955
G01 X57.6860 Y25.4055
G01 X57.6267 Y25.4709
G01 X57.6177 Y25.4813
G01 X57.6093 Y25.4922
G01 X57.5567 Y25.5631
G01 X57.5487 Y25.5743
G01 X57.5414 Y25.5860
G01 X57.4960 Y25.6617
G01 X57.4892 Y25.6737
G01 X57.4830 Y25.6860
G01 X57.4453 Y25.7658
G01 X57.4397 Y25.7784
G01 X57.4347 Y25.7912
G01 X57.4050 Y25.8744
G01 X57.4007 Y25.8874
G01 X57.3970 Y25.9007
G01 X57.3755 Y25.9863
G01 X57.3725 Y25.9998
G01 X57.3702 Y26.0133
G01 X57.3572 Y26.1007
G01 X57.3549 Y26.1212
G01 X57.3502 Y26.2163
G01 X57.3499 Y26.2300
G01 X57.3502 Y26.2437
G01 X57.3545 Y26.3320
G01 X57.3555 Y26.3457
G01 X57.3572 Y26.3593
G01 X57.3702 Y26.4467
G01 X57.3725 Y26.4602
G01 X57.3755 Y26.4737
G01 X57.3970 Y26.5593
G01 X57.4007 Y26.5726
G01 X57.4050 Y26.5856
G01 X57.4347 Y26.6688
G01 X57.4397 Y26.6816
G01 X57.4453 Y26.6942
G01 X57.4830 Y26.7740
G01 X57.4892 Y26.7863
G01 X57.4960 Y26.7983
G01 X57.5414 Y26.8740
G01 X57.5487 Y26.8857
G01 X57.5567 Y26.8969
G01 X57.6093 Y26.9678
G01 X57.6177 Y26.9787
G01 X57.6267 Y26.9891
G01 X57.6860 Y27.0545
G01 X57.6955 Y27.0645
G01 X57.7055 Y27.0740
G01 X57.7709 Y27.1333
G01 X57.7813 Y27.1423
G01 X57.7922 Y27.1507
G01 X57.8631 Y27.2033
G01 X57.8743 Y27.2113
G01 X57.8860 Y27.2186
G01 X57.9617 Y27.2640
G01 X57.9737 Y27.2708
G01 X57.9860 Y27.2770
G01 X58.0658 Y27.3147
G01 X58.0784 Y27.3203
G01 X58.0912 Y27.3253
G00 Z2.0000
G00 X58.1493 Y27.1629
G01 F60.00
G01 Z-0.1000
G01 F120.00
G01 X58.1395 Y27.1589
G01 X58.0597 Y27.1211
G01 X58.0503 Y27.1161
G01 X57.9701 Y27.0679
G01 X57.8907 Y27.0090
G01 X57.8174 Y26.9426
G01 X57.7545 Y26.8733
G01 X57.7477 Y26.8651
G01 X57.6951 Y26.7942
G01 X57.6893 Y26.7854
G01 X57.6412 Y26.7051
G01 X57.5990 Y26.6156
G01 X57.5656 Y26.5225
G01 X57.5428 Y26.4318
G01 X57.5407 Y26.4214
G01 X57.5278 Y26.3340
G01 X57.5267 Y26.3235
G01 X57.5223 Y26.2300
G01 X57.5267 Y26.1365
G01 X57.5274 Y26.1286
G01 X57.5416 Y26.0334
G01 X57.5656 Y25.9375
G01 X57.5990 Y25.8444
G01 X57.6389 Y25.7597
G01 X57.6439 Y25.7503
G01 X57.6893 Y25.6746
G01 X57.6951 Y25.6658
G01 X57.7510 Y25.5907
G01 X57.8138 Y25.5212
G01 X57.8193 Y25.5156
G01 X57.8907 Y25.4510
G01 X57.9701 Y25.3921
G01 X58.0549 Y25.3412
G01 X58.1419 Y25.3000
G01 X58.1493 Y25.2971
G01 X58.2375 Y25.2656
G01 X58.3308 Y25.2422
G01 X58.3386 Y25.2407
G01 X58.4286 Y25.2274
G01 X58.4722 Y25.2250
G01 X58.4722 Y24.6950
G01 X58.4286 Y24.6926
G01 X58.3386 Y24.6793
G01 X58.3308 Y24.6778
G01 X58.2375 Y24.6544
G01 X58.1493 Y24.6229
G01 X58.1419 Y24.6200
G01 X58.0549 Y24.5788
G01 X57.9701 Y24.5279
G01 X57.8907 Y24.4690
G01 X57.8212 Y24.4062
G01 X57.8156 Y24.4007
G01 X57.7510 Y24.3293
G01 X57.6921 Y24.2499
G01 X57.6412 Y24.1651
G01 X57.5990 Y24.0756
G01 X57.5656 Y23.9825
G01 X57.5416 Y23.8866
G01 X57.5271 Y23.7888
G01 X57.5224 Y23.6953
G01 X57.5224 Y23.6847
G01 X57.5271 Y23.5912
G01 X57.5416 Y23.4934
G01 X57.5656 Y23.3975
G01 X57.5971 Y23.3093
G01 X57.6011 Y23.2995
G01 X57.6389 Y23.2197
G01 X57.6439 Y23.2103
G01 X57.6921 Y23.1301
G01 X57.7510 Y23.0507
G01 X57.8174 Y22.9774
G01 X57.8907 Y22.9110
G01 X57.9701 Y22.8521
G01 X58.0503 Y22.8039
G01 X58.0597 Y22.7989
G01 X58.1395 Y22.7611
G01 X58.1493 Y22.7571
G01 X58.2375 Y22.7256
G01 X58.3282 Y22.7028
G01 X58.3360 Y22.7011
G01 X58.4312 Y22.6871
G01 X58.5274 Y22.6823
G01 X58.9300 Y22.6823
G01 X59.0235 Y22.6867
G01 X59.0340 Y22.6878
G01 X59.1266 Y22.7016
G01 X59.2174 Y22.7242
G01 X59.2276 Y22.7273
G01 X59.3107 Y22.7571
G01 X59.3205 Y22.7611
G01 X59.4051 Y22.8012
G01 X59.4854 Y22.8493
G01 X59.4942 Y22.8551
G01 X59.5651 Y22.9077
G01 X59.5733 Y22.9145
G01 X59.6426 Y22.9774
G01 X59.7073 Y23.0487
G01 X59.7123 Y23.0549
G01 X59.7679 Y23.1301
G01 X59.8161 Y23.2103
G01 X59.8200 Y23.2173
G01 X59.8589 Y23.2995
G01 X59.8620 Y23.3068
G01 X59.8936 Y23.3949
G01 X59.9032 Y23.4322
G01 X79.5500 Y23.4322
G01 X79.5726 Y23.4332
G01 X79.5977 Y23.4366
G01 X79.6197 Y23.4419
G01 X79.6299 Y23.4449
G01 X79.6462 Y23.4508
G01 X79.6535 Y23.4539
G01 X79.6715 Y23.4626
G01 X79.6932 Y23.4756
G01 X79.7136 Y23.4907
G01 X79.7323 Y23.5077
G01 X84.7516 Y28.5270
G01 X84.8134 Y28.5116
G01 X84.9086 Y28.4974
G01 X84.9165 Y28.4967
G01 X85.0074 Y28.4923
G01 X85.7100 Y28.4923
G01 X85.8035 Y28.4967
G01 X85.8140 Y28.4978
G01 X85.9066 Y28.5116
G01 X86.0025 Y28.5356
G01 X86.0956 Y28.5690
G01 X86.1851 Y28.6112
G01 X86.2654 Y28.6593
G01 X86.2742 Y28.6651
G01 X86.3493 Y28.7210
G01 X86.4226 Y28.7874
G01 X86.4890 Y28.8607
G01 X86.5449 Y28.9358
G01 X86.5507 Y28.9446
G01 X86.5988 Y29.0249
G01 X86.6389 Y29.1095
G01 X86.6429 Y29.1193
G01 X86.6744 Y29.2075
G01 X86.6984 Y29.3034
G01 X86.7122 Y29.3960
G01 X86.7133 Y29.4065
G01 X86.7177 Y29.5000
G01 X86.7131 Y29.5961
G01 X86.7122 Y29.6040
G01 X86.6993 Y29.6914
G01 X86.6972 Y29.7018
G01 X86.6744 Y29.7925
G01 X86.6410 Y29.8856
G01 X86.6011 Y29.9703
G01 X86.5961 Y29.9797
G01 X86.5479 Y30.0599
G01 X86.4890 Y30.1393
G01 X86.4262 Y30.2088
G01 X86.4188 Y30.2162
G01 X86.3493 Y30.2790
G01 X86.2699 Y30.3379
G01 X86.1897 Y30.3861
G01 X86.1803 Y30.3911
G01 X86.0956 Y30.4310
G01 X86.0025 Y30.4644
G01 X85.9118 Y30.4872
G01 X85.9014 Y30.4893
G01 X85.8088 Y30.5029
G01 X85.7126 Y30.5077
G01 X85.0100 Y30.5077
G01 X84.9165 Y30.5033
G01 X84.9086 Y30.5026
G01 X84.8134 Y30.4884
G01 X84.7226 Y30.4658
G01 X84.7124 Y30.4627
G01 X84.6244 Y30.4310
G01 X84.5397 Y30.3911
G01 X84.5303 Y30.3861
G01 X84.4501 Y30.3379
G01 X84.3728 Y30.2807
G01 X84.3667 Y30.2755
G01 X84.2974 Y30.2126
G01 X84.2310 Y30.1393
G01 X84.1721 Y30.0599
G01 X84.1212 Y29.9751
G01 X84.0790 Y29.8856
G01 X84.0456 Y29.7925
G01 X84.0216 Y29.6966
G01 X84.0078 Y29.6040
G01 X84.0067 Y29.5935
G01 X84.0023 Y29.5000
G01 X84.0071 Y29.4012
G01 X84.0216 Y29.3034
G01 X84.0442 Y29.2126
G01 X84.0473 Y29.2024
G01 X84.0790 Y29.1144
G01 X84.1189 Y29.0297
G01 X84.1239 Y29.0203
G01 X84.1693 Y28.9446
G01 X84.1751 Y28.9358
G01 X84.2310 Y28.8607
G01 X84.2904 Y28.7950
G01 X79.4432 Y23.9478
G01 X59.9032 Y23.9478
G01 X59.8936 Y23.9851
G01 X59.8629 Y24.0707
G01 X59.8600 Y24.0781
G01 X59.8188 Y24.1651
G01 X59.7694 Y24.2477
G01 X59.7649 Y24.2542
G01 X59.7123 Y24.3251
G01 X59.7055 Y24.3333
G01 X59.6426 Y24.4026
G01 X59.5693 Y24.4690
G01 X59.4899 Y24.5279
G01 X59.4097 Y24.5761
G01 X59.4003 Y24.5811
G01 X59.3205 Y24.6189
G01 X59.3132 Y24.6220
G01 X59.2225 Y24.6544
G01 X59.1292 Y24.6778
G01 X59.1214 Y24.6793
G01 X59.0314 Y24.6926
G01 X58.9878 Y24.6950
G01 X58.9878 Y25.2250
G01 X59.0314 Y25.2274
G01 X59.1240 Y25.2411
G01 X59.1318 Y25.2428
G01 X59.2174 Y25.2642
G01 X59.2251 Y25.2664
G01 X59.3156 Y25.2990
G01 X59.4003 Y25.3389
G01 X59.4097 Y25.3439
G01 X59.4854 Y25.3893
G01 X59.4921 Y25.3936
G01 X59.5693 Y25.4510
G01 X59.6388 Y25.5138
G01 X59.6462 Y25.5212
G01 X59.7090 Y25.5907
G01 X59.7649 Y25.6658
G01 X59.7707 Y25.6746
G01 X59.8188 Y25.7549
G01 X59.8610 Y25.8444
G01 X59.8944 Y25.9375
G01 X59.9184 Y26.0334
G01 X59.9329 Y26.1312
G01 X59.9376 Y26.2247
G01 X59.9376 Y26.2353
G01 X59.9329 Y26.3288
G01 X59.9193 Y26.4214
G01 X59.9172 Y26.4318
G01 X59.8958 Y26.5174
G01 X59.8927 Y26.5276
G01 X59.8610 Y26.6156
G01 X59.8188 Y26.7051
G01 X59.7679 Y26.7899
G01 X59.7090 Y26.8693
G01 X59.6426 Y26.9426
G01 X59.5693 Y27.0090
G01 X59.4899 Y27.0679
G01 X59.4051 Y27.1188
G01 X59.3156 Y27.1610
G01 X59.2276 Y27.1927
G01 X59.2200 Y27.1951
G01 X59.1266 Y27.2184
G01 X59.0340 Y27.2322
G01 X59.0261 Y27.2331
G01 X58.9300 Y27.2377
G01 X58.5274 Y27.2377
G01 X58.4312 Y27.2329
G01 X58.3334 Y27.2184
G01 X58.2375 Y27.1944
G01 X58.1493 Y27.1629
G00 Z2.0000
G00 X58.7312 Y28.9302
G01 F60.00
G01 Z-0.1000
G01 F120.00
G01 X59.3508 Y28.9302
G01 X58.9117 Y29.3693
G01 X58.9152 Y29.3559
G01 X58.9180 Y29.3423
G01 X58.9210 Y29.3217
G01 X58.9221 Y29.3078
G01 X58.9225 Y29.2939
G01 X58.9219 Y29.2730
G01 X58.9197 Y29.2523
G01 X58.9097 Y29.1831
G01 X58.9074 Y29.1694
G01 X58.9044 Y29.1558
G01 X58.9007 Y29.1424
G01 X58.8964 Y29.1292
G01 X58.8914 Y29.1162
G01 X58.8828 Y29.0972
G01 X58.8727 Y29.0789
G01 X58.8653 Y29.0672
G01 X58.8572 Y29.0558
G01 X58.8442 Y29.0395
G01 X58.7938 Y28.9815
G01 X58.7792 Y28.9666
G01 X58.7688 Y28.9573
G01 X58.7580 Y28.9485
G01 X58.7468 Y28.9403
G01 X58.7312 Y28.9302
G00 Z2.0000
G00 X60.6479 Y29.6999
G01 F60.00
G01 Z-0.1000
G01 F120.00
G01 X60.9772 Y29.3706
G01 X60.9755 Y29.3843
G01 X60.9745 Y29.3980
G01 X60.9702 Y29.4863
G01 X60.9699 Y29.5000
G01 X60.9702 Y29.5137
G01 X60.9749 Y29.6088
G01 X60.9772 Y29.6293
G01 X60.9913 Y29.7235
G01 X60.9955 Y29.7437
G01 X61.0081 Y29.7938
G01 X60.9473 Y29.7484
G01 X60.9358 Y29.7407
G01 X60.9239 Y29.7335
G01 X60.9054 Y29.7238
G01 X60.8862 Y29.7156
G01 X60.8665 Y29.7087
G01 X60.8531 Y29.7050
G01 X60.8326 Y29.7007
G01 X60.8120 Y29.6980
G01 X60.7353 Y29.6924
G01 X60.7214 Y29.6917
G01 X60.7075 Y29.6918
G01 X60.6867 Y29.6931
G01 X60.6660 Y29.6960
G01 X60.6479 Y29.6999
G00 Z2.0000
G00 X61.6498 Y30.9723
G01 F60.00
G01 Z-0.1000
G01 F120.00
G01 X61.6650 Y30.9434
G01 X61.9466 Y30.6618
G01 X61.9699 Y30.6652
G01 X61.9699 Y30.8748
G01 X61.9265 Y30.8813
G01 X61.9130 Y30.8840
G01 X61.8207 Y30.9070
G01 X61.8074 Y30.9107
G01 X61.7944 Y30.9150
G01 X61.7048 Y30.9471
G01 X61.6921 Y30.9524
G01 X61.6498 Y30.9723
G00 Z2.0000
G00 X60.9075 Y31.6823
G01 F60.00
G01 Z-0.1000
G01 F120.00
G01 X60.9524 Y31.5440
G01 X61.0448 Y31.3627
G01 X61.1634 Y31.1994
G01 X61.1823 Y31.1823
G01 X61.3160 Y31.0487
G01 X61.4439 Y30.9556
G01 X61.4647 Y30.9379
G01 X61.4706 Y30.9324
G01 X61.4793 Y30.9224
G01 X61.4868 Y30.9114
G01 X61.5244 Y30.8403
G01 X61.8916 Y30.4730
G01 X61.9534 Y30.4884
G01 X62.0460 Y30.5022
G01 X62.0565 Y30.5033
G01 X62.1423 Y30.5075
G01 X62.1423 Y31.0325
G01 X62.0512 Y31.0371
G01 X61.9586 Y31.0507
G01 X61.9482 Y31.0528
G01 X61.8575 Y31.0756
G01 X61.7644 Y31.1090
G01 X61.6797 Y31.1489
G01 X61.6703 Y31.1539
G01 X61.5946 Y31.1993
G01 X61.5879 Y31.2036
G01 X61.5107 Y31.2610
G01 X61.4412 Y31.3238
G01 X61.4338 Y31.3312
G01 X61.3745 Y31.3967
G01 X61.3693 Y31.4028
G01 X61.3121 Y31.4801
G01 X61.2625 Y31.5626
G01 X61.2589 Y31.5697
G01 X61.2200 Y31.6519
G01 X61.2088 Y31.6823
G01 X60.9075 Y31.6823
G00 Z2.0000
G00 X62.8577 Y31.0325
G01 F60.00
G01 Z-0.1000
G01 F120.00
G01 X62.8577 Y30.5075
G01 X62.9435 Y30.5033
G01 X62.9540 Y30.5022
G01 X63.0466 Y30.4884
G01 X63.1084 Y30.4730
G01 X63.4741 Y30.8388
G01 X63.4766 Y30.8478
G01 X63.4803 Y30.8578
G01 X63.4851 Y30.8674
G01 X63.4892 Y30.8743
G01 X63.4939 Y30.8808
G01 X63.5366 Y30.9361
G01 X63.5450 Y30.9458
G01 X63.5506 Y30.9511
G01 X63.5586 Y30.9575
G01 X63.6840 Y31.0486
G01 X63.8177 Y31.1823
G01 X63.8366 Y31.1994
G01 X63.9552 Y31.3627
G01 X64.0476 Y31.5440
G01 X64.0925 Y31.6823
G01 X63.7912 Y31.6823
G01 X63.7800 Y31.6519
G01 X63.7411 Y31.5697
G01 X63.7375 Y31.5626
G01 X63.6879 Y31.4801
G01 X63.6307 Y31.4028
G01 X63.6255 Y31.3967
G01 X63.5662 Y31.3312
G01 X63.5588 Y31.3238
G01 X63.4893 Y31.2610
G01 X63.4121 Y31.2036
G01 X63.4054 Y31.1993
G01 X63.3297 Y31.1539
G01 X63.3203 Y31.1489
G01 X63.2356 Y31.1090
G01 X63.1425 Y31.0756
G01 X63.0518 Y31.0528
G01 X63.0414 Y31.0507
G01 X62.9488 Y31.0371
G01 X62.8577 Y31.0325
G00 Z2.0000
G00 X63.0301 Y30.8748
G01 F60.00
G01 Z-0.1000
G01 F120.00
G01 X63.0301 Y30.6652
G01 X63.0534 Y30.6618
G01 X63.3257 Y30.9341
G01 X63.3344 Y30.9512
G01 X63.3461 Y30.9704
G01 X63.3079 Y30.9524
G01 X63.2952 Y30.9471
G01 X63.2056 Y30.9150
G01 X63.1926 Y30.9107
G01 X63.1793 Y30.9070
G01 X63.0870 Y30.8840
G01 X63.0735 Y30.8813
G01 X63.0301 Y30.8748
G00 Z2.0000
G00 X64.0122 Y29.2992
G01 F60.00
G01 Z-0.1000
G01 F120.00
G01 X64.3732 Y29.6603
G01 X64.3011 Y29.6479
G01 X64.2872 Y29.6462
G01 X64.2734 Y29.6452
G01 X64.2525 Y29.6450
G01 X64.2386 Y29.6457
G01 X64.2179 Y29.6481
G01 X64.1974 Y29.6520
G01 X64.1772 Y29.6574
G01 X64.1575 Y29.6644
G01 X64.0867 Y29.6942
G01 X64.0678 Y29.7030
G01 X64.0496 Y29.7132
G01 X64.0323 Y29.7248
G01 X64.0158 Y29.7376
G01 X64.0032 Y29.7489
G01 X64.0060 Y29.7370
G01 X64.0087 Y29.7235
G01 X64.0237 Y29.6225
G01 X64.0255 Y29.6020
G01 X64.0301 Y29.5069
G01 X64.0298 Y29.4863
G01 X64.0251 Y29.3912
G01 X64.0228 Y29.3707
