(G-CODE GENERATED BY FLATCAM v8.994 - www.flatcam.org - Version Date: 2020/11/7)

(Name: astro-control-NPTH.drl_cnc)
(Type: G-code from Geometry)
(Units: MM)

(Created on Sunday, 28 December 2025 at 20:14)

(This preprocessor is the default preprocessor used by FlatCAM.)
(It is made to work with MACH3 compatible motion controllers.)


(TOOLS DIAMETER: )
(Tool: 1 -> Dia: 3.2)

(FEEDRATE Z: )
(Tool: 1 -> Feedrate: 300)

(FEEDRATE RAPIDS: )
(Tool: 1 -> Feedrate Rapids: 1500)

(Z_CUT: )
(Tool: 1 -> Z_Cut: -1.8)

(Tools Offset: )
(Tool: 1 -> Offset Z: 0.0)

(Z_MOVE: )
(Tool: 1 -> Z_Move: 2)

(Z Toolchange: 15 mm)
(X,Y Toolchange: 0.0000, 0.0000 mm)
(Z Start: None mm)
(Z End: 0.5 mm)
(X,Y End: None mm)
(Steps per circle: 64)
(Preprocessor Excellon: default)

(X range:   12.4000 ...  127.6000  mm)
(Y range:   12.4000 ...   77.6000  mm)

(Spindle Speed: 12000 RPM)
G21
G90
G94

G01 F300.00

M5
G00 Z15.0000
T1M6
(MSG, Change to Tool Dia = 3.2000 ||| Total drills for tool T1 = 4)
M0
G00 Z15.0000

G01 F300.00
M03 S12000
G00 X14.0000 Y14.0000
G01 Z-1.8000
G01 Z0
G00 Z2.0000
G00 X74.0000 Y14.0000
G01 Z-1.8000
G01 Z0
G00 Z2.0000
G00 X126.0000 Y76.0000
G01 Z-1.8000
G01 Z0
G00 Z2.0000
G00 X14.0000 Y76.0000
G01 Z-1.8000
G01 Z0
G00 Z2.0000
M05
G00 Z70.50


